(.../pcb-gcode-3.6.0.4/pcb-gcode.ulp)
(Copyright 2005 - 2012 by John Johnson)
(See readme.txt for licensing terms.)
(This file generated from the board:)
(.../eagle/iTrope/itrope-serial-v01.brd)
(Current profile is .../pcb-gcode-3.6.0.4/profiles/mach.pp  )
(This file generated 12/27/14 2:18 PM)
(Settings from pcb-machine.h)
(  Tool Size)
(0.0070  )
(Z Axis Settings)
(  High     Up        Down     Drill)
(0.5000  	0.1000  	-0.0070 	-0.0650 )
(spindle on time = 3.0000)
(milling depth = -0.0100)
(text depth = -0.0050)
(tool change at 0.5000  0.6000  2.0000  )
(feed rate xy = F6     )
(feed rate z  = F10    )
(Settings from pcb-defaults.h)
(isolate min = 0.0010)
(isolate max = 0.0200)
(isolate step = 0.0050)
(Generated top outlines, top drill, bottom outlines, )
(Unit of measure: inch)
( Tool|       Size       |  Min Sub |  Max Sub |   Count )
( T01 | 0.402mm 0.0158in | 0.0000in | 0.0000in |       0 )
( T02 | 1.000mm 0.0394in | 0.0000in | 0.0000in |       0 )
(Inch Mode)
G20
(Absolute Coordinates)
G90
M05
G00 Z2.0000  
G00 X0.5000  Y0.6000  
M06 T01  ; 0.0158  
G01 Z0.0000  F10    
M06 T01  ; 0.0158  
G00 Z0.1000  
M03
G04 P3.000000
G82 X0.2756  Y0.3346  Z-0.0650 F10    R0.1000  P1.000000
G82 X0.3346  Y0.3346  
G82 X0.3509  Y0.4722  
G82 X0.4528  Y0.4724  
G82 X0.5108  Y0.3927  
G82 X0.5600  Y0.6722  
G82 X0.6890  Y0.5512  
G82 X0.7087  Y0.2165  
G82 X0.7087  Y0.3937  
G82 X0.8131  Y0.4887  
G82 X0.8427  Y0.2033  
G82 X0.9252  Y0.1575  
G82 X0.9509  Y0.0360  
G82 X0.9646  Y0.3740  
G82 X0.9843  Y0.1378  
G82 X0.9843  Y0.2559  
G82 X0.9843  Y0.4134  
G82 X0.9843  Y0.0787  
G82 X1.0100  Y0.3313  
M05
G00 Z2.0000  
M06 T02  ; 0.0394  
G01 Z0.0000  F10    
M06 T02  ; 0.0394  
G00 Z0.1000  
M03
G04 P3.000000
G82 X0.1197  Y0.2000  Z-0.0650 F10    R0.1000  P1.000000
G82 X0.1197  Y0.3000  
G82 X0.1197  Y0.4000  
G82 X0.1197  Y0.5000  
G82 X0.1197  Y0.6000  
G82 X0.1197  Y0.1000  
T01 
G00 Z0.5000  
M05
M02
