(.../pcb-gcode-3.6.0.4/pcb-gcode.ulp)
(Copyright 2005 - 2012 by John Johnson)
(See readme.txt for licensing terms.)
(This file generated from the board:)
(.../eagle/iTrope/itrope-serial-v01.brd)
(Current profile is .../pcb-gcode-3.6.0.4/profiles/mach.pp  )
(This file generated 12/27/14 2:17 PM)
(Settings from pcb-machine.h)
(  Tool Size)
(0.0070  )
(Z Axis Settings)
(  High     Up        Down     Drill)
(0.5000  	0.1000  	-0.0070 	-0.0650 )
(spindle on time = 3.0000)
(milling depth = -0.0100)
(text depth = -0.0050)
(tool change at 0.5000  0.6000  2.0000  )
(feed rate xy = F6     )
(feed rate z  = F10    )
(Settings from pcb-defaults.h)
(isolate min = 0.0010)
(isolate max = 0.0200)
(isolate step = 0.0050)
(Generated top outlines, top drill, bottom outlines, )
(Unit of measure: inch)
(Inch Mode)
G20
(Absolute Coordinates)
G90
G00 X0.0000  Y0.0000  
M03
G04 P3.000000
G00 Z0.1000  
G00 X0.1720  Y0.2733  
G01 Z-0.0070 F10    
G01 X0.1676  Y0.2700  F6     
G01 X0.1627  Y0.2675  
G01 X0.1574  Y0.2658  
G01 X0.1520  Y0.2650  
G01 X0.1340  Y0.2650  
G01 X0.1340  Y0.2660  
G01 X0.1526  Y0.2660  
G01 X0.1591  Y0.2673  
G01 X0.1653  Y0.2698  
G01 X0.1709  Y0.2736  
G01 X0.1756  Y0.2783  
G01 X0.1794  Y0.2839  
G01 X0.1801  Y0.2857  
G01 X0.1812  Y0.2857  
G01 X0.1792  Y0.2816  
G01 X0.1759  Y0.2772  
G01 X0.1720  Y0.2733  
G00 Z0.1000  
G00 X0.0874  Y0.2650  
G01 Z-0.0070 F10    
G01 X0.0820  Y0.2658  F6     
G01 X0.0767  Y0.2675  
G01 X0.0718  Y0.2700  
G01 X0.0673  Y0.2733  
G01 X0.0634  Y0.2772  
G01 X0.0602  Y0.2816  
G01 X0.0582  Y0.2857  
G01 X0.0593  Y0.2857  
G01 X0.0600  Y0.2839  
G01 X0.0637  Y0.2783  
G01 X0.0685  Y0.2736  
G01 X0.0740  Y0.2698  
G01 X0.0802  Y0.2673  
G01 X0.0868  Y0.2660  
G01 X0.1053  Y0.2660  
G01 X0.1053  Y0.2650  
G01 X0.0874  Y0.2650  
G00 Z0.1000  
G00 X0.0602  Y0.3184  
G01 Z-0.0070 F10    
G01 X0.0634  Y0.3228  F6     
G01 X0.0673  Y0.3267  
G01 X0.0718  Y0.3300  
G01 X0.0767  Y0.3325  
G01 X0.0820  Y0.3342  
G01 X0.0874  Y0.3350  
G01 X0.1053  Y0.3350  
G01 X0.1053  Y0.3340  
G01 X0.0868  Y0.3340  
G01 X0.0802  Y0.3327  
G01 X0.0740  Y0.3302  
G01 X0.0685  Y0.3264  
G01 X0.0637  Y0.3217  
G01 X0.0600  Y0.3161  
G01 X0.0593  Y0.3143  
G01 X0.0582  Y0.3143  
G01 X0.0602  Y0.3184  
G00 Z0.1000  
G00 X0.1520  Y0.3350  
G01 Z-0.0070 F10    
G01 X0.1574  Y0.3342  F6     
G01 X0.1627  Y0.3325  
G01 X0.1676  Y0.3300  
G01 X0.1720  Y0.3267  
G01 X0.1759  Y0.3228  
G01 X0.1792  Y0.3184  
G01 X0.1812  Y0.3143  
G01 X0.1801  Y0.3143  
G01 X0.1794  Y0.3161  
G01 X0.1756  Y0.3217  
G01 X0.1709  Y0.3264  
G01 X0.1653  Y0.3302  
G01 X0.1591  Y0.3327  
G01 X0.1526  Y0.3340  
G01 X0.1340  Y0.3340  
G01 X0.1340  Y0.3350  
G01 X0.1520  Y0.3350  
G00 Z0.1000  
G00 X0.1804  Y0.6209  
G01 Z-0.0070 F10    
G01 X0.1861  Y0.6073  F6     
G01 X0.1861  Y0.5927  
G01 X0.1804  Y0.5791  
G01 X0.1701  Y0.5688  
G01 X0.1565  Y0.5632  
G01 X0.0828  Y0.5632  
G01 X0.0693  Y0.5688  
G01 X0.0589  Y0.5791  
G01 X0.0533  Y0.5927  
G01 X0.0533  Y0.6073  
G01 X0.0589  Y0.6209  
G01 X0.0693  Y0.6312  
G01 X0.0828  Y0.6368  
G01 X0.1565  Y0.6368  
G01 X0.1701  Y0.6312  
G01 X0.1804  Y0.6209  
G00 Z0.1000  
G00 X0.1526  Y0.6340  
G01 Z-0.0070 F10    
G01 X0.0868  Y0.6340  F6     
G01 X0.0802  Y0.6327  
G01 X0.0740  Y0.6302  
G01 X0.0685  Y0.6264  
G01 X0.0637  Y0.6217  
G01 X0.0600  Y0.6161  
G01 X0.0574  Y0.6099  
G01 X0.0561  Y0.6034  
G01 X0.0561  Y0.5966  
G01 X0.0574  Y0.5901  
G01 X0.0600  Y0.5839  
G01 X0.0637  Y0.5783  
G01 X0.0685  Y0.5736  
G01 X0.0740  Y0.5698  
G01 X0.0802  Y0.5673  
G01 X0.0868  Y0.5660  
G01 X0.1526  Y0.5660  
G01 X0.1591  Y0.5673  
G01 X0.1653  Y0.5698  
G01 X0.1709  Y0.5736  
G01 X0.1756  Y0.5783  
G01 X0.1794  Y0.5839  
G01 X0.1819  Y0.5901  
G01 X0.1832  Y0.5966  
G01 X0.1832  Y0.6034  
G01 X0.1819  Y0.6099  
G01 X0.1794  Y0.6161  
G01 X0.1756  Y0.6217  
G01 X0.1709  Y0.6264  
G01 X0.1653  Y0.6302  
G01 X0.1591  Y0.6327  
G01 X0.1526  Y0.6340  
G00 Z0.1000  
G00 X1.0584  Y0.0394  
G01 Z-0.0070 F10    
G01 X1.0584  Y0.0397  F6     
G01 X1.1125  Y0.0397  
G01 X1.1125  Y0.0389  
G01 X1.0622  Y0.0389  
G01 X1.0620  Y0.0390  
G01 X1.0613  Y0.0390  
G01 X1.0607  Y0.0392  
G01 X1.0595  Y0.0390  
G01 X1.0584  Y0.0390  
G01 X1.0584  Y0.0394  
G00 Z0.1000  
G00 X0.8368  Y0.5102  
G01 Z-0.0070 F10    
G01 X0.8354  Y0.5106  F6     
G01 X0.8342  Y0.5113  
G01 X0.8332  Y0.5123  
G01 X0.8324  Y0.5136  
G01 X0.8321  Y0.5150  
G01 X0.8321  Y0.5327  
G01 X0.8331  Y0.5327  
G01 X0.8331  Y0.5148  
G01 X0.8337  Y0.5132  
G01 X0.8350  Y0.5119  
G01 X0.8367  Y0.5112  
G01 X0.8506  Y0.5112  
G01 X0.8506  Y0.5102  
G01 X0.8368  Y0.5102  
G00 Z0.1000  
G00 X0.8982  Y0.5150  
G01 Z-0.0070 F10    
G01 X0.8978  Y0.5136  F6     
G01 X0.8971  Y0.5123  
G01 X0.8961  Y0.5113  
G01 X0.8948  Y0.5106  
G01 X0.8934  Y0.5102  
G01 X0.8796  Y0.5102  
G01 X0.8796  Y0.5112  
G01 X0.8936  Y0.5112  
G01 X0.8952  Y0.5119  
G01 X0.8965  Y0.5132  
G01 X0.8972  Y0.5148  
G01 X0.8972  Y0.5327  
G01 X0.8982  Y0.5327  
G01 X0.8982  Y0.5150  
G00 Z0.1000  
G00 X0.5655  Y0.2461  
G01 Z-0.0070 F10    
G01 X0.5642  Y0.2462  F6     
G01 X0.5630  Y0.2465  
G01 X0.5624  Y0.2465  
G01 X0.5617  Y0.2465  
G01 X0.5605  Y0.2462  
G01 X0.5592  Y0.2461  
G01 X0.5591  Y0.2459  
G01 X0.5591  Y0.2471  
G01 X0.5602  Y0.2482  
G01 X0.5609  Y0.2499  
G01 X0.5609  Y0.2688  
G01 X0.5638  Y0.2688  
G01 X0.5638  Y0.2499  
G01 X0.5645  Y0.2482  
G01 X0.5657  Y0.2471  
G01 X0.5657  Y0.2459  
G01 X0.5655  Y0.2461  
G00 Z0.1000  
G00 X0.4205  Y0.1753  
G01 Z-0.0070 F10    
G01 X0.4205  Y0.1825  F6     
G01 X0.4215  Y0.1825  
G01 X0.4215  Y0.1755  
G01 X0.4211  Y0.1741  
G01 X0.4204  Y0.1728  
G01 X0.4194  Y0.1718  
G01 X0.4181  Y0.1711  
G01 X0.4167  Y0.1707  
G01 X0.4136  Y0.1707  
G01 X0.4136  Y0.1717  
G01 X0.4169  Y0.1717  
G01 X0.4185  Y0.1724  
G01 X0.4198  Y0.1737  
G01 X0.4205  Y0.1753  
G00 Z0.1000  
G00 X0.4205  Y0.2125  
G01 Z-0.0070 F10    
G01 X0.4198  Y0.2142  F6     
G01 X0.4185  Y0.2155  
G01 X0.4169  Y0.2162  
G01 X0.4136  Y0.2162  
G01 X0.4136  Y0.2172  
G01 X0.4167  Y0.2172  
G01 X0.4181  Y0.2168  
G01 X0.4194  Y0.2161  
G01 X0.4204  Y0.2150  
G01 X0.4211  Y0.2138  
G01 X0.4215  Y0.2124  
G01 X0.4215  Y0.2053  
G01 X0.4205  Y0.2053  
G01 X0.4205  Y0.2125  
G00 Z0.1000  
G00 X1.0584  Y0.3150  
G01 Z-0.0070 F10    
G01 X1.0584  Y0.3153  F6     
G01 X1.1125  Y0.3153  
G01 X1.1125  Y0.3146  
G01 X1.0584  Y0.3146  
G01 X1.0584  Y0.3150  
G00 Z0.1000  
G00 X0.6151  Y0.6906  
G01 Z-0.0070 F10    
G01 X0.6155  Y0.6920  F6     
G01 X0.6162  Y0.6933  
G01 X0.6173  Y0.6943  
G01 X0.6185  Y0.6950  
G01 X0.6199  Y0.6954  
G01 X0.6230  Y0.6954  
G01 X0.6230  Y0.6944  
G01 X0.6197  Y0.6944  
G01 X0.6181  Y0.6937  
G01 X0.6168  Y0.6925  
G01 X0.6161  Y0.6908  
G01 X0.6161  Y0.6836  
G01 X0.6151  Y0.6836  
G01 X0.6151  Y0.6906  
G00 Z0.1000  
G00 X0.2795  Y0.5356  
G01 Z-0.0070 F10    
G01 X0.2795  Y0.5967  F6     
G01 X0.2838  Y0.6010  
G01 X0.4570  Y0.6010  
G01 X0.4572  Y0.6008  
G01 X0.4577  Y0.6003  
G01 X0.4589  Y0.5999  
G01 X0.4600  Y0.5992  
G01 X0.4606  Y0.5991  
G01 X0.4612  Y0.5989  
G01 X0.4624  Y0.5989  
G01 X0.4633  Y0.5988  
G01 X0.4633  Y0.5974  
G01 X0.4621  Y0.5962  
G01 X0.4614  Y0.5945  
G01 X0.4614  Y0.5377  
G01 X0.4621  Y0.5361  
G01 X0.4633  Y0.5349  
G01 X0.4633  Y0.5335  
G01 X0.4624  Y0.5334  
G01 X0.4612  Y0.5334  
G01 X0.4606  Y0.5331  
G01 X0.4600  Y0.5331  
G01 X0.4589  Y0.5324  
G01 X0.4577  Y0.5319  
G01 X0.4572  Y0.5315  
G01 X0.4570  Y0.5313  
G01 X0.2838  Y0.5313  
G01 X0.2795  Y0.5356  
G00 Z0.1000  
G00 X0.2823  Y0.5945  
G01 Z-0.0070 F10    
G01 X0.2823  Y0.5377  F6     
G01 X0.2830  Y0.5361  
G01 X0.2843  Y0.5348  
G01 X0.2859  Y0.5341  
G01 X0.3014  Y0.5341  
G01 X0.3031  Y0.5348  
G01 X0.3043  Y0.5361  
G01 X0.3050  Y0.5377  
G01 X0.3050  Y0.5945  
G01 X0.3043  Y0.5962  
G01 X0.3031  Y0.5975  
G01 X0.3014  Y0.5981  
G01 X0.2859  Y0.5981  
G01 X0.2843  Y0.5975  
G01 X0.2830  Y0.5962  
G01 X0.2823  Y0.5945  
G00 Z0.1000  
G00 X0.3079  Y0.5945  
G01 Z-0.0070 F10    
G01 X0.3079  Y0.5377  F6     
G01 X0.3086  Y0.5361  
G01 X0.3099  Y0.5348  
G01 X0.3115  Y0.5341  
G01 X0.3270  Y0.5341  
G01 X0.3287  Y0.5348  
G01 X0.3299  Y0.5361  
G01 X0.3306  Y0.5377  
G01 X0.3306  Y0.5945  
G01 X0.3299  Y0.5962  
G01 X0.3287  Y0.5975  
G01 X0.3270  Y0.5981  
G01 X0.3115  Y0.5981  
G01 X0.3099  Y0.5975  
G01 X0.3086  Y0.5962  
G01 X0.3079  Y0.5945  
G00 Z0.1000  
G00 X0.3335  Y0.5945  
G01 Z-0.0070 F10    
G01 X0.3335  Y0.5377  F6     
G01 X0.3342  Y0.5361  
G01 X0.3354  Y0.5348  
G01 X0.3371  Y0.5341  
G01 X0.3526  Y0.5341  
G01 X0.3542  Y0.5348  
G01 X0.3555  Y0.5361  
G01 X0.3562  Y0.5377  
G01 X0.3562  Y0.5945  
G01 X0.3555  Y0.5962  
G01 X0.3542  Y0.5975  
G01 X0.3526  Y0.5981  
G01 X0.3371  Y0.5981  
G01 X0.3354  Y0.5975  
G01 X0.3342  Y0.5962  
G01 X0.3335  Y0.5945  
G00 Z0.1000  
G00 X0.3591  Y0.5945  
G01 Z-0.0070 F10    
G01 X0.3591  Y0.5377  F6     
G01 X0.3598  Y0.5361  
G01 X0.3610  Y0.5348  
G01 X0.3627  Y0.5341  
G01 X0.3782  Y0.5341  
G01 X0.3798  Y0.5348  
G01 X0.3811  Y0.5361  
G01 X0.3818  Y0.5377  
G01 X0.3818  Y0.5945  
G01 X0.3811  Y0.5962  
G01 X0.3798  Y0.5975  
G01 X0.3782  Y0.5981  
G01 X0.3627  Y0.5981  
G01 X0.3610  Y0.5975  
G01 X0.3598  Y0.5962  
G01 X0.3591  Y0.5945  
G00 Z0.1000  
G00 X0.3847  Y0.5945  
G01 Z-0.0070 F10    
G01 X0.3847  Y0.5377  F6     
G01 X0.3854  Y0.5361  
G01 X0.3866  Y0.5348  
G01 X0.3883  Y0.5341  
G01 X0.4038  Y0.5341  
G01 X0.4054  Y0.5348  
G01 X0.4067  Y0.5361  
G01 X0.4074  Y0.5377  
G01 X0.4074  Y0.5945  
G01 X0.4067  Y0.5962  
G01 X0.4054  Y0.5975  
G01 X0.4038  Y0.5981  
G01 X0.3883  Y0.5981  
G01 X0.3866  Y0.5975  
G01 X0.3854  Y0.5962  
G01 X0.3847  Y0.5945  
G00 Z0.1000  
G00 X0.4103  Y0.5945  
G01 Z-0.0070 F10    
G01 X0.4103  Y0.5377  F6     
G01 X0.4109  Y0.5361  
G01 X0.4122  Y0.5348  
G01 X0.4139  Y0.5341  
G01 X0.4294  Y0.5341  
G01 X0.4310  Y0.5348  
G01 X0.4323  Y0.5361  
G01 X0.4330  Y0.5377  
G01 X0.4330  Y0.5945  
G01 X0.4323  Y0.5962  
G01 X0.4310  Y0.5975  
G01 X0.4294  Y0.5981  
G01 X0.4139  Y0.5981  
G01 X0.4122  Y0.5975  
G01 X0.4109  Y0.5962  
G01 X0.4103  Y0.5945  
G00 Z0.1000  
G00 X0.4359  Y0.5945  
G01 Z-0.0070 F10    
G01 X0.4359  Y0.5377  F6     
G01 X0.4365  Y0.5361  
G01 X0.4378  Y0.5348  
G01 X0.4395  Y0.5341  
G01 X0.4550  Y0.5341  
G01 X0.4566  Y0.5348  
G01 X0.4579  Y0.5361  
G01 X0.4586  Y0.5377  
G01 X0.4586  Y0.5945  
G01 X0.4579  Y0.5962  
G01 X0.4566  Y0.5975  
G01 X0.4550  Y0.5981  
G01 X0.4395  Y0.5981  
G01 X0.4378  Y0.5975  
G01 X0.4365  Y0.5962  
G01 X0.4359  Y0.5945  
G00 Z0.1000  
G00 X0.0874  Y0.1650  
G01 Z-0.0070 F10    
G01 X0.0820  Y0.1658  F6     
G01 X0.0767  Y0.1675  
G01 X0.0718  Y0.1700  
G01 X0.0673  Y0.1733  
G01 X0.0634  Y0.1772  
G01 X0.0602  Y0.1816  
G01 X0.0582  Y0.1857  
G01 X0.0593  Y0.1857  
G01 X0.0600  Y0.1839  
G01 X0.0637  Y0.1783  
G01 X0.0685  Y0.1736  
G01 X0.0740  Y0.1698  
G01 X0.0802  Y0.1673  
G01 X0.0868  Y0.1660  
G01 X0.1053  Y0.1660  
G01 X0.1053  Y0.1650  
G01 X0.0874  Y0.1650  
G00 Z0.1000  
G00 X0.1792  Y0.1816  
G01 Z-0.0070 F10    
G01 X0.1759  Y0.1772  F6     
G01 X0.1720  Y0.1733  
G01 X0.1676  Y0.1700  
G01 X0.1627  Y0.1675  
G01 X0.1574  Y0.1658  
G01 X0.1520  Y0.1650  
G01 X0.1340  Y0.1650  
G01 X0.1340  Y0.1660  
G01 X0.1526  Y0.1660  
G01 X0.1591  Y0.1673  
G01 X0.1653  Y0.1698  
G01 X0.1709  Y0.1736  
G01 X0.1756  Y0.1783  
G01 X0.1794  Y0.1839  
G01 X0.1801  Y0.1857  
G01 X0.1812  Y0.1857  
G01 X0.1792  Y0.1816  
G00 Z0.1000  
G00 X0.1520  Y0.2350  
G01 Z-0.0070 F10    
G01 X0.1574  Y0.2342  F6     
G01 X0.1627  Y0.2325  
G01 X0.1676  Y0.2300  
G01 X0.1720  Y0.2267  
G01 X0.1759  Y0.2228  
G01 X0.1792  Y0.2184  
G01 X0.1812  Y0.2143  
G01 X0.1801  Y0.2143  
G01 X0.1794  Y0.2161  
G01 X0.1756  Y0.2217  
G01 X0.1709  Y0.2264  
G01 X0.1653  Y0.2302  
G01 X0.1591  Y0.2327  
G01 X0.1526  Y0.2340  
G01 X0.1340  Y0.2340  
G01 X0.1340  Y0.2350  
G01 X0.1520  Y0.2350  
G00 Z0.1000  
G00 X0.0673  Y0.2267  
G01 Z-0.0070 F10    
G01 X0.0718  Y0.2300  F6     
G01 X0.0767  Y0.2325  
G01 X0.0820  Y0.2342  
G01 X0.0874  Y0.2350  
G01 X0.1053  Y0.2350  
G01 X0.1053  Y0.2340  
G01 X0.0868  Y0.2340  
G01 X0.0802  Y0.2327  
G01 X0.0740  Y0.2302  
G01 X0.0685  Y0.2264  
G01 X0.0637  Y0.2217  
G01 X0.0600  Y0.2161  
G01 X0.0593  Y0.2143  
G01 X0.0582  Y0.2143  
G01 X0.0602  Y0.2184  
G01 X0.0634  Y0.2228  
G01 X0.0673  Y0.2267  
G00 Z0.1000  
G00 X0.4683  Y0.4844  
G01 Z-0.0070 F10    
G01 X0.4647  Y0.4880  F6     
G01 X0.4603  Y0.4905  
G01 X0.4553  Y0.4919  
G01 X0.4502  Y0.4919  
G01 X0.4453  Y0.4905  
G01 X0.4408  Y0.4880  
G01 X0.4372  Y0.4844  
G01 X0.4347  Y0.4799  
G01 X0.4333  Y0.4750  
G01 X0.4333  Y0.4699  
G01 X0.4341  Y0.4672  
G01 X0.4095  Y0.4426  
G01 X0.2992  Y0.4426  
G01 X0.2337  Y0.5081  
G01 X0.2302  Y0.5095  
G01 X0.1820  Y0.5095  
G01 X0.1819  Y0.5099  
G01 X0.1794  Y0.5161  
G01 X0.1756  Y0.5217  
G01 X0.1709  Y0.5264  
G01 X0.1653  Y0.5302  
G01 X0.1591  Y0.5327  
G01 X0.1526  Y0.5340  
G01 X0.0868  Y0.5340  
G01 X0.0802  Y0.5327  
G01 X0.0740  Y0.5302  
G01 X0.0685  Y0.5264  
G01 X0.0637  Y0.5217  
G01 X0.0600  Y0.5161  
G01 X0.0574  Y0.5099  
G01 X0.0561  Y0.5034  
G01 X0.0561  Y0.4966  
G01 X0.0574  Y0.4901  
G01 X0.0600  Y0.4839  
G01 X0.0637  Y0.4783  
G01 X0.0685  Y0.4736  
G01 X0.0740  Y0.4698  
G01 X0.0802  Y0.4673  
G01 X0.0868  Y0.4660  
G01 X0.1526  Y0.4660  
G01 X0.1591  Y0.4673  
G01 X0.1653  Y0.4698  
G01 X0.1709  Y0.4736  
G01 X0.1756  Y0.4783  
G01 X0.1794  Y0.4839  
G01 X0.1819  Y0.4901  
G01 X0.1820  Y0.4905  
G01 X0.2244  Y0.4905  
G01 X0.2872  Y0.4277  
G01 X0.2899  Y0.4250  
G01 X0.2934  Y0.4236  
G01 X0.4153  Y0.4236  
G01 X0.4188  Y0.4250  
G01 X0.4475  Y0.4537  
G01 X0.4502  Y0.4530  
G01 X0.4553  Y0.4530  
G01 X0.4603  Y0.4543  
G01 X0.4647  Y0.4569  
G01 X0.4683  Y0.4605  
G01 X0.4697  Y0.4629  
G01 X0.4940  Y0.4629  
G01 X0.4975  Y0.4644  
G01 X0.5294  Y0.4962  
G01 X0.5320  Y0.4989  
G01 X0.5335  Y0.5024  
G01 X0.5335  Y0.5349  
G01 X0.5346  Y0.5361  
G01 X0.5353  Y0.5377  
G01 X0.5353  Y0.5945  
G01 X0.5346  Y0.5962  
G01 X0.5334  Y0.5975  
G01 X0.5317  Y0.5981  
G01 X0.5162  Y0.5981  
G01 X0.5146  Y0.5975  
G01 X0.5133  Y0.5962  
G01 X0.5126  Y0.5945  
G01 X0.5126  Y0.5377  
G01 X0.5133  Y0.5361  
G01 X0.5145  Y0.5349  
G01 X0.5145  Y0.5082  
G01 X0.4882  Y0.4819  
G01 X0.4697  Y0.4819  
G01 X0.4683  Y0.4844  
G00 Z0.1000  
G00 X1.0621  Y0.0595  
G01 Z-0.0070 F10    
G01 X1.1820  Y0.0595  F6     
G01 X1.1837  Y0.0602  
G01 X1.1849  Y0.0614  
G01 X1.1856  Y0.0631  
G01 X1.1856  Y0.0747  
G01 X1.1849  Y0.0764  
G01 X1.1837  Y0.0776  
G01 X1.1820  Y0.0783  
G01 X1.0621  Y0.0783  
G01 X1.0604  Y0.0776  
G01 X1.0592  Y0.0764  
G01 X1.0585  Y0.0747  
G01 X1.0585  Y0.0631  
G01 X1.0592  Y0.0614  
G01 X1.0604  Y0.0602  
G01 X1.0621  Y0.0595  
G00 Z0.1000  
G00 X1.1820  Y0.0792  
G01 Z-0.0070 F10    
G01 X1.1837  Y0.0798  F6     
G01 X1.1849  Y0.0811  
G01 X1.1856  Y0.0828  
G01 X1.1856  Y0.0944  
G01 X1.1849  Y0.0961  
G01 X1.1837  Y0.0973  
G01 X1.1820  Y0.0980  
G01 X1.1241  Y0.0980  
G01 X1.1239  Y0.0981  
G01 X0.9922  Y0.0981  
G01 X0.9902  Y0.0973  
G01 X0.9868  Y0.0982  
G01 X0.9817  Y0.0982  
G01 X0.9768  Y0.0968  
G01 X0.9723  Y0.0943  
G01 X0.9687  Y0.0907  
G01 X0.9662  Y0.0862  
G01 X0.9648  Y0.0813  
G01 X0.9648  Y0.0762  
G01 X0.9662  Y0.0712  
G01 X0.9687  Y0.0668  
G01 X0.9723  Y0.0632  
G01 X0.9768  Y0.0606  
G01 X0.9817  Y0.0593  
G01 X0.9868  Y0.0593  
G01 X0.9917  Y0.0606  
G01 X0.9962  Y0.0632  
G01 X0.9998  Y0.0668  
G01 X1.0023  Y0.0712  
G01 X1.0037  Y0.0762  
G01 X1.0037  Y0.0791  
G01 X1.1239  Y0.0791  
G01 X1.1241  Y0.0792  
G01 X1.1820  Y0.0792  
G00 Z0.1000  
G00 X1.0621  Y0.0988  
G01 Z-0.0070 F10    
G01 X1.1820  Y0.0988  F6     
G01 X1.1837  Y0.0995  
G01 X1.1849  Y0.1008  
G01 X1.1856  Y0.1025  
G01 X1.1856  Y0.1141  
G01 X1.1849  Y0.1157  
G01 X1.1837  Y0.1170  
G01 X1.1820  Y0.1177  
G01 X1.0621  Y0.1177  
G01 X1.0604  Y0.1170  
G01 X1.0592  Y0.1157  
G01 X1.0585  Y0.1141  
G01 X1.0585  Y0.1025  
G01 X1.0592  Y0.1008  
G01 X1.0604  Y0.0995  
G01 X1.0621  Y0.0988  
G00 Z0.1000  
G00 X1.1820  Y0.1185  
G01 Z-0.0070 F10    
G01 X1.1837  Y0.1192  F6     
G01 X1.1849  Y0.1205  
G01 X1.1856  Y0.1221  
G01 X1.1856  Y0.1338  
G01 X1.1849  Y0.1354  
G01 X1.1837  Y0.1367  
G01 X1.1820  Y0.1374  
G01 X1.1241  Y0.1374  
G01 X1.1239  Y0.1375  
G01 X1.0037  Y0.1375  
G01 X1.0037  Y0.1404  
G01 X1.0023  Y0.1453  
G01 X0.9998  Y0.1497  
G01 X0.9962  Y0.1533  
G01 X0.9917  Y0.1559  
G01 X0.9868  Y0.1572  
G01 X0.9817  Y0.1572  
G01 X0.9768  Y0.1559  
G01 X0.9723  Y0.1533  
G01 X0.9687  Y0.1497  
G01 X0.9662  Y0.1453  
G01 X0.9648  Y0.1404  
G01 X0.9648  Y0.1352  
G01 X0.9662  Y0.1303  
G01 X0.9687  Y0.1259  
G01 X0.9723  Y0.1223  
G01 X0.9768  Y0.1197  
G01 X0.9817  Y0.1184  
G01 X0.9868  Y0.1184  
G01 X0.9902  Y0.1193  
G01 X0.9922  Y0.1185  
G01 X1.1239  Y0.1185  
G01 X1.1241  Y0.1185  
G01 X1.1820  Y0.1185  
G00 Z0.1000  
G00 X1.0621  Y0.1382  
G01 Z-0.0070 F10    
G01 X1.1820  Y0.1382  F6     
G01 X1.1837  Y0.1389  
G01 X1.1849  Y0.1402  
G01 X1.1856  Y0.1418  
G01 X1.1856  Y0.1535  
G01 X1.1849  Y0.1551  
G01 X1.1837  Y0.1564  
G01 X1.1820  Y0.1571  
G01 X1.0621  Y0.1571  
G01 X1.0604  Y0.1564  
G01 X1.0592  Y0.1551  
G01 X1.0585  Y0.1535  
G01 X1.0585  Y0.1418  
G01 X1.0592  Y0.1402  
G01 X1.0604  Y0.1389  
G01 X1.0621  Y0.1382  
G00 Z0.1000  
G00 X1.0621  Y0.1776  
G01 Z-0.0070 F10    
G01 X1.1820  Y0.1776  F6     
G01 X1.1837  Y0.1783  
G01 X1.1849  Y0.1795  
G01 X1.1856  Y0.1812  
G01 X1.1856  Y0.1928  
G01 X1.1849  Y0.1945  
G01 X1.1837  Y0.1957  
G01 X1.1820  Y0.1964  
G01 X1.0621  Y0.1964  
G01 X1.0604  Y0.1957  
G01 X1.0592  Y0.1945  
G01 X1.0585  Y0.1928  
G01 X1.0585  Y0.1812  
G01 X1.0592  Y0.1795  
G01 X1.0604  Y0.1783  
G01 X1.0621  Y0.1776  
G00 Z0.1000  
G00 X1.0621  Y0.1973  
G01 Z-0.0070 F10    
G01 X1.1820  Y0.1973  F6     
G01 X1.1837  Y0.1980  
G01 X1.1849  Y0.1992  
G01 X1.1856  Y0.2009  
G01 X1.1856  Y0.2125  
G01 X1.1849  Y0.2142  
G01 X1.1837  Y0.2154  
G01 X1.1820  Y0.2161  
G01 X1.0621  Y0.2161  
G01 X1.0604  Y0.2154  
G01 X1.0592  Y0.2142  
G01 X1.0585  Y0.2125  
G01 X1.0585  Y0.2009  
G01 X1.0592  Y0.1992  
G01 X1.0604  Y0.1980  
G01 X1.0621  Y0.1973  
G00 Z0.1000  
G00 X1.0621  Y0.2170  
G01 Z-0.0070 F10    
G01 X1.1820  Y0.2170  F6     
G01 X1.1837  Y0.2176  
G01 X1.1849  Y0.2189  
G01 X1.1856  Y0.2206  
G01 X1.1856  Y0.2322  
G01 X1.1849  Y0.2338  
G01 X1.1837  Y0.2351  
G01 X1.1820  Y0.2358  
G01 X1.0621  Y0.2358  
G01 X1.0604  Y0.2351  
G01 X1.0592  Y0.2338  
G01 X1.0585  Y0.2322  
G01 X1.0585  Y0.2206  
G01 X1.0592  Y0.2189  
G01 X1.0604  Y0.2176  
G01 X1.0621  Y0.2170  
G00 Z0.1000  
G00 X1.0621  Y0.2366  
G01 Z-0.0070 F10    
G01 X1.1820  Y0.2366  F6     
G01 X1.1837  Y0.2373  
G01 X1.1849  Y0.2386  
G01 X1.1856  Y0.2402  
G01 X1.1856  Y0.2519  
G01 X1.1849  Y0.2535  
G01 X1.1837  Y0.2548  
G01 X1.1820  Y0.2555  
G01 X1.0621  Y0.2555  
G01 X1.0604  Y0.2548  
G01 X1.0592  Y0.2535  
G01 X1.0585  Y0.2519  
G01 X1.0585  Y0.2402  
G01 X1.0592  Y0.2386  
G01 X1.0604  Y0.2373  
G01 X1.0621  Y0.2366  
G00 Z0.1000  
G00 X1.1820  Y0.2563  
G01 Z-0.0070 F10    
G01 X1.1837  Y0.2570  F6     
G01 X1.1849  Y0.2583  
G01 X1.1856  Y0.2599  
G01 X1.1856  Y0.2716  
G01 X1.1849  Y0.2732  
G01 X1.1837  Y0.2745  
G01 X1.1820  Y0.2752  
G01 X1.1241  Y0.2752  
G01 X1.1239  Y0.2752  
G01 X0.9922  Y0.2752  
G01 X0.9902  Y0.2744  
G01 X0.9868  Y0.2753  
G01 X0.9817  Y0.2753  
G01 X0.9768  Y0.2740  
G01 X0.9723  Y0.2714  
G01 X0.9687  Y0.2678  
G01 X0.9662  Y0.2634  
G01 X0.9648  Y0.2585  
G01 X0.9648  Y0.2533  
G01 X0.9662  Y0.2484  
G01 X0.9687  Y0.2440  
G01 X0.9723  Y0.2404  
G01 X0.9768  Y0.2378  
G01 X0.9817  Y0.2365  
G01 X0.9868  Y0.2365  
G01 X0.9917  Y0.2378  
G01 X0.9962  Y0.2404  
G01 X0.9998  Y0.2440  
G01 X1.0023  Y0.2484  
G01 X1.0037  Y0.2533  
G01 X1.0037  Y0.2562  
G01 X1.1239  Y0.2562  
G01 X1.1241  Y0.2563  
G01 X1.1820  Y0.2563  
G00 Z0.1000  
G00 X1.0621  Y0.2760  
G01 Z-0.0070 F10    
G01 X1.1820  Y0.2760  F6     
G01 X1.1837  Y0.2767  
G01 X1.1849  Y0.2780  
G01 X1.1856  Y0.2796  
G01 X1.1856  Y0.2912  
G01 X1.1849  Y0.2929  
G01 X1.1837  Y0.2942  
G01 X1.1820  Y0.2949  
G01 X1.0621  Y0.2949  
G01 X1.0604  Y0.2942  
G01 X1.0592  Y0.2929  
G01 X1.0585  Y0.2912  
G01 X1.0585  Y0.2796  
G01 X1.0592  Y0.2780  
G01 X1.0604  Y0.2767  
G01 X1.0621  Y0.2760  
G00 Z0.1000  
G00 X1.0621  Y0.3351  
G01 Z-0.0070 F10    
G01 X1.1820  Y0.3351  F6     
G01 X1.1837  Y0.3358  
G01 X1.1849  Y0.3370  
G01 X1.1856  Y0.3387  
G01 X1.1856  Y0.3503  
G01 X1.1849  Y0.3520  
G01 X1.1837  Y0.3532  
G01 X1.1820  Y0.3539  
G01 X1.0621  Y0.3539  
G01 X1.0604  Y0.3532  
G01 X1.0592  Y0.3520  
G01 X1.0585  Y0.3503  
G01 X1.0585  Y0.3387  
G01 X1.0592  Y0.3370  
G01 X1.0604  Y0.3358  
G01 X1.0621  Y0.3351  
G00 Z0.1000  
G00 X1.1820  Y0.3548  
G01 Z-0.0070 F10    
G01 X1.1837  Y0.3554  F6     
G01 X1.1849  Y0.3567  
G01 X1.1856  Y0.3584  
G01 X1.1856  Y0.3700  
G01 X1.1849  Y0.3716  
G01 X1.1837  Y0.3729  
G01 X1.1820  Y0.3736  
G01 X1.1241  Y0.3736  
G01 X1.1239  Y0.3737  
G01 X0.9840  Y0.3737  
G01 X0.9840  Y0.3766  
G01 X0.9827  Y0.3815  
G01 X0.9801  Y0.3859  
G01 X0.9765  Y0.3896  
G01 X0.9721  Y0.3921  
G01 X0.9671  Y0.3934  
G01 X0.9620  Y0.3934  
G01 X0.9571  Y0.3921  
G01 X0.9526  Y0.3896  
G01 X0.9490  Y0.3859  
G01 X0.9465  Y0.3815  
G01 X0.9451  Y0.3766  
G01 X0.9451  Y0.3715  
G01 X0.9465  Y0.3665  
G01 X0.9490  Y0.3621  
G01 X0.9526  Y0.3585  
G01 X0.9571  Y0.3559  
G01 X0.9620  Y0.3546  
G01 X0.9671  Y0.3546  
G01 X0.9705  Y0.3555  
G01 X0.9725  Y0.3547  
G01 X1.1239  Y0.3547  
G01 X1.1241  Y0.3548  
G01 X1.1820  Y0.3548  
G00 Z0.1000  
G00 X1.1820  Y0.3744  
G01 Z-0.0070 F10    
G01 X1.1837  Y0.3751  F6     
G01 X1.1849  Y0.3764  
G01 X1.1856  Y0.3780  
G01 X1.1856  Y0.3897  
G01 X1.1849  Y0.3913  
G01 X1.1837  Y0.3926  
G01 X1.1820  Y0.3933  
G01 X1.1241  Y0.3933  
G01 X1.1239  Y0.3934  
G01 X1.0177  Y0.3934  
G01 X1.0029  Y0.4081  
G01 X1.0037  Y0.4108  
G01 X1.0037  Y0.4159  
G01 X1.0023  Y0.4209  
G01 X0.9998  Y0.4253  
G01 X0.9962  Y0.4289  
G01 X0.9917  Y0.4315  
G01 X0.9868  Y0.4328  
G01 X0.9817  Y0.4328  
G01 X0.9768  Y0.4315  
G01 X0.9723  Y0.4289  
G01 X0.9687  Y0.4253  
G01 X0.9662  Y0.4209  
G01 X0.9648  Y0.4159  
G01 X0.9648  Y0.4108  
G01 X0.9662  Y0.4059  
G01 X0.9687  Y0.4015  
G01 X0.9723  Y0.3978  
G01 X0.9768  Y0.3953  
G01 X0.9817  Y0.3940  
G01 X0.9868  Y0.3940  
G01 X0.9895  Y0.3947  
G01 X1.0084  Y0.3758  
G01 X1.0119  Y0.3744  
G01 X1.1239  Y0.3744  
G01 X1.1241  Y0.3744  
G01 X1.1820  Y0.3744  
G00 Z0.1000  
G00 X1.0621  Y0.4138  
G01 Z-0.0070 F10    
G01 X1.1820  Y0.4138  F6     
G01 X1.1837  Y0.4145  
G01 X1.1849  Y0.4158  
G01 X1.1856  Y0.4174  
G01 X1.1856  Y0.4290  
G01 X1.1849  Y0.4307  
G01 X1.1837  Y0.4320  
G01 X1.1820  Y0.4326  
G01 X1.0621  Y0.4326  
G01 X1.0604  Y0.4320  
G01 X1.0592  Y0.4307  
G01 X1.0585  Y0.4290  
G01 X1.0585  Y0.4174  
G01 X1.0592  Y0.4158  
G01 X1.0604  Y0.4145  
G01 X1.0621  Y0.4138  
G00 Z0.1000  
G00 X1.0621  Y0.4335  
G01 Z-0.0070 F10    
G01 X1.1820  Y0.4335  F6     
G01 X1.1837  Y0.4342  
G01 X1.1849  Y0.4354  
G01 X1.1856  Y0.4371  
G01 X1.1856  Y0.4487  
G01 X1.1849  Y0.4504  
G01 X1.1837  Y0.4516  
G01 X1.1820  Y0.4523  
G01 X1.0621  Y0.4523  
G01 X1.0604  Y0.4516  
G01 X1.0592  Y0.4504  
G01 X1.0585  Y0.4487  
G01 X1.0585  Y0.4371  
G01 X1.0592  Y0.4354  
G01 X1.0604  Y0.4342  
G01 X1.0621  Y0.4335  
G00 Z0.1000  
G00 X1.0621  Y0.4532  
G01 Z-0.0070 F10    
G01 X1.1820  Y0.4532  F6     
G01 X1.1837  Y0.4539  
G01 X1.1849  Y0.4551  
G01 X1.1856  Y0.4568  
G01 X1.1856  Y0.4684  
G01 X1.1849  Y0.4701  
G01 X1.1837  Y0.4713  
G01 X1.1820  Y0.4720  
G01 X1.0621  Y0.4720  
G01 X1.0604  Y0.4713  
G01 X1.0592  Y0.4701  
G01 X1.0585  Y0.4684  
G01 X1.0585  Y0.4568  
G01 X1.0592  Y0.4551  
G01 X1.0604  Y0.4539  
G01 X1.0621  Y0.4532  
G00 Z0.1000  
G00 X1.0621  Y0.4729  
G01 Z-0.0070 F10    
G01 X1.1820  Y0.4729  F6     
G01 X1.1837  Y0.4735  
G01 X1.1849  Y0.4748  
G01 X1.1856  Y0.4765  
G01 X1.1856  Y0.4881  
G01 X1.1849  Y0.4898  
G01 X1.1837  Y0.4910  
G01 X1.1820  Y0.4917  
G01 X1.0621  Y0.4917  
G01 X1.0604  Y0.4910  
G01 X1.0592  Y0.4898  
G01 X1.0585  Y0.4881  
G01 X1.0585  Y0.4765  
G01 X1.0592  Y0.4748  
G01 X1.0604  Y0.4735  
G01 X1.0621  Y0.4729  
G00 Z0.1000  
G00 X1.0621  Y0.4925  
G01 Z-0.0070 F10    
G01 X1.1820  Y0.4925  F6     
G01 X1.1837  Y0.4932  
G01 X1.1849  Y0.4945  
G01 X1.1856  Y0.4962  
G01 X1.1856  Y0.5078  
G01 X1.1849  Y0.5094  
G01 X1.1837  Y0.5107  
G01 X1.1820  Y0.5114  
G01 X1.0621  Y0.5114  
G01 X1.0604  Y0.5107  
G01 X1.0592  Y0.5094  
G01 X1.0585  Y0.5078  
G01 X1.0585  Y0.4962  
G01 X1.0592  Y0.4945  
G01 X1.0604  Y0.4932  
G01 X1.0621  Y0.4925  
G00 Z0.1000  
G00 X1.0621  Y0.5122  
G01 Z-0.0070 F10    
G01 X1.1820  Y0.5122  F6     
G01 X1.1837  Y0.5129  
G01 X1.1849  Y0.5142  
G01 X1.1856  Y0.5158  
G01 X1.1856  Y0.5275  
G01 X1.1849  Y0.5291  
G01 X1.1837  Y0.5304  
G01 X1.1820  Y0.5311  
G01 X1.0621  Y0.5311  
G01 X1.0604  Y0.5304  
G01 X1.0592  Y0.5291  
G01 X1.0585  Y0.5275  
G01 X1.0585  Y0.5158  
G01 X1.0592  Y0.5142  
G01 X1.0604  Y0.5129  
G01 X1.0621  Y0.5122  
G00 Z0.1000  
G00 X1.0621  Y0.5319  
G01 Z-0.0070 F10    
G01 X1.1820  Y0.5319  F6     
G01 X1.1837  Y0.5326  
G01 X1.1849  Y0.5339  
G01 X1.1856  Y0.5355  
G01 X1.1856  Y0.5472  
G01 X1.1849  Y0.5488  
G01 X1.1837  Y0.5501  
G01 X1.1820  Y0.5508  
G01 X1.0621  Y0.5508  
G01 X1.0604  Y0.5501  
G01 X1.0592  Y0.5488  
G01 X1.0585  Y0.5472  
G01 X1.0585  Y0.5355  
G01 X1.0592  Y0.5339  
G01 X1.0604  Y0.5326  
G01 X1.0621  Y0.5319  
G00 Z0.1000  
G00 X1.0621  Y0.5516  
G01 Z-0.0070 F10    
G01 X1.1820  Y0.5516  F6     
G01 X1.1837  Y0.5523  
G01 X1.1849  Y0.5536  
G01 X1.1856  Y0.5552  
G01 X1.1856  Y0.5668  
G01 X1.1849  Y0.5685  
G01 X1.1837  Y0.5698  
G01 X1.1820  Y0.5704  
G01 X1.0621  Y0.5704  
G01 X1.0604  Y0.5698  
G01 X1.0592  Y0.5685  
G01 X1.0585  Y0.5668  
G01 X1.0585  Y0.5552  
G01 X1.0592  Y0.5536  
G01 X1.0604  Y0.5523  
G01 X1.0621  Y0.5516  
G00 Z0.1000  
G00 X1.0621  Y0.5713  
G01 Z-0.0070 F10    
G01 X1.1820  Y0.5713  F6     
G01 X1.1837  Y0.5720  
G01 X1.1849  Y0.5732  
G01 X1.1856  Y0.5749  
G01 X1.1856  Y0.5865  
G01 X1.1849  Y0.5882  
G01 X1.1837  Y0.5894  
G01 X1.1820  Y0.5901  
G01 X1.0621  Y0.5901  
G01 X1.0604  Y0.5894  
G01 X1.0592  Y0.5882  
G01 X1.0585  Y0.5865  
G01 X1.0585  Y0.5749  
G01 X1.0592  Y0.5732  
G01 X1.0604  Y0.5720  
G01 X1.0621  Y0.5713  
G00 Z0.1000  
G00 X0.7863  Y0.4159  
G01 Z-0.0070 F10    
G01 X0.7491  Y0.4159  F6     
G01 X0.7475  Y0.4152  
G01 X0.7462  Y0.4140  
G01 X0.7455  Y0.4123  
G01 X0.7455  Y0.4062  
G01 X0.7236  Y0.4062  
G01 X0.7212  Y0.4087  
G01 X0.7212  Y0.4673  
G01 X0.7592  Y0.5053  
G01 X0.7597  Y0.5054  
G01 X0.7626  Y0.5071  
G01 X0.7649  Y0.5094  
G01 X0.7659  Y0.5112  
G01 X0.7833  Y0.5112  
G01 X0.7850  Y0.5119  
G01 X0.7863  Y0.5132  
G01 X0.7869  Y0.5148  
G01 X0.7869  Y0.5796  
G01 X0.7863  Y0.5812  
G01 X0.7850  Y0.5825  
G01 X0.7833  Y0.5832  
G01 X0.7674  Y0.5832  
G01 X0.7674  Y0.5985  
G01 X0.7703  Y0.5977  
G01 X0.9200  Y0.5977  
G01 X0.9324  Y0.5854  
G01 X0.9324  Y0.4973  
G01 X0.8955  Y0.4604  
G01 X0.8939  Y0.4576  
G01 X0.8930  Y0.4544  
G01 X0.8930  Y0.2543  
G01 X0.8939  Y0.2511  
G01 X0.8955  Y0.2482  
G01 X0.8978  Y0.2459  
G01 X0.9007  Y0.2443  
G01 X0.9039  Y0.2434  
G01 X0.9046  Y0.2434  
G01 X0.9887  Y0.1593  
G01 X0.9922  Y0.1578  
G01 X1.1239  Y0.1578  
G01 X1.1241  Y0.1579  
G01 X1.1820  Y0.1579  
G01 X1.1837  Y0.1586  
G01 X1.1849  Y0.1599  
G01 X1.1856  Y0.1615  
G01 X1.1856  Y0.1731  
G01 X1.1849  Y0.1748  
G01 X1.1837  Y0.1761  
G01 X1.1820  Y0.1767  
G01 X1.1241  Y0.1767  
G01 X1.1239  Y0.1768  
G01 X0.9980  Y0.1768  
G01 X0.9180  Y0.2568  
G01 X0.9180  Y0.4476  
G01 X0.9526  Y0.4821  
G01 X0.9549  Y0.4845  
G01 X0.9565  Y0.4873  
G01 X0.9574  Y0.4905  
G01 X0.9574  Y0.5922  
G01 X0.9565  Y0.5954  
G01 X0.9549  Y0.5982  
G01 X0.9352  Y0.6179  
G01 X0.9329  Y0.6202  
G01 X0.9300  Y0.6219  
G01 X0.9268  Y0.6227  
G01 X0.7771  Y0.6227  
G01 X0.7626  Y0.6373  
G01 X0.7610  Y0.6382  
G01 X0.7602  Y0.6397  
G01 X0.7200  Y0.6799  
G01 X0.7177  Y0.6822  
G01 X0.7148  Y0.6839  
G01 X0.7116  Y0.6847  
G01 X0.7039  Y0.6847  
G01 X0.7039  Y0.6908  
G01 X0.7032  Y0.6925  
G01 X0.7019  Y0.6937  
G01 X0.7003  Y0.6944  
G01 X0.6709  Y0.6944  
G01 X0.6693  Y0.6937  
G01 X0.6680  Y0.6925  
G01 X0.6673  Y0.6908  
G01 X0.6673  Y0.6572  
G01 X0.6498  Y0.6397  
G01 X0.5684  Y0.6397  
G01 X0.5652  Y0.6389  
G01 X0.5623  Y0.6372  
G01 X0.5396  Y0.6144  
G01 X0.5379  Y0.6116  
G01 X0.5371  Y0.6084  
G01 X0.5371  Y0.6051  
G01 X0.5379  Y0.6019  
G01 X0.5396  Y0.5991  
G01 X0.5401  Y0.5986  
G01 X0.5401  Y0.5974  
G01 X0.5389  Y0.5962  
G01 X0.5382  Y0.5945  
G01 X0.5382  Y0.5377  
G01 X0.5389  Y0.5361  
G01 X0.5401  Y0.5349  
G01 X0.5401  Y0.5049  
G01 X0.4216  Y0.3865  
G01 X0.3981  Y0.4100  
G01 X0.3953  Y0.4116  
G01 X0.3921  Y0.4125  
G01 X0.1809  Y0.4125  
G01 X0.1794  Y0.4161  
G01 X0.1756  Y0.4217  
G01 X0.1709  Y0.4264  
G01 X0.1653  Y0.4302  
G01 X0.1591  Y0.4327  
G01 X0.1526  Y0.4340  
G01 X0.0868  Y0.4340  
G01 X0.0802  Y0.4327  
G01 X0.0740  Y0.4302  
G01 X0.0685  Y0.4264  
G01 X0.0637  Y0.4217  
G01 X0.0600  Y0.4161  
G01 X0.0574  Y0.4099  
G01 X0.0561  Y0.4034  
G01 X0.0561  Y0.3966  
G01 X0.0574  Y0.3901  
G01 X0.0600  Y0.3839  
G01 X0.0637  Y0.3783  
G01 X0.0685  Y0.3736  
G01 X0.0740  Y0.3698  
G01 X0.0802  Y0.3673  
G01 X0.0868  Y0.3660  
G01 X0.1526  Y0.3660  
G01 X0.1591  Y0.3673  
G01 X0.1653  Y0.3698  
G01 X0.1709  Y0.3736  
G01 X0.1756  Y0.3783  
G01 X0.1794  Y0.3839  
G01 X0.1809  Y0.3875  
G01 X0.3853  Y0.3875  
G01 X0.4121  Y0.3606  
G01 X0.4121  Y0.3095  
G01 X0.4109  Y0.3083  
G01 X0.4103  Y0.3067  
G01 X0.4103  Y0.2499  
G01 X0.4109  Y0.2482  
G01 X0.4122  Y0.2470  
G01 X0.4139  Y0.2463  
G01 X0.4294  Y0.2463  
G01 X0.4310  Y0.2470  
G01 X0.4323  Y0.2482  
G01 X0.4330  Y0.2499  
G01 X0.4330  Y0.3067  
G01 X0.4323  Y0.3083  
G01 X0.4311  Y0.3095  
G01 X0.4311  Y0.3606  
G01 X0.4316  Y0.3611  
G01 X0.5596  Y0.4891  
G01 X0.5612  Y0.4919  
G01 X0.5621  Y0.4951  
G01 X0.5621  Y0.4984  
G01 X0.5612  Y0.5016  
G01 X0.5596  Y0.5044  
G01 X0.5591  Y0.5049  
G01 X0.5591  Y0.5349  
G01 X0.5602  Y0.5361  
G01 X0.5609  Y0.5377  
G01 X0.5609  Y0.5945  
G01 X0.5602  Y0.5962  
G01 X0.5591  Y0.5974  
G01 X0.5591  Y0.5986  
G01 X0.5752  Y0.6147  
G01 X0.6566  Y0.6147  
G01 X0.6598  Y0.6156  
G01 X0.6627  Y0.6172  
G01 X0.6955  Y0.6500  
G01 X0.7003  Y0.6500  
G01 X0.7019  Y0.6507  
G01 X0.7032  Y0.6519  
G01 X0.7039  Y0.6536  
G01 X0.7039  Y0.6597  
G01 X0.7048  Y0.6597  
G01 X0.7424  Y0.6221  
G01 X0.7424  Y0.5832  
G01 X0.7264  Y0.5832  
G01 X0.7248  Y0.5825  
G01 X0.7235  Y0.5812  
G01 X0.7228  Y0.5796  
G01 X0.7228  Y0.5148  
G01 X0.7235  Y0.5132  
G01 X0.7248  Y0.5119  
G01 X0.7264  Y0.5112  
G01 X0.7298  Y0.5112  
G01 X0.7010  Y0.4824  
G01 X0.6987  Y0.4801  
G01 X0.6970  Y0.4773  
G01 X0.6962  Y0.4741  
G01 X0.6962  Y0.4087  
G01 X0.6931  Y0.4056  
G01 X0.6906  Y0.4012  
G01 X0.6892  Y0.3963  
G01 X0.6892  Y0.3911  
G01 X0.6906  Y0.3862  
G01 X0.6931  Y0.3818  
G01 X0.6967  Y0.3782  
G01 X0.7012  Y0.3756  
G01 X0.7061  Y0.3743  
G01 X0.7112  Y0.3743  
G01 X0.7162  Y0.3756  
G01 X0.7206  Y0.3782  
G01 X0.7236  Y0.3812  
G01 X0.7463  Y0.3812  
G01 X0.7475  Y0.3800  
G01 X0.7491  Y0.3794  
G01 X0.7863  Y0.3794  
G01 X0.7880  Y0.3800  
G01 X0.7892  Y0.3813  
G01 X0.7899  Y0.3830  
G01 X0.7899  Y0.4123  
G01 X0.7892  Y0.4140  
G01 X0.7880  Y0.4152  
G01 X0.7863  Y0.4159  
G00 Z0.1000  
G00 X0.7863  Y0.2388  
G01 Z-0.0070 F10    
G01 X0.7491  Y0.2388  F6     
G01 X0.7475  Y0.2381  
G01 X0.7462  Y0.2368  
G01 X0.7455  Y0.2351  
G01 X0.7455  Y0.2290  
G01 X0.7236  Y0.2290  
G01 X0.7206  Y0.2321  
G01 X0.7162  Y0.2346  
G01 X0.7112  Y0.2360  
G01 X0.7061  Y0.2360  
G01 X0.7012  Y0.2346  
G01 X0.6967  Y0.2321  
G01 X0.6931  Y0.2285  
G01 X0.6906  Y0.2240  
G01 X0.6892  Y0.2191  
G01 X0.6892  Y0.2140  
G01 X0.6906  Y0.2090  
G01 X0.6931  Y0.2046  
G01 X0.6967  Y0.2010  
G01 X0.7012  Y0.1984  
G01 X0.7061  Y0.1971  
G01 X0.7112  Y0.1971  
G01 X0.7162  Y0.1984  
G01 X0.7206  Y0.2010  
G01 X0.7236  Y0.2040  
G01 X0.7463  Y0.2040  
G01 X0.7475  Y0.2029  
G01 X0.7491  Y0.2022  
G01 X0.7552  Y0.2022  
G01 X0.7552  Y0.1817  
G01 X0.7491  Y0.1817  
G01 X0.7475  Y0.1810  
G01 X0.7462  Y0.1797  
G01 X0.7455  Y0.1781  
G01 X0.7455  Y0.1487  
G01 X0.7462  Y0.1471  
G01 X0.7475  Y0.1458  
G01 X0.7491  Y0.1451  
G01 X0.7597  Y0.1451  
G01 X0.7602  Y0.1450  
G01 X0.7635  Y0.1450  
G01 X0.7639  Y0.1451  
G01 X0.7863  Y0.1451  
G01 X0.7880  Y0.1458  
G01 X0.7892  Y0.1471  
G01 X0.7899  Y0.1487  
G01 X0.7899  Y0.1781  
G01 X0.7892  Y0.1797  
G01 X0.7880  Y0.1810  
G01 X0.7863  Y0.1817  
G01 X0.7802  Y0.1817  
G01 X0.7802  Y0.2022  
G01 X0.7863  Y0.2022  
G01 X0.7880  Y0.2029  
G01 X0.7892  Y0.2041  
G01 X0.7899  Y0.2058  
G01 X0.7899  Y0.2351  
G01 X0.7892  Y0.2368  
G01 X0.7880  Y0.2381  
G01 X0.7863  Y0.2388  
G00 Z0.1000  
G00 X0.8361  Y0.4694  
G01 Z-0.0070 F10    
G01 X0.8361  Y0.4613  F6     
G01 X0.7899  Y0.4613  
G01 X0.7899  Y0.4635  
G01 X0.7892  Y0.4651  
G01 X0.7880  Y0.4664  
G01 X0.7863  Y0.4671  
G01 X0.7491  Y0.4671  
G01 X0.7475  Y0.4664  
G01 X0.7462  Y0.4651  
G01 X0.7455  Y0.4635  
G01 X0.7455  Y0.4341  
G01 X0.7462  Y0.4325  
G01 X0.7475  Y0.4312  
G01 X0.7491  Y0.4305  
G01 X0.7863  Y0.4305  
G01 X0.7880  Y0.4312  
G01 X0.7892  Y0.4325  
G01 X0.7899  Y0.4341  
G01 X0.7899  Y0.4363  
G01 X0.8361  Y0.4363  
G01 X0.8361  Y0.4361  
G01 X0.8367  Y0.4345  
G01 X0.8380  Y0.4332  
G01 X0.8397  Y0.4325  
G01 X0.8729  Y0.4325  
G01 X0.8746  Y0.4332  
G01 X0.8759  Y0.4345  
G01 X0.8765  Y0.4361  
G01 X0.8765  Y0.4694  
G01 X0.8759  Y0.4711  
G01 X0.8746  Y0.4723  
G01 X0.8729  Y0.4730  
G01 X0.8397  Y0.4730  
G01 X0.8380  Y0.4723  
G01 X0.8367  Y0.4711  
G01 X0.8361  Y0.4694  
G00 Z0.1000  
G00 X0.8361  Y0.4103  
G01 Z-0.0070 F10    
G01 X0.8361  Y0.3869  F6     
G01 X0.8130  Y0.3638  
G01 X0.4902  Y0.3638  
G01 X0.4867  Y0.3624  
G01 X0.4841  Y0.3597  
G01 X0.4647  Y0.3404  
G01 X0.4633  Y0.3369  
G01 X0.4633  Y0.3095  
G01 X0.4621  Y0.3083  
G01 X0.4614  Y0.3067  
G01 X0.4614  Y0.2499  
G01 X0.4621  Y0.2482  
G01 X0.4634  Y0.2470  
G01 X0.4650  Y0.2463  
G01 X0.4805  Y0.2463  
G01 X0.4822  Y0.2470  
G01 X0.4835  Y0.2482  
G01 X0.4841  Y0.2499  
G01 X0.4841  Y0.3067  
G01 X0.4835  Y0.3083  
G01 X0.4823  Y0.3095  
G01 X0.4823  Y0.3311  
G01 X0.4961  Y0.3448  
G01 X0.8188  Y0.3448  
G01 X0.8223  Y0.3463  
G01 X0.8495  Y0.3735  
G01 X0.8729  Y0.3735  
G01 X0.8746  Y0.3741  
G01 X0.8759  Y0.3754  
G01 X0.8765  Y0.3771  
G01 X0.8765  Y0.4103  
G01 X0.8759  Y0.4120  
G01 X0.8746  Y0.4133  
G01 X0.8729  Y0.4139  
G01 X0.8397  Y0.4139  
G01 X0.8380  Y0.4133  
G01 X0.8367  Y0.4120  
G01 X0.8361  Y0.4103  
G00 Z0.1000  
G00 X0.8765  Y0.2294  
G01 Z-0.0070 F10    
G01 X0.8765  Y0.2627  F6     
G01 X0.8759  Y0.2644  
G01 X0.8746  Y0.2656  
G01 X0.8729  Y0.2663  
G01 X0.8397  Y0.2663  
G01 X0.8380  Y0.2656  
G01 X0.8367  Y0.2644  
G01 X0.8361  Y0.2627  
G01 X0.8361  Y0.2586  
G01 X0.8319  Y0.2586  
G01 X0.8089  Y0.2817  
G01 X0.8060  Y0.2833  
G01 X0.8028  Y0.2842  
G01 X0.7899  Y0.2842  
G01 X0.7899  Y0.2863  
G01 X0.7892  Y0.2880  
G01 X0.7880  Y0.2892  
G01 X0.7863  Y0.2899  
G01 X0.7491  Y0.2899  
G01 X0.7475  Y0.2892  
G01 X0.7462  Y0.2880  
G01 X0.7455  Y0.2863  
G01 X0.7455  Y0.2570  
G01 X0.7462  Y0.2553  
G01 X0.7475  Y0.2541  
G01 X0.7491  Y0.2534  
G01 X0.7863  Y0.2534  
G01 X0.7880  Y0.2541  
G01 X0.7892  Y0.2553  
G01 X0.7899  Y0.2570  
G01 X0.7899  Y0.2592  
G01 X0.7960  Y0.2592  
G01 X0.8191  Y0.2361  
G01 X0.8219  Y0.2344  
G01 X0.8251  Y0.2336  
G01 X0.8361  Y0.2336  
G01 X0.8361  Y0.2294  
G01 X0.8367  Y0.2278  
G01 X0.8380  Y0.2265  
G01 X0.8397  Y0.2258  
G01 X0.8729  Y0.2258  
G01 X0.8746  Y0.2265  
G01 X0.8759  Y0.2278  
G01 X0.8765  Y0.2294  
G00 Z0.1000  
G00 X0.4870  Y0.5945  
G01 Z-0.0070 F10    
G01 X0.4870  Y0.5377  F6     
G01 X0.4877  Y0.5361  
G01 X0.4890  Y0.5348  
G01 X0.4906  Y0.5341  
G01 X0.5061  Y0.5341  
G01 X0.5078  Y0.5348  
G01 X0.5091  Y0.5361  
G01 X0.5097  Y0.5377  
G01 X0.5097  Y0.5945  
G01 X0.5091  Y0.5962  
G01 X0.5078  Y0.5975  
G01 X0.5061  Y0.5981  
G01 X0.4906  Y0.5981  
G01 X0.4890  Y0.5975  
G01 X0.4877  Y0.5962  
G01 X0.4870  Y0.5945  
G00 Z0.1000  
G00 X0.5638  Y0.5945  
G01 Z-0.0070 F10    
G01 X0.5638  Y0.5377  F6     
G01 X0.5645  Y0.5361  
G01 X0.5658  Y0.5348  
G01 X0.5674  Y0.5341  
G01 X0.5829  Y0.5341  
G01 X0.5846  Y0.5348  
G01 X0.5858  Y0.5361  
G01 X0.5865  Y0.5377  
G01 X0.5865  Y0.5945  
G01 X0.5858  Y0.5962  
G01 X0.5846  Y0.5975  
G01 X0.5829  Y0.5981  
G01 X0.5674  Y0.5981  
G01 X0.5658  Y0.5975  
G01 X0.5645  Y0.5962  
G01 X0.5638  Y0.5945  
G00 Z0.1000  
G00 X0.5894  Y0.5945  
G01 Z-0.0070 F10    
G01 X0.5894  Y0.5377  F6     
G01 X0.5901  Y0.5361  
G01 X0.5913  Y0.5348  
G01 X0.5930  Y0.5341  
G01 X0.6085  Y0.5341  
G01 X0.6101  Y0.5348  
G01 X0.6114  Y0.5361  
G01 X0.6121  Y0.5377  
G01 X0.6121  Y0.5945  
G01 X0.6114  Y0.5962  
G01 X0.6101  Y0.5975  
G01 X0.6085  Y0.5981  
G01 X0.5930  Y0.5981  
G01 X0.5913  Y0.5975  
G01 X0.5901  Y0.5962  
G01 X0.5894  Y0.5945  
G00 Z0.1000  
G00 X0.6150  Y0.5945  
G01 Z-0.0070 F10    
G01 X0.6150  Y0.5377  F6     
G01 X0.6157  Y0.5361  
G01 X0.6169  Y0.5348  
G01 X0.6186  Y0.5341  
G01 X0.6341  Y0.5341  
G01 X0.6357  Y0.5348  
G01 X0.6370  Y0.5361  
G01 X0.6377  Y0.5377  
G01 X0.6377  Y0.5566  
G01 X0.6701  Y0.5566  
G01 X0.6703  Y0.5564  
G01 X0.6696  Y0.5537  
G01 X0.6696  Y0.5486  
G01 X0.6709  Y0.5437  
G01 X0.6734  Y0.5393  
G01 X0.6771  Y0.5356  
G01 X0.6815  Y0.5331  
G01 X0.6864  Y0.5318  
G01 X0.6915  Y0.5318  
G01 X0.6965  Y0.5331  
G01 X0.7009  Y0.5356  
G01 X0.7045  Y0.5393  
G01 X0.7071  Y0.5437  
G01 X0.7084  Y0.5486  
G01 X0.7084  Y0.5537  
G01 X0.7071  Y0.5587  
G01 X0.7045  Y0.5631  
G01 X0.7009  Y0.5667  
G01 X0.6965  Y0.5693  
G01 X0.6915  Y0.5706  
G01 X0.6864  Y0.5706  
G01 X0.6837  Y0.5699  
G01 X0.6821  Y0.5715  
G01 X0.6794  Y0.5742  
G01 X0.6759  Y0.5756  
G01 X0.6377  Y0.5756  
G01 X0.6377  Y0.5945  
G01 X0.6370  Y0.5962  
G01 X0.6357  Y0.5975  
G01 X0.6341  Y0.5981  
G01 X0.6186  Y0.5981  
G01 X0.6169  Y0.5975  
G01 X0.6157  Y0.5962  
G01 X0.6150  Y0.5945  
G00 Z0.1000  
G00 X0.3335  Y0.3067  
G01 Z-0.0070 F10    
G01 X0.3335  Y0.2499  F6     
G01 X0.3342  Y0.2482  
G01 X0.3353  Y0.2471  
G01 X0.3353  Y0.2157  
G01 X0.3347  Y0.2155  
G01 X0.3334  Y0.2142  
G01 X0.3327  Y0.2125  
G01 X0.3327  Y0.1753  
G01 X0.3334  Y0.1737  
G01 X0.3347  Y0.1724  
G01 X0.3363  Y0.1717  
G01 X0.3385  Y0.1717  
G01 X0.3385  Y0.1428  
G01 X0.3082  Y0.1125  
G01 X0.1809  Y0.1125  
G01 X0.1794  Y0.1161  
G01 X0.1756  Y0.1217  
G01 X0.1709  Y0.1264  
G01 X0.1653  Y0.1302  
G01 X0.1591  Y0.1327  
G01 X0.1526  Y0.1340  
G01 X0.0868  Y0.1340  
G01 X0.0802  Y0.1327  
G01 X0.0740  Y0.1302  
G01 X0.0685  Y0.1264  
G01 X0.0637  Y0.1217  
G01 X0.0600  Y0.1161  
G01 X0.0574  Y0.1099  
G01 X0.0561  Y0.1034  
G01 X0.0561  Y0.0966  
G01 X0.0574  Y0.0901  
G01 X0.0600  Y0.0839  
G01 X0.0637  Y0.0783  
G01 X0.0685  Y0.0736  
G01 X0.0740  Y0.0698  
G01 X0.0802  Y0.0673  
G01 X0.0868  Y0.0660  
G01 X0.1526  Y0.0660  
G01 X0.1591  Y0.0673  
G01 X0.1653  Y0.0698  
G01 X0.1709  Y0.0736  
G01 X0.1756  Y0.0783  
G01 X0.1794  Y0.0839  
G01 X0.1809  Y0.0875  
G01 X0.3150  Y0.0875  
G01 X0.3182  Y0.0884  
G01 X0.3211  Y0.0900  
G01 X0.3234  Y0.0923  
G01 X0.3510  Y0.1200  
G01 X0.4294  Y0.0415  
G01 X0.4318  Y0.0392  
G01 X0.4346  Y0.0376  
G01 X0.4378  Y0.0367  
G01 X0.8973  Y0.0367  
G01 X0.9005  Y0.0376  
G01 X0.9033  Y0.0392  
G01 X0.9329  Y0.0687  
G01 X0.9352  Y0.0711  
G01 X0.9368  Y0.0739  
G01 X0.9377  Y0.0771  
G01 X0.9377  Y0.1425  
G01 X0.9407  Y0.1456  
G01 X0.9433  Y0.1500  
G01 X0.9446  Y0.1549  
G01 X0.9446  Y0.1600  
G01 X0.9433  Y0.1650  
G01 X0.9407  Y0.1694  
G01 X0.9371  Y0.1730  
G01 X0.9327  Y0.1756  
G01 X0.9278  Y0.1769  
G01 X0.9226  Y0.1769  
G01 X0.9177  Y0.1756  
G01 X0.9133  Y0.1730  
G01 X0.9097  Y0.1694  
G01 X0.9071  Y0.1650  
G01 X0.9058  Y0.1600  
G01 X0.9058  Y0.1549  
G01 X0.9071  Y0.1500  
G01 X0.9097  Y0.1456  
G01 X0.9127  Y0.1425  
G01 X0.9127  Y0.0839  
G01 X0.8905  Y0.0617  
G01 X0.4446  Y0.0617  
G01 X0.3635  Y0.1428  
G01 X0.3635  Y0.1717  
G01 X0.3657  Y0.1717  
G01 X0.3674  Y0.1724  
G01 X0.3686  Y0.1737  
G01 X0.3693  Y0.1753  
G01 X0.3693  Y0.2125  
G01 X0.3686  Y0.2142  
G01 X0.3674  Y0.2155  
G01 X0.3657  Y0.2162  
G01 X0.3543  Y0.2162  
G01 X0.3543  Y0.2471  
G01 X0.3555  Y0.2482  
G01 X0.3562  Y0.2499  
G01 X0.3562  Y0.3067  
G01 X0.3555  Y0.3083  
G01 X0.3542  Y0.3096  
G01 X0.3526  Y0.3103  
G01 X0.3371  Y0.3103  
G01 X0.3354  Y0.3096  
G01 X0.3342  Y0.3083  
G01 X0.3335  Y0.3067  
G00 Z0.1000  
G00 X0.3847  Y0.3067  
G01 Z-0.0070 F10    
G01 X0.3847  Y0.2499  F6     
G01 X0.3854  Y0.2482  
G01 X0.3866  Y0.2470  
G01 X0.3883  Y0.2463  
G01 X0.4038  Y0.2463  
G01 X0.4054  Y0.2470  
G01 X0.4067  Y0.2482  
G01 X0.4074  Y0.2499  
G01 X0.4074  Y0.3067  
G01 X0.4067  Y0.3083  
G01 X0.4054  Y0.3096  
G01 X0.4038  Y0.3103  
G01 X0.3883  Y0.3103  
G01 X0.3866  Y0.3096  
G01 X0.3854  Y0.3083  
G01 X0.3847  Y0.3067  
G00 Z0.1000  
G00 X0.4870  Y0.3067  
G01 Z-0.0070 F10    
G01 X0.4870  Y0.2499  F6     
G01 X0.4877  Y0.2482  
G01 X0.4890  Y0.2470  
G01 X0.4906  Y0.2463  
G01 X0.5061  Y0.2463  
G01 X0.5078  Y0.2470  
G01 X0.5091  Y0.2482  
G01 X0.5097  Y0.2499  
G01 X0.5097  Y0.3067  
G01 X0.5091  Y0.3083  
G01 X0.5089  Y0.3085  
G01 X0.5157  Y0.3153  
G01 X0.8327  Y0.3153  
G01 X0.8361  Y0.3119  
G01 X0.8361  Y0.2885  
G01 X0.8367  Y0.2868  
G01 X0.8380  Y0.2856  
G01 X0.8397  Y0.2849  
G01 X0.8729  Y0.2849  
G01 X0.8746  Y0.2856  
G01 X0.8759  Y0.2868  
G01 X0.8765  Y0.2885  
G01 X0.8765  Y0.3218  
G01 X0.8759  Y0.3234  
G01 X0.8746  Y0.3247  
G01 X0.8729  Y0.3254  
G01 X0.8495  Y0.3254  
G01 X0.8420  Y0.3329  
G01 X0.8385  Y0.3343  
G01 X0.5099  Y0.3343  
G01 X0.5064  Y0.3329  
G01 X0.5038  Y0.3302  
G01 X0.4903  Y0.3168  
G01 X0.4889  Y0.3133  
G01 X0.4889  Y0.3095  
G01 X0.4877  Y0.3083  
G01 X0.4870  Y0.3067  
G00 Z0.1000  
G00 X0.5126  Y0.3067  
G01 Z-0.0070 F10    
G01 X0.5126  Y0.2499  F6     
G01 X0.5133  Y0.2482  
G01 X0.5146  Y0.2470  
G01 X0.5162  Y0.2463  
G01 X0.5317  Y0.2463  
G01 X0.5334  Y0.2470  
G01 X0.5346  Y0.2482  
G01 X0.5353  Y0.2499  
G01 X0.5353  Y0.3067  
G01 X0.5346  Y0.3083  
G01 X0.5334  Y0.3096  
G01 X0.5317  Y0.3103  
G01 X0.5162  Y0.3103  
G01 X0.5146  Y0.3096  
G01 X0.5133  Y0.3083  
G01 X0.5126  Y0.3067  
G00 Z0.1000  
G00 X0.5894  Y0.3067  
G01 Z-0.0070 F10    
G01 X0.5894  Y0.2499  F6     
G01 X0.5901  Y0.2482  
G01 X0.5913  Y0.2470  
G01 X0.5930  Y0.2463  
G01 X0.6085  Y0.2463  
G01 X0.6101  Y0.2470  
G01 X0.6114  Y0.2482  
G01 X0.6121  Y0.2499  
G01 X0.6121  Y0.3067  
G01 X0.6114  Y0.3083  
G01 X0.6101  Y0.3096  
G01 X0.6085  Y0.3103  
G01 X0.5930  Y0.3103  
G01 X0.5913  Y0.3096  
G01 X0.5901  Y0.3083  
G01 X0.5894  Y0.3067  
G00 Z0.1000  
G00 X0.6150  Y0.3067  
G01 Z-0.0070 F10    
G01 X0.6150  Y0.2499  F6     
G01 X0.6157  Y0.2482  
G01 X0.6169  Y0.2470  
G01 X0.6186  Y0.2463  
G01 X0.6341  Y0.2463  
G01 X0.6357  Y0.2470  
G01 X0.6370  Y0.2482  
G01 X0.6377  Y0.2499  
G01 X0.6377  Y0.3067  
G01 X0.6370  Y0.3083  
G01 X0.6357  Y0.3096  
G01 X0.6341  Y0.3103  
G01 X0.6186  Y0.3103  
G01 X0.6169  Y0.3096  
G01 X0.6157  Y0.3083  
G01 X0.6150  Y0.3067  
G00 Z0.1000  
G00 X0.7863  Y0.1305  
G01 Z-0.0070 F10    
G01 X0.7491  Y0.1305  F6     
G01 X0.7475  Y0.1298  
G01 X0.7462  Y0.1285  
G01 X0.7455  Y0.1269  
G01 X0.7455  Y0.0975  
G01 X0.7462  Y0.0959  
G01 X0.7475  Y0.0946  
G01 X0.7491  Y0.0939  
G01 X0.7863  Y0.0939  
G01 X0.7880  Y0.0946  
G01 X0.7892  Y0.0959  
G01 X0.7899  Y0.0975  
G01 X0.7899  Y0.0997  
G01 X0.8028  Y0.0997  
G01 X0.8060  Y0.1006  
G01 X0.8089  Y0.1022  
G01 X0.8418  Y0.1351  
G01 X0.8459  Y0.1351  
G01 X0.8459  Y0.1310  
G01 X0.8466  Y0.1293  
G01 X0.8478  Y0.1281  
G01 X0.8495  Y0.1274  
G01 X0.8828  Y0.1274  
G01 X0.8844  Y0.1281  
G01 X0.8857  Y0.1293  
G01 X0.8864  Y0.1310  
G01 X0.8864  Y0.1643  
G01 X0.8857  Y0.1659  
G01 X0.8844  Y0.1672  
G01 X0.8828  Y0.1679  
G01 X0.8495  Y0.1679  
G01 X0.8478  Y0.1672  
G01 X0.8466  Y0.1659  
G01 X0.8459  Y0.1643  
G01 X0.8459  Y0.1601  
G01 X0.8350  Y0.1601  
G01 X0.8318  Y0.1593  
G01 X0.8289  Y0.1576  
G01 X0.8266  Y0.1553  
G01 X0.7960  Y0.1247  
G01 X0.7899  Y0.1247  
G01 X0.7899  Y0.1269  
G01 X0.7892  Y0.1285  
G01 X0.7880  Y0.1298  
G01 X0.7863  Y0.1305  
G00 Z0.1000  
G00 X0.8459  Y0.1052  
G01 Z-0.0070 F10    
G01 X0.8459  Y0.1010  F6     
G01 X0.8449  Y0.1010  
G01 X0.8449  Y0.1051  
G01 X0.8453  Y0.1065  
G01 X0.8460  Y0.1077  
G01 X0.8467  Y0.1085  
G01 X0.8472  Y0.1086  
G01 X0.8476  Y0.1091  
G01 X0.8482  Y0.1094  
G01 X0.8490  Y0.1104  
G01 X0.8499  Y0.1113  
G01 X0.8501  Y0.1119  
G01 X0.8505  Y0.1124  
G01 X0.8508  Y0.1136  
G01 X0.8513  Y0.1148  
G01 X0.8513  Y0.1154  
G01 X0.8515  Y0.1161  
G01 X0.8513  Y0.1173  
G01 X0.8513  Y0.1186  
G01 X0.8511  Y0.1192  
G01 X0.8510  Y0.1198  
G01 X0.8504  Y0.1209  
G01 X0.8499  Y0.1221  
G01 X0.8494  Y0.1225  
G01 X0.8491  Y0.1231  
G01 X0.8481  Y0.1239  
G01 X0.8467  Y0.1253  
G01 X0.8432  Y0.1267  
G01 X0.8394  Y0.1267  
G01 X0.8359  Y0.1253  
G01 X0.8332  Y0.1226  
G01 X0.8099  Y0.0992  
G01 X0.8042  Y0.0969  
G01 X0.7963  Y0.0969  
G01 X0.7928  Y0.0954  
G01 X0.7901  Y0.0928  
G01 X0.7885  Y0.0911  
G01 X0.7470  Y0.0911  
G01 X0.7427  Y0.0954  
G01 X0.7427  Y0.1290  
G01 X0.7434  Y0.1297  
G01 X0.7460  Y0.1324  
G01 X0.7469  Y0.1344  
G01 X0.7475  Y0.1359  
G01 X0.7475  Y0.1397  
G01 X0.7461  Y0.1432  
G01 X0.7435  Y0.1458  
G01 X0.7427  Y0.1466  
G01 X0.7427  Y0.1802  
G01 X0.7462  Y0.1837  
G01 X0.7488  Y0.1863  
G01 X0.7498  Y0.1888  
G01 X0.7503  Y0.1898  
G01 X0.7503  Y0.1936  
G01 X0.7488  Y0.1971  
G01 X0.7462  Y0.1998  
G01 X0.7437  Y0.2008  
G01 X0.7427  Y0.2012  
G01 X0.7268  Y0.2012  
G01 X0.7254  Y0.2006  
G01 X0.7233  Y0.1998  
G01 X0.7213  Y0.1977  
G01 X0.7131  Y0.1943  
G01 X0.7042  Y0.1943  
G01 X0.6961  Y0.1977  
G01 X0.6898  Y0.2039  
G01 X0.6864  Y0.2121  
G01 X0.6864  Y0.2210  
G01 X0.6898  Y0.2291  
G01 X0.6961  Y0.2354  
G01 X0.7042  Y0.2388  
G01 X0.7131  Y0.2388  
G01 X0.7213  Y0.2354  
G01 X0.7233  Y0.2333  
G01 X0.7254  Y0.2325  
G01 X0.7268  Y0.2318  
G01 X0.7352  Y0.2318  
G01 X0.7387  Y0.2333  
G01 X0.7414  Y0.2360  
G01 X0.7461  Y0.2407  
G01 X0.7475  Y0.2442  
G01 X0.7475  Y0.2480  
G01 X0.7461  Y0.2514  
G01 X0.7434  Y0.2541  
G01 X0.7427  Y0.2548  
G01 X0.7427  Y0.2885  
G01 X0.7470  Y0.2927  
G01 X0.7885  Y0.2927  
G01 X0.7901  Y0.2911  
G01 X0.7928  Y0.2884  
G01 X0.7952  Y0.2874  
G01 X0.7963  Y0.2870  
G01 X0.8042  Y0.2870  
G01 X0.8099  Y0.2846  
G01 X0.8157  Y0.2788  
G01 X0.8184  Y0.2761  
G01 X0.8208  Y0.2751  
G01 X0.8219  Y0.2747  
G01 X0.8256  Y0.2747  
G01 X0.8291  Y0.2761  
G01 X0.8318  Y0.2788  
G01 X0.8328  Y0.2812  
G01 X0.8332  Y0.2823  
G01 X0.8332  Y0.3049  
G01 X0.8318  Y0.3084  
G01 X0.8291  Y0.3110  
G01 X0.8256  Y0.3125  
G01 X0.6481  Y0.3125  
G01 X0.6446  Y0.3110  
G01 X0.6419  Y0.3084  
G01 X0.6405  Y0.3049  
G01 X0.6405  Y0.2477  
G01 X0.6362  Y0.2435  
G01 X0.5910  Y0.2435  
G01 X0.5907  Y0.2436  
G01 X0.5903  Y0.2441  
G01 X0.5891  Y0.2445  
G01 X0.5880  Y0.2452  
G01 X0.5874  Y0.2453  
G01 X0.5868  Y0.2455  
G01 X0.5855  Y0.2455  
G01 X0.5847  Y0.2456  
G01 X0.5847  Y0.2471  
G01 X0.5858  Y0.2482  
G01 X0.5865  Y0.2499  
G01 X0.5865  Y0.3067  
G01 X0.5858  Y0.3083  
G01 X0.5846  Y0.3096  
G01 X0.5829  Y0.3103  
G01 X0.5674  Y0.3103  
G01 X0.5658  Y0.3096  
G01 X0.5645  Y0.3083  
G01 X0.5638  Y0.3067  
G01 X0.5638  Y0.2878  
G01 X0.5609  Y0.2878  
G01 X0.5609  Y0.3067  
G01 X0.5602  Y0.3083  
G01 X0.5590  Y0.3096  
G01 X0.5573  Y0.3103  
G01 X0.5418  Y0.3103  
G01 X0.5402  Y0.3096  
G01 X0.5389  Y0.3083  
G01 X0.5382  Y0.3067  
G01 X0.5382  Y0.2499  
G01 X0.5389  Y0.2482  
G01 X0.5401  Y0.2471  
G01 X0.5401  Y0.2456  
G01 X0.5392  Y0.2455  
G01 X0.5380  Y0.2455  
G01 X0.5374  Y0.2453  
G01 X0.5367  Y0.2452  
G01 X0.5356  Y0.2445  
G01 X0.5345  Y0.2441  
G01 X0.5340  Y0.2436  
G01 X0.5337  Y0.2435  
G01 X0.4630  Y0.2435  
G01 X0.4628  Y0.2436  
G01 X0.4623  Y0.2441  
G01 X0.4611  Y0.2445  
G01 X0.4600  Y0.2452  
G01 X0.4594  Y0.2453  
G01 X0.4588  Y0.2455  
G01 X0.4576  Y0.2455  
G01 X0.4567  Y0.2456  
G01 X0.4567  Y0.2471  
G01 X0.4579  Y0.2482  
G01 X0.4586  Y0.2499  
G01 X0.4586  Y0.3067  
G01 X0.4579  Y0.3083  
G01 X0.4567  Y0.3095  
G01 X0.4567  Y0.3131  
G01 X0.4590  Y0.3154  
G01 X0.4605  Y0.3189  
G01 X0.4605  Y0.3401  
G01 X0.4784  Y0.3580  
G01 X0.4870  Y0.3666  
G01 X0.6835  Y0.3666  
G01 X0.6845  Y0.3671  
G01 X0.6870  Y0.3681  
G01 X0.6896  Y0.3708  
G01 X0.6911  Y0.3743  
G01 X0.6911  Y0.3780  
G01 X0.6904  Y0.3797  
G01 X0.6896  Y0.3815  
G01 X0.6864  Y0.3893  
G01 X0.6864  Y0.3981  
G01 X0.6898  Y0.4063  
G01 X0.6919  Y0.4084  
G01 X0.6934  Y0.4119  
G01 X0.6934  Y0.4755  
G01 X0.6957  Y0.4811  
G01 X0.7027  Y0.4881  
G01 X0.7186  Y0.5040  
G01 X0.7200  Y0.5075  
G01 X0.7200  Y0.5297  
G01 X0.7194  Y0.5311  
G01 X0.7186  Y0.5332  
G01 X0.7159  Y0.5359  
G01 X0.7124  Y0.5373  
G01 X0.7086  Y0.5373  
G01 X0.7072  Y0.5368  
G01 X0.7051  Y0.5359  
G01 X0.7025  Y0.5332  
G01 X0.7016  Y0.5323  
G01 X0.6934  Y0.5289  
G01 X0.6846  Y0.5289  
G01 X0.6764  Y0.5323  
G01 X0.6701  Y0.5386  
G01 X0.6655  Y0.5497  
G01 X0.6628  Y0.5524  
G01 X0.6594  Y0.5538  
G01 X0.6481  Y0.5538  
G01 X0.6446  Y0.5524  
G01 X0.6419  Y0.5497  
G01 X0.6405  Y0.5462  
G01 X0.6405  Y0.5356  
G01 X0.6362  Y0.5313  
G01 X0.5695  Y0.5313  
G01 X0.5660  Y0.5299  
G01 X0.5633  Y0.5272  
G01 X0.5619  Y0.5237  
G01 X0.5619  Y0.5071  
G01 X0.5633  Y0.5036  
G01 X0.5649  Y0.4998  
G01 X0.5649  Y0.4937  
G01 X0.5625  Y0.4881  
G01 X0.4354  Y0.3609  
G01 X0.4339  Y0.3574  
G01 X0.4339  Y0.3189  
G01 X0.4354  Y0.3154  
G01 X0.4377  Y0.3131  
G01 X0.4377  Y0.3095  
G01 X0.4365  Y0.3083  
G01 X0.4359  Y0.3067  
G01 X0.4359  Y0.2499  
G01 X0.4365  Y0.2482  
G01 X0.4377  Y0.2471  
G01 X0.4377  Y0.2456  
G01 X0.4369  Y0.2455  
G01 X0.4356  Y0.2455  
G01 X0.4350  Y0.2453  
G01 X0.4344  Y0.2452  
G01 X0.4333  Y0.2445  
G01 X0.4321  Y0.2441  
G01 X0.4316  Y0.2436  
G01 X0.4314  Y0.2435  
G01 X0.3863  Y0.2435  
G01 X0.3860  Y0.2436  
G01 X0.3855  Y0.2441  
G01 X0.3844  Y0.2445  
G01 X0.3833  Y0.2452  
G01 X0.3826  Y0.2453  
G01 X0.3820  Y0.2455  
G01 X0.3808  Y0.2455  
G01 X0.3799  Y0.2456  
G01 X0.3799  Y0.2471  
G01 X0.3811  Y0.2482  
G01 X0.3818  Y0.2499  
G01 X0.3818  Y0.3067  
G01 X0.3811  Y0.3083  
G01 X0.3799  Y0.3095  
G01 X0.3799  Y0.3109  
G01 X0.3808  Y0.3110  
G01 X0.3820  Y0.3110  
G01 X0.3826  Y0.3113  
G01 X0.3833  Y0.3114  
G01 X0.3844  Y0.3120  
G01 X0.3855  Y0.3125  
G01 X0.3860  Y0.3129  
G01 X0.3863  Y0.3131  
G01 X0.4017  Y0.3131  
G01 X0.4052  Y0.3145  
G01 X0.4079  Y0.3172  
G01 X0.4093  Y0.3207  
G01 X0.4093  Y0.3574  
G01 X0.4079  Y0.3609  
G01 X0.4052  Y0.3636  
G01 X0.3855  Y0.3832  
G01 X0.3820  Y0.3847  
G01 X0.1910  Y0.3847  
G01 X0.1891  Y0.3847  
G01 X0.1872  Y0.3847  
G01 X0.1866  Y0.3845  
G01 X0.1837  Y0.3832  
G01 X0.1810  Y0.3806  
G01 X0.1804  Y0.3791  
G01 X0.1701  Y0.3688  
G01 X0.1565  Y0.3632  
G01 X0.0828  Y0.3632  
G01 X0.0693  Y0.3688  
G01 X0.0589  Y0.3791  
G01 X0.0533  Y0.3927  
G01 X0.0533  Y0.4073  
G01 X0.0589  Y0.4209  
G01 X0.0693  Y0.4312  
G01 X0.0828  Y0.4368  
G01 X0.1565  Y0.4368  
G01 X0.1701  Y0.4312  
G01 X0.1804  Y0.4209  
G01 X0.1810  Y0.4194  
G01 X0.1837  Y0.4168  
G01 X0.1866  Y0.4156  
G01 X0.1872  Y0.4153  
G01 X0.1891  Y0.4153  
G01 X0.1910  Y0.4153  
G01 X0.2746  Y0.4153  
G01 X0.2781  Y0.4168  
G01 X0.2807  Y0.4194  
G01 X0.2822  Y0.4229  
G01 X0.2822  Y0.4267  
G01 X0.2807  Y0.4302  
G01 X0.2781  Y0.4329  
G01 X0.2247  Y0.4862  
G01 X0.2212  Y0.4877  
G01 X0.1884  Y0.4877  
G01 X0.1870  Y0.4871  
G01 X0.1850  Y0.4862  
G01 X0.1823  Y0.4836  
G01 X0.1808  Y0.4801  
G01 X0.1804  Y0.4791  
G01 X0.1701  Y0.4688  
G01 X0.1565  Y0.4632  
G01 X0.0828  Y0.4632  
G01 X0.0693  Y0.4688  
G01 X0.0589  Y0.4791  
G01 X0.0533  Y0.4927  
G01 X0.0533  Y0.5073  
G01 X0.0589  Y0.5209  
G01 X0.0693  Y0.5312  
G01 X0.0828  Y0.5368  
G01 X0.1565  Y0.5368  
G01 X0.1701  Y0.5312  
G01 X0.1804  Y0.5209  
G01 X0.1808  Y0.5199  
G01 X0.1823  Y0.5164  
G01 X0.1849  Y0.5138  
G01 X0.1870  Y0.5129  
G01 X0.1884  Y0.5123  
G01 X0.2334  Y0.5123  
G01 X0.2989  Y0.4468  
G01 X0.3024  Y0.4454  
G01 X0.4062  Y0.4454  
G01 X0.4097  Y0.4468  
G01 X0.4124  Y0.4495  
G01 X0.4291  Y0.4662  
G01 X0.4305  Y0.4697  
G01 X0.4305  Y0.4769  
G01 X0.4339  Y0.4850  
G01 X0.4402  Y0.4913  
G01 X0.4483  Y0.4947  
G01 X0.4572  Y0.4947  
G01 X0.4653  Y0.4913  
G01 X0.4678  Y0.4889  
G01 X0.4704  Y0.4862  
G01 X0.4739  Y0.4848  
G01 X0.4850  Y0.4848  
G01 X0.4885  Y0.4862  
G01 X0.4911  Y0.4889  
G01 X0.5102  Y0.5079  
G01 X0.5117  Y0.5114  
G01 X0.5117  Y0.5237  
G01 X0.5102  Y0.5272  
G01 X0.5075  Y0.5299  
G01 X0.5041  Y0.5313  
G01 X0.4886  Y0.5313  
G01 X0.4884  Y0.5315  
G01 X0.4879  Y0.5319  
G01 X0.4867  Y0.5324  
G01 X0.4856  Y0.5331  
G01 X0.4850  Y0.5331  
G01 X0.4845  Y0.5333  
G01 X0.4845  Y0.5658  
G01 X0.4841  Y0.5667  
G01 X0.4841  Y0.5945  
G01 X0.4835  Y0.5962  
G01 X0.4823  Y0.5974  
G01 X0.4823  Y0.5988  
G01 X0.4831  Y0.5989  
G01 X0.4844  Y0.5989  
G01 X0.4850  Y0.5991  
G01 X0.4856  Y0.5992  
G01 X0.4867  Y0.5999  
G01 X0.4879  Y0.6003  
G01 X0.4884  Y0.6008  
G01 X0.4886  Y0.6010  
G01 X0.5266  Y0.6010  
G01 X0.5301  Y0.6024  
G01 X0.5328  Y0.6051  
G01 X0.5343  Y0.6086  
G01 X0.5343  Y0.6098  
G01 X0.5366  Y0.6154  
G01 X0.5570  Y0.6359  
G01 X0.5613  Y0.6402  
G01 X0.5670  Y0.6425  
G01 X0.6051  Y0.6425  
G01 X0.6064  Y0.6424  
G01 X0.6070  Y0.6425  
G01 X0.6077  Y0.6425  
G01 X0.6088  Y0.6430  
G01 X0.6100  Y0.6433  
G01 X0.6106  Y0.6437  
G01 X0.6111  Y0.6440  
G01 X0.6120  Y0.6449  
G01 X0.6130  Y0.6456  
G01 X0.6134  Y0.6462  
G01 X0.6138  Y0.6466  
G01 X0.6143  Y0.6478  
G01 X0.6149  Y0.6489  
G01 X0.6150  Y0.6495  
G01 X0.6153  Y0.6501  
G01 X0.6153  Y0.6514  
G01 X0.6154  Y0.6527  
G01 X0.6153  Y0.6533  
G01 X0.6153  Y0.6539  
G01 X0.6151  Y0.6542  
G01 X0.6151  Y0.6608  
G01 X0.6161  Y0.6608  
G01 X0.6161  Y0.6536  
G01 X0.6168  Y0.6519  
G01 X0.6181  Y0.6507  
G01 X0.6197  Y0.6500  
G01 X0.6491  Y0.6500  
G01 X0.6507  Y0.6507  
G01 X0.6520  Y0.6519  
G01 X0.6527  Y0.6536  
G01 X0.6527  Y0.6908  
G01 X0.6520  Y0.6925  
G01 X0.6507  Y0.6937  
G01 X0.6491  Y0.6944  
G01 X0.6458  Y0.6944  
G01 X0.6458  Y0.6954  
G01 X0.6489  Y0.6954  
G01 X0.6503  Y0.6950  
G01 X0.6516  Y0.6943  
G01 X0.6533  Y0.6926  
G01 X0.6568  Y0.6911  
G01 X0.6606  Y0.6911  
G01 X0.6616  Y0.6915  
G01 X0.6641  Y0.6926  
G01 X0.6668  Y0.6952  
G01 X0.6688  Y0.6972  
G01 X0.7024  Y0.6972  
G01 X0.7079  Y0.6918  
G01 X0.7081  Y0.6911  
G01 X0.7108  Y0.6884  
G01 X0.7110  Y0.6884  
G01 X0.7187  Y0.6852  
G01 X0.7257  Y0.6782  
G01 X0.7658  Y0.6380  
G01 X0.7679  Y0.6360  
G01 X0.7705  Y0.6333  
G01 X0.7742  Y0.6297  
G01 X0.7769  Y0.6270  
G01 X0.7804  Y0.6255  
G01 X0.9282  Y0.6255  
G01 X0.9339  Y0.6232  
G01 X0.9408  Y0.6162  
G01 X0.9579  Y0.5992  
G01 X0.9602  Y0.5936  
G01 X0.9602  Y0.4891  
G01 X0.9579  Y0.4835  
G01 X0.9509  Y0.4765  
G01 X0.9249  Y0.4505  
G01 X0.9223  Y0.4479  
G01 X0.9208  Y0.4444  
G01 X0.9208  Y0.2601  
G01 X0.9223  Y0.2566  
G01 X0.9249  Y0.2539  
G01 X0.9977  Y0.1811  
G01 X1.0012  Y0.1796  
G01 X1.0481  Y0.1796  
G01 X1.0516  Y0.1811  
G01 X1.0542  Y0.1838  
G01 X1.0557  Y0.1872  
G01 X1.0557  Y0.2458  
G01 X1.0542  Y0.2493  
G01 X1.0516  Y0.2520  
G01 X1.0481  Y0.2534  
G01 X1.0118  Y0.2534  
G01 X1.0083  Y0.2520  
G01 X1.0056  Y0.2493  
G01 X1.0055  Y0.2492  
G01 X1.0031  Y0.2433  
G01 X0.9968  Y0.2371  
G01 X0.9887  Y0.2337  
G01 X0.9798  Y0.2337  
G01 X0.9717  Y0.2371  
G01 X0.9654  Y0.2433  
G01 X0.9620  Y0.2515  
G01 X0.9620  Y0.2603  
G01 X0.9654  Y0.2685  
G01 X0.9717  Y0.2748  
G01 X0.9798  Y0.2781  
G01 X0.9887  Y0.2781  
G01 X0.9889  Y0.2781  
G01 X1.0481  Y0.2781  
G01 X1.0516  Y0.2795  
G01 X1.0542  Y0.2822  
G01 X1.0557  Y0.2857  
G01 X1.0557  Y0.2934  
G01 X1.0560  Y0.2937  
G01 X1.0568  Y0.2956  
G01 X1.1239  Y0.2956  
G01 X1.1241  Y0.2957  
G01 X1.1820  Y0.2957  
G01 X1.1837  Y0.2964  
G01 X1.1849  Y0.2976  
G01 X1.1856  Y0.2993  
G01 X1.1856  Y0.3109  
G01 X1.1849  Y0.3126  
G01 X1.1837  Y0.3139  
G01 X1.1820  Y0.3145  
G01 X1.1315  Y0.3145  
G01 X1.1315  Y0.3154  
G01 X1.1820  Y0.3154  
G01 X1.1837  Y0.3161  
G01 X1.1849  Y0.3173  
G01 X1.1856  Y0.3190  
G01 X1.1856  Y0.3306  
G01 X1.1849  Y0.3323  
G01 X1.1837  Y0.3335  
G01 X1.1820  Y0.3342  
G01 X1.1241  Y0.3342  
G01 X1.1239  Y0.3343  
G01 X1.0568  Y0.3343  
G01 X1.0560  Y0.3362  
G01 X1.0557  Y0.3365  
G01 X1.0557  Y0.3443  
G01 X1.0542  Y0.3477  
G01 X1.0516  Y0.3504  
G01 X1.0481  Y0.3519  
G01 X0.9730  Y0.3519  
G01 X0.9709  Y0.3519  
G01 X0.9692  Y0.3519  
G01 X0.9690  Y0.3518  
G01 X0.9601  Y0.3518  
G01 X0.9520  Y0.3552  
G01 X0.9457  Y0.3614  
G01 X0.9423  Y0.3696  
G01 X0.9423  Y0.3784  
G01 X0.9457  Y0.3866  
G01 X0.9520  Y0.3929  
G01 X0.9557  Y0.3944  
G01 X0.9558  Y0.3945  
G01 X0.9592  Y0.3959  
G01 X0.9619  Y0.3985  
G01 X0.9624  Y0.3999  
G01 X0.9633  Y0.4020  
G01 X0.9633  Y0.4039  
G01 X0.9633  Y0.4058  
G01 X0.9631  Y0.4064  
G01 X0.9620  Y0.4090  
G01 X0.9620  Y0.4178  
G01 X0.9654  Y0.4260  
G01 X0.9717  Y0.4322  
G01 X0.9798  Y0.4356  
G01 X0.9887  Y0.4356  
G01 X0.9968  Y0.4322  
G01 X1.0031  Y0.4260  
G01 X1.0065  Y0.4178  
G01 X1.0065  Y0.4106  
G01 X1.0079  Y0.4071  
G01 X1.0106  Y0.4044  
G01 X1.0146  Y0.4004  
G01 X1.0156  Y0.3982  
G01 X1.0182  Y0.3955  
G01 X1.0217  Y0.3940  
G01 X1.1239  Y0.3940  
G01 X1.1241  Y0.3941  
G01 X1.1820  Y0.3941  
G01 X1.1837  Y0.3948  
G01 X1.1849  Y0.3961  
G01 X1.1856  Y0.3977  
G01 X1.1856  Y0.4094  
G01 X1.1849  Y0.4110  
G01 X1.1837  Y0.4123  
G01 X1.1820  Y0.4130  
G01 X1.1241  Y0.4130  
G01 X1.1239  Y0.4130  
G01 X1.0568  Y0.4130  
G01 X1.0560  Y0.4149  
G01 X1.0557  Y0.4153  
G01 X1.0557  Y0.5887  
G01 X1.0560  Y0.5890  
G01 X1.0568  Y0.5909  
G01 X1.1239  Y0.5909  
G01 X1.1241  Y0.5910  
G01 X1.1820  Y0.5910  
G01 X1.1837  Y0.5917  
G01 X1.1849  Y0.5929  
G01 X1.1856  Y0.5946  
G01 X1.1856  Y0.6062  
G01 X1.1849  Y0.6079  
G01 X1.1837  Y0.6091  
G01 X1.1820  Y0.6098  
G01 X1.1241  Y0.6098  
G01 X1.1239  Y0.6099  
G01 X1.0583  Y0.6099  
G01 X1.0582  Y0.6105  
G01 X1.0582  Y0.6118  
G01 X1.0580  Y0.6124  
G01 X1.0579  Y0.6130  
G01 X1.0572  Y0.6141  
G01 X1.0568  Y0.6153  
G01 X1.0563  Y0.6158  
G01 X1.0560  Y0.6163  
G01 X1.0550  Y0.6171  
G01 X1.0541  Y0.6180  
G01 X1.0535  Y0.6182  
G01 X1.0530  Y0.6186  
G01 X1.0518  Y0.6189  
G01 X1.0506  Y0.6194  
G01 X1.0499  Y0.6194  
G01 X1.0493  Y0.6196  
G01 X1.0481  Y0.6194  
G01 X1.0390  Y0.6194  
G01 X1.0328  Y0.6256  
G01 X1.0328  Y0.9661  
G01 X1.0314  Y0.9696  
G01 X1.0287  Y0.9723  
G01 X1.0252  Y0.9738  
G01 X0.0181  Y0.9738  
G01 X0.0146  Y0.9723  
G01 X0.0119  Y0.9696  
G01 X0.0105  Y0.9661  
G01 X0.0105  Y0.0181  
G01 X0.0119  Y0.0146  
G01 X0.0146  Y0.0119  
G01 X0.0181  Y0.0105  
G01 X1.0481  Y0.0105  
G01 X1.0493  Y0.0103  
G01 X1.0499  Y0.0105  
G01 X1.0506  Y0.0105  
G01 X1.0518  Y0.0110  
G01 X1.0530  Y0.0113  
G01 X1.0535  Y0.0117  
G01 X1.0541  Y0.0119  
G01 X1.0550  Y0.0128  
G01 X1.0560  Y0.0136  
G01 X1.0563  Y0.0142  
G01 X1.0568  Y0.0146  
G01 X1.0572  Y0.0158  
G01 X1.0579  Y0.0169  
G01 X1.0580  Y0.0175  
G01 X1.0582  Y0.0181  
G01 X1.0582  Y0.0194  
G01 X1.0583  Y0.0200  
G01 X1.0589  Y0.0200  
G01 X1.0596  Y0.0199  
G01 X1.0608  Y0.0200  
G01 X1.0620  Y0.0200  
G01 X1.0622  Y0.0201  
G01 X1.1200  Y0.0201  
G01 X1.1202  Y0.0200  
G01 X1.1239  Y0.0200  
G01 X1.1241  Y0.0201  
G01 X1.1820  Y0.0201  
G01 X1.1837  Y0.0208  
G01 X1.1849  Y0.0221  
G01 X1.1856  Y0.0237  
G01 X1.1856  Y0.0353  
G01 X1.1849  Y0.0370  
G01 X1.1837  Y0.0383  
G01 X1.1820  Y0.0389  
G01 X1.1315  Y0.0389  
G01 X1.1315  Y0.0398  
G01 X1.1820  Y0.0398  
G01 X1.1837  Y0.0405  
G01 X1.1849  Y0.0417  
G01 X1.1856  Y0.0434  
G01 X1.1856  Y0.0550  
G01 X1.1849  Y0.0567  
G01 X1.1837  Y0.0579  
G01 X1.1820  Y0.0586  
G01 X1.1241  Y0.0586  
G01 X1.1239  Y0.0587  
G01 X1.0568  Y0.0587  
G01 X1.0560  Y0.0606  
G01 X1.0557  Y0.0609  
G01 X1.0557  Y0.0687  
G01 X1.0542  Y0.0722  
G01 X1.0516  Y0.0748  
G01 X1.0481  Y0.0763  
G01 X1.0118  Y0.0763  
G01 X1.0083  Y0.0748  
G01 X1.0056  Y0.0722  
G01 X1.0055  Y0.0720  
G01 X1.0031  Y0.0661  
G01 X0.9968  Y0.0599  
G01 X0.9887  Y0.0565  
G01 X0.9798  Y0.0565  
G01 X0.9717  Y0.0599  
G01 X0.9654  Y0.0661  
G01 X0.9620  Y0.0743  
G01 X0.9620  Y0.0832  
G01 X0.9654  Y0.0913  
G01 X0.9717  Y0.0976  
G01 X0.9745  Y0.0988  
G01 X0.9751  Y0.0990  
G01 X0.9780  Y0.1002  
G01 X0.9807  Y0.1029  
G01 X0.9821  Y0.1064  
G01 X0.9821  Y0.1102  
G01 X0.9815  Y0.1116  
G01 X0.9807  Y0.1136  
G01 X0.9780  Y0.1163  
G01 X0.9745  Y0.1178  
G01 X0.9717  Y0.1189  
G01 X0.9654  Y0.1252  
G01 X0.9620  Y0.1334  
G01 X0.9620  Y0.1386  
G01 X0.9620  Y0.1405  
G01 X0.9620  Y0.1424  
G01 X0.9614  Y0.1439  
G01 X0.9606  Y0.1459  
G01 X0.9623  Y0.1467  
G01 X0.9636  Y0.1480  
G01 X0.9650  Y0.1494  
G01 X0.9654  Y0.1504  
G01 X0.9741  Y0.1591  
G01 X0.9756  Y0.1626  
G01 X0.9756  Y0.1664  
G01 X0.9741  Y0.1699  
G01 X0.9715  Y0.1725  
G01 X0.9041  Y0.2399  
G01 X0.8968  Y0.2429  
G01 X0.8943  Y0.2455  
G01 X0.8928  Y0.2461  
G01 X0.8907  Y0.2470  
G01 X0.8870  Y0.2470  
G01 X0.8841  Y0.2458  
G01 X0.8835  Y0.2455  
G01 X0.8808  Y0.2429  
G01 X0.8802  Y0.2414  
G01 X0.8794  Y0.2394  
G01 X0.8794  Y0.2273  
G01 X0.8751  Y0.2230  
G01 X0.8375  Y0.2230  
G01 X0.8339  Y0.2266  
G01 X0.8312  Y0.2293  
G01 X0.8288  Y0.2303  
G01 X0.8277  Y0.2308  
G01 X0.8237  Y0.2308  
G01 X0.8181  Y0.2331  
G01 X0.8111  Y0.2401  
G01 X0.8103  Y0.2409  
G01 X0.8077  Y0.2435  
G01 X0.8056  Y0.2444  
G01 X0.8041  Y0.2450  
G01 X0.8004  Y0.2450  
G01 X0.7969  Y0.2436  
G01 X0.7942  Y0.2409  
G01 X0.7934  Y0.2389  
G01 X0.7927  Y0.2374  
G01 X0.7927  Y0.2037  
G01 X0.7891  Y0.2000  
G01 X0.7864  Y0.1973  
G01 X0.7854  Y0.1949  
G01 X0.7849  Y0.1938  
G01 X0.7849  Y0.1900  
G01 X0.7864  Y0.1865  
G01 X0.7927  Y0.1802  
G01 X0.7927  Y0.1465  
G01 X0.7942  Y0.1430  
G01 X0.7969  Y0.1403  
G01 X0.8004  Y0.1389  
G01 X0.8041  Y0.1389  
G01 X0.8076  Y0.1403  
G01 X0.8103  Y0.1430  
G01 X0.8210  Y0.1536  
G01 X0.8279  Y0.1606  
G01 X0.8336  Y0.1629  
G01 X0.8376  Y0.1629  
G01 X0.8411  Y0.1644  
G01 X0.8437  Y0.1671  
G01 X0.8474  Y0.1707  
G01 X0.8849  Y0.1707  
G01 X0.8889  Y0.1667  
G01 X0.8914  Y0.1642  
G01 X0.8915  Y0.1641  
G01 X0.8930  Y0.1635  
G01 X0.8950  Y0.1626  
G01 X0.8988  Y0.1626  
G01 X0.9008  Y0.1635  
G01 X0.9023  Y0.1641  
G01 X0.9050  Y0.1667  
G01 X0.9056  Y0.1682  
G01 X0.9063  Y0.1701  
G01 X0.9126  Y0.1763  
G01 X0.9208  Y0.1797  
G01 X0.9296  Y0.1797  
G01 X0.9378  Y0.1763  
G01 X0.9440  Y0.1701  
G01 X0.9474  Y0.1619  
G01 X0.9474  Y0.1566  
G01 X0.9474  Y0.1548  
G01 X0.9474  Y0.1529  
G01 X0.9481  Y0.1513  
G01 X0.9489  Y0.1494  
G01 X0.9471  Y0.1486  
G01 X0.9458  Y0.1473  
G01 X0.9445  Y0.1459  
G01 X0.9440  Y0.1449  
G01 X0.9420  Y0.1428  
G01 X0.9405  Y0.1393  
G01 X0.9405  Y0.0757  
G01 X0.9382  Y0.0701  
G01 X0.9043  Y0.0362  
G01 X0.8987  Y0.0339  
G01 X0.4364  Y0.0339  
G01 X0.4308  Y0.0362  
G01 X0.4238  Y0.0432  
G01 X0.3564  Y0.1106  
G01 X0.3529  Y0.1120  
G01 X0.3491  Y0.1120  
G01 X0.3456  Y0.1106  
G01 X0.3430  Y0.1079  
G01 X0.3221  Y0.0870  
G01 X0.3164  Y0.0847  
G01 X0.1910  Y0.0847  
G01 X0.1891  Y0.0847  
G01 X0.1872  Y0.0847  
G01 X0.1866  Y0.0845  
G01 X0.1837  Y0.0832  
G01 X0.1810  Y0.0806  
G01 X0.1804  Y0.0791  
G01 X0.1701  Y0.0688  
G01 X0.1565  Y0.0632  
G01 X0.0828  Y0.0632  
G01 X0.0693  Y0.0688  
G01 X0.0589  Y0.0791  
G01 X0.0533  Y0.0927  
G01 X0.0533  Y0.1073  
G01 X0.0589  Y0.1209  
G01 X0.0693  Y0.1312  
G01 X0.0828  Y0.1368  
G01 X0.1565  Y0.1368  
G01 X0.1701  Y0.1312  
G01 X0.1804  Y0.1209  
G01 X0.1810  Y0.1194  
G01 X0.1837  Y0.1168  
G01 X0.1866  Y0.1156  
G01 X0.1872  Y0.1153  
G01 X0.1891  Y0.1153  
G01 X0.1910  Y0.1153  
G01 X0.3050  Y0.1153  
G01 X0.3085  Y0.1168  
G01 X0.3112  Y0.1194  
G01 X0.3343  Y0.1425  
G01 X0.3357  Y0.1460  
G01 X0.3357  Y0.1654  
G01 X0.3343  Y0.1689  
G01 X0.3316  Y0.1715  
G01 X0.3299  Y0.1732  
G01 X0.3299  Y0.2147  
G01 X0.3311  Y0.2158  
G01 X0.3325  Y0.2193  
G01 X0.3325  Y0.2358  
G01 X0.3311  Y0.2393  
G01 X0.3284  Y0.2420  
G01 X0.3249  Y0.2435  
G01 X0.2838  Y0.2435  
G01 X0.2795  Y0.2477  
G01 X0.2795  Y0.3048  
G01 X0.2781  Y0.3083  
G01 X0.2754  Y0.3110  
G01 X0.2719  Y0.3124  
G01 X0.2712  Y0.3124  
G01 X0.2630  Y0.3158  
G01 X0.2567  Y0.3221  
G01 X0.2534  Y0.3302  
G01 X0.2534  Y0.3391  
G01 X0.2567  Y0.3472  
G01 X0.2630  Y0.3535  
G01 X0.2712  Y0.3569  
G01 X0.2800  Y0.3569  
G01 X0.2882  Y0.3535  
G01 X0.2944  Y0.3472  
G01 X0.2956  Y0.3444  
G01 X0.2959  Y0.3438  
G01 X0.2971  Y0.3409  
G01 X0.2997  Y0.3382  
G01 X0.3032  Y0.3368  
G01 X0.3070  Y0.3368  
G01 X0.3084  Y0.3374  
G01 X0.3105  Y0.3382  
G01 X0.3132  Y0.3409  
G01 X0.3146  Y0.3444  
G01 X0.3158  Y0.3472  
G01 X0.3221  Y0.3535  
G01 X0.3302  Y0.3569  
G01 X0.3391  Y0.3569  
G01 X0.3472  Y0.3535  
G01 X0.3535  Y0.3472  
G01 X0.3569  Y0.3391  
G01 X0.3569  Y0.3302  
G01 X0.3552  Y0.3261  
G01 X0.3544  Y0.3243  
G01 X0.3537  Y0.3227  
G01 X0.3537  Y0.3189  
G01 X0.3552  Y0.3154  
G01 X0.3578  Y0.3128  
G01 X0.3599  Y0.3119  
G01 X0.3609  Y0.3114  
G01 X0.3609  Y0.3095  
G01 X0.3598  Y0.3083  
G01 X0.3591  Y0.3067  
G01 X0.3591  Y0.2499  
G01 X0.3598  Y0.2482  
G01 X0.3609  Y0.2471  
G01 X0.3609  Y0.2435  
G01 X0.3586  Y0.2411  
G01 X0.3572  Y0.2377  
G01 X0.3572  Y0.2266  
G01 X0.3586  Y0.2231  
G01 X0.3613  Y0.2204  
G01 X0.3648  Y0.2190  
G01 X0.3678  Y0.2190  
G01 X0.3698  Y0.2170  
G01 X0.3725  Y0.2143  
G01 X0.3750  Y0.2133  
G01 X0.3760  Y0.2128  
G01 X0.3798  Y0.2128  
G01 X0.3833  Y0.2143  
G01 X0.3850  Y0.2161  
G01 X0.3863  Y0.2168  
G01 X0.3877  Y0.2172  
G01 X0.3908  Y0.2172  
G01 X0.3908  Y0.2162  
G01 X0.3875  Y0.2162  
G01 X0.3859  Y0.2155  
G01 X0.3846  Y0.2142  
G01 X0.3839  Y0.2125  
G01 X0.3839  Y0.1753  
G01 X0.3846  Y0.1737  
G01 X0.3859  Y0.1724  
G01 X0.3875  Y0.1717  
G01 X0.3908  Y0.1717  
G01 X0.3908  Y0.1707  
G01 X0.3877  Y0.1707  
G01 X0.3863  Y0.1711  
G01 X0.3850  Y0.1718  
G01 X0.3833  Y0.1736  
G01 X0.3827  Y0.1738  
G01 X0.3798  Y0.1750  
G01 X0.3760  Y0.1750  
G01 X0.3746  Y0.1744  
G01 X0.3725  Y0.1736  
G01 X0.3698  Y0.1709  
G01 X0.3678  Y0.1689  
G01 X0.3675  Y0.1682  
G01 X0.3663  Y0.1654  
G01 X0.3663  Y0.1460  
G01 X0.3678  Y0.1425  
G01 X0.4443  Y0.0660  
G01 X0.4478  Y0.0645  
G01 X0.8373  Y0.0645  
G01 X0.8383  Y0.0649  
G01 X0.8408  Y0.0660  
G01 X0.8434  Y0.0686  
G01 X0.8449  Y0.0721  
G01 X0.8449  Y0.0762  
G01 X0.8459  Y0.0762  
G01 X0.8459  Y0.0719  
G01 X0.8466  Y0.0703  
G01 X0.8478  Y0.0690  
G01 X0.8495  Y0.0683  
G01 X0.8828  Y0.0683  
G01 X0.8844  Y0.0690  
G01 X0.8857  Y0.0703  
G01 X0.8864  Y0.0719  
G01 X0.8864  Y0.0762  
G01 X0.8945  Y0.0762  
G01 X0.8950  Y0.0760  
G01 X0.8988  Y0.0760  
G01 X0.9002  Y0.0766  
G01 X0.9023  Y0.0775  
G01 X0.9049  Y0.0801  
G01 X0.9058  Y0.0810  
G01 X0.9084  Y0.0836  
G01 X0.9099  Y0.0871  
G01 X0.9099  Y0.1374  
G01 X0.9099  Y0.1393  
G01 X0.9084  Y0.1428  
G01 X0.9068  Y0.1445  
G01 X0.9041  Y0.1471  
G01 X0.9012  Y0.1483  
G01 X0.9006  Y0.1486  
G01 X0.8987  Y0.1486  
G01 X0.8968  Y0.1486  
G01 X0.8933  Y0.1472  
G01 X0.8907  Y0.1445  
G01 X0.8895  Y0.1416  
G01 X0.8892  Y0.1410  
G01 X0.8892  Y0.1391  
G01 X0.8892  Y0.1372  
G01 X0.8892  Y0.1289  
G01 X0.8842  Y0.1239  
G01 X0.8832  Y0.1231  
G01 X0.8829  Y0.1225  
G01 X0.8824  Y0.1221  
G01 X0.8819  Y0.1209  
G01 X0.8813  Y0.1198  
G01 X0.8812  Y0.1192  
G01 X0.8810  Y0.1186  
G01 X0.8810  Y0.1173  
G01 X0.8808  Y0.1161  
G01 X0.8810  Y0.1154  
G01 X0.8810  Y0.1148  
G01 X0.8815  Y0.1136  
G01 X0.8818  Y0.1124  
G01 X0.8822  Y0.1119  
G01 X0.8824  Y0.1113  
G01 X0.8833  Y0.1104  
G01 X0.8841  Y0.1094  
G01 X0.8846  Y0.1091  
G01 X0.8851  Y0.1086  
G01 X0.8855  Y0.1085  
G01 X0.8863  Y0.1077  
G01 X0.8870  Y0.1065  
G01 X0.8874  Y0.1051  
G01 X0.8874  Y0.1010  
G01 X0.8864  Y0.1010  
G01 X0.8864  Y0.1052  
G01 X0.8857  Y0.1069  
G01 X0.8844  Y0.1081  
G01 X0.8828  Y0.1088  
G01 X0.8495  Y0.1088  
G01 X0.8478  Y0.1081  
G01 X0.8466  Y0.1069  
G01 X0.8459  Y0.1052  
G00 Z0.1000  
G00 X0.8375  Y0.4758  
G01 Z-0.0070 F10    
G01 X0.8751  Y0.4758  F6     
G01 X0.8794  Y0.4715  
G01 X0.8794  Y0.4693  
G01 X0.8808  Y0.4658  
G01 X0.8835  Y0.4631  
G01 X0.8870  Y0.4617  
G01 X0.8907  Y0.4617  
G01 X0.8942  Y0.4631  
G01 X0.8969  Y0.4658  
G01 X0.9281  Y0.4970  
G01 X0.9296  Y0.5005  
G01 X0.9296  Y0.5822  
G01 X0.9281  Y0.5857  
G01 X0.9255  Y0.5883  
G01 X0.9203  Y0.5935  
G01 X0.9168  Y0.5949  
G01 X0.9074  Y0.5949  
G01 X0.9067  Y0.5951  
G01 X0.9055  Y0.5949  
G01 X0.9042  Y0.5949  
G01 X0.9036  Y0.5947  
G01 X0.9030  Y0.5946  
G01 X0.9019  Y0.5940  
G01 X0.9007  Y0.5935  
G01 X0.9003  Y0.5930  
G01 X0.8997  Y0.5927  
G01 X0.8990  Y0.5917  
G01 X0.8981  Y0.5908  
G01 X0.8978  Y0.5902  
G01 X0.8974  Y0.5897  
G01 X0.8971  Y0.5885  
G01 X0.8966  Y0.5873  
G01 X0.8966  Y0.5867  
G01 X0.8964  Y0.5861  
G01 X0.8966  Y0.5848  
G01 X0.8966  Y0.5835  
G01 X0.8969  Y0.5829  
G01 X0.8969  Y0.5823  
G01 X0.8976  Y0.5812  
G01 X0.8979  Y0.5804  
G01 X0.8982  Y0.5794  
G01 X0.8982  Y0.5617  
G01 X0.8972  Y0.5617  
G01 X0.8972  Y0.5796  
G01 X0.8965  Y0.5812  
G01 X0.8952  Y0.5825  
G01 X0.8936  Y0.5832  
G01 X0.8367  Y0.5832  
G01 X0.8350  Y0.5825  
G01 X0.8337  Y0.5812  
G01 X0.8331  Y0.5796  
G01 X0.8331  Y0.5617  
G01 X0.8321  Y0.5617  
G01 X0.8321  Y0.5794  
G01 X0.8323  Y0.5804  
G01 X0.8327  Y0.5812  
G01 X0.8333  Y0.5823  
G01 X0.8334  Y0.5829  
G01 X0.8336  Y0.5835  
G01 X0.8336  Y0.5848  
G01 X0.8338  Y0.5861  
G01 X0.8336  Y0.5867  
G01 X0.8336  Y0.5873  
G01 X0.8331  Y0.5885  
G01 X0.8328  Y0.5897  
G01 X0.8324  Y0.5902  
G01 X0.8322  Y0.5908  
G01 X0.8313  Y0.5917  
G01 X0.8305  Y0.5927  
G01 X0.8300  Y0.5930  
G01 X0.8295  Y0.5935  
G01 X0.8283  Y0.5940  
G01 X0.8272  Y0.5946  
G01 X0.8266  Y0.5947  
G01 X0.8260  Y0.5949  
G01 X0.8247  Y0.5949  
G01 X0.8235  Y0.5951  
G01 X0.8229  Y0.5949  
G01 X0.7974  Y0.5949  
G01 X0.7939  Y0.5935  
G01 X0.7912  Y0.5908  
G01 X0.7898  Y0.5873  
G01 X0.7898  Y0.5127  
G01 X0.7855  Y0.5084  
G01 X0.7699  Y0.5084  
G01 X0.7664  Y0.5070  
G01 X0.7637  Y0.5043  
G01 X0.7636  Y0.5041  
G01 X0.7609  Y0.5030  
G01 X0.7582  Y0.5003  
G01 X0.7427  Y0.4848  
G01 X0.7412  Y0.4813  
G01 X0.7412  Y0.4775  
G01 X0.7427  Y0.4740  
G01 X0.7453  Y0.4714  
G01 X0.7488  Y0.4699  
G01 X0.7885  Y0.4699  
G01 X0.7901  Y0.4682  
G01 X0.7928  Y0.4656  
G01 X0.7952  Y0.4646  
G01 X0.7963  Y0.4641  
G01 X0.8256  Y0.4641  
G01 X0.8291  Y0.4656  
G01 X0.8318  Y0.4682  
G01 X0.8331  Y0.4714  
G01 X0.8375  Y0.4758  
G00 Z0.1000  
G00 X0.3541  Y0.3321  
G01 Z-0.0070 F10    
G01 X0.3541  Y0.3372  F6     
G01 X0.3527  Y0.3421  
G01 X0.3502  Y0.3466  
G01 X0.3466  Y0.3502  
G01 X0.3421  Y0.3527  
G01 X0.3372  Y0.3541  
G01 X0.3321  Y0.3541  
G01 X0.3271  Y0.3527  
G01 X0.3227  Y0.3502  
G01 X0.3191  Y0.3466  
G01 X0.3165  Y0.3421  
G01 X0.3152  Y0.3372  
G01 X0.3152  Y0.3321  
G01 X0.3159  Y0.3294  
G01 X0.3139  Y0.3273  
G01 X0.3112  Y0.3246  
G01 X0.3098  Y0.3211  
G01 X0.3098  Y0.3095  
G01 X0.3086  Y0.3083  
G01 X0.3079  Y0.3067  
G01 X0.3079  Y0.2499  
G01 X0.3086  Y0.2482  
G01 X0.3099  Y0.2470  
G01 X0.3115  Y0.2463  
G01 X0.3270  Y0.2463  
G01 X0.3287  Y0.2470  
G01 X0.3299  Y0.2482  
G01 X0.3306  Y0.2499  
G01 X0.3306  Y0.3067  
G01 X0.3299  Y0.3083  
G01 X0.3288  Y0.3095  
G01 X0.3288  Y0.3153  
G01 X0.3294  Y0.3159  
G01 X0.3321  Y0.3152  
G01 X0.3372  Y0.3152  
G01 X0.3421  Y0.3165  
G01 X0.3466  Y0.3191  
G01 X0.3502  Y0.3227  
G01 X0.3527  Y0.3271  
G01 X0.3541  Y0.3321  
G00 Z0.1000  
G00 X0.2950  Y0.3321  
G01 Z-0.0070 F10    
G01 X0.2950  Y0.3372  F6     
G01 X0.2937  Y0.3421  
G01 X0.2911  Y0.3466  
G01 X0.2875  Y0.3502  
G01 X0.2831  Y0.3527  
G01 X0.2781  Y0.3541  
G01 X0.2730  Y0.3541  
G01 X0.2681  Y0.3527  
G01 X0.2637  Y0.3502  
G01 X0.2600  Y0.3466  
G01 X0.2575  Y0.3421  
G01 X0.2562  Y0.3372  
G01 X0.2562  Y0.3321  
G01 X0.2575  Y0.3271  
G01 X0.2600  Y0.3227  
G01 X0.2637  Y0.3191  
G01 X0.2681  Y0.3165  
G01 X0.2730  Y0.3152  
G01 X0.2781  Y0.3152  
G01 X0.2809  Y0.3159  
G01 X0.2842  Y0.3126  
G01 X0.2842  Y0.3095  
G01 X0.2830  Y0.3083  
G01 X0.2823  Y0.3067  
G01 X0.2823  Y0.2499  
G01 X0.2830  Y0.2482  
G01 X0.2843  Y0.2470  
G01 X0.2859  Y0.2463  
G01 X0.3014  Y0.2463  
G01 X0.3031  Y0.2470  
G01 X0.3043  Y0.2482  
G01 X0.3050  Y0.2499  
G01 X0.3050  Y0.3067  
G01 X0.3043  Y0.3083  
G01 X0.3032  Y0.3095  
G01 X0.3032  Y0.3185  
G01 X0.3017  Y0.3220  
G01 X0.2990  Y0.3246  
G01 X0.2943  Y0.3294  
G01 X0.2950  Y0.3321  
G00 Z0.1000  
G00 Z0.5000  
M05
M02
