( pcb2gcode 1.1.4 )

G94     ( Inches per minute feed rate. )
G20     ( Units == INCHES.             )
G90     ( Absolute coordinates.        )
S30000  ( RPM spindle speed.           )
M3      ( Spindle on clockwise.        )

G64 P0.00500 ( set maximum deviation from commanded toolpath )

G04 P0 ( dwell for no time -- G64 should not smooth over this point )
G00 Z0.10000 ( retract )

G00 X2.38700 Y2.08826 ( rapid move to begin. )
G01 Z-0.00500 F10.00000 ( plunge. )
G04 P0 ( dwell for no time -- G64 should not smooth over this point )
X2.38700 Y2.08826
X2.38700 Y1.71026
X2.25200 Y1.71026
X2.25200 Y1.70626
X2.25100 Y1.70626
X2.25100 Y1.53726
X2.25200 Y1.53726
X2.25200 Y1.53326
X2.38700 Y1.53326
X2.38700 Y1.51326
X2.21300 Y1.51326
X2.21300 Y1.51426
X2.21100 Y1.51426
X2.21100 Y1.51526
X2.21000 Y1.51526
X2.21000 Y1.51626
X2.20900 Y1.51626
X2.20900 Y1.51726
X2.20800 Y1.51726
X2.20800 Y1.51826
X2.20700 Y1.51826
X2.20700 Y1.51926
X2.20600 Y1.51926
X2.20600 Y1.52026
X2.20500 Y1.52026
X2.20500 Y1.52126
X2.20400 Y1.52126
X2.20400 Y1.52226
X2.20300 Y1.52226
X2.20300 Y1.52326
X2.20200 Y1.52326
X2.20200 Y1.52426
X2.20100 Y1.52426
X2.20100 Y1.52626
X2.20000 Y1.52626
X2.20000 Y1.52726
X2.19900 Y1.52726
X2.19900 Y1.53026
X2.19800 Y1.53026
X2.19800 Y1.53626
X2.19700 Y1.53626
X2.19700 Y1.53926
X2.19600 Y1.53926
X2.19600 Y1.54326
X2.19500 Y1.54326
X2.19500 Y1.54426
X2.19400 Y1.54426
X2.19400 Y1.54526
X2.19300 Y1.54526
X2.19300 Y1.54626
X2.19200 Y1.54626
X2.19200 Y1.54726
X2.19100 Y1.54726
X2.19100 Y1.54826
X2.19000 Y1.54826
X2.19000 Y1.54926
X2.18900 Y1.54926
X2.18900 Y1.55026
X2.18800 Y1.55026
X2.18800 Y1.55126
X2.18400 Y1.55126
X2.18400 Y1.55226
X2.18100 Y1.55226
X2.18100 Y1.55326
X2.17400 Y1.55326
X2.17400 Y1.55226
X2.17100 Y1.55226
X2.17100 Y1.55126
X2.16700 Y1.55126
X2.16700 Y1.55026
X2.16600 Y1.55026
X2.16600 Y1.54926
X2.16500 Y1.54926
X2.16500 Y1.54826
X2.16400 Y1.54826
X2.16400 Y1.54726
X2.16300 Y1.54726
X2.16300 Y1.54626
X2.16200 Y1.54626
X2.16200 Y1.54526
X2.16100 Y1.54526
X2.16100 Y1.54426
X2.16000 Y1.54426
X2.16000 Y1.54226
X2.15900 Y1.54226
X2.15900 Y1.53926
X2.15800 Y1.53926
X2.15800 Y1.53526
X2.15700 Y1.53526
X2.15700 Y1.53126
X2.15800 Y1.53126
X2.15800 Y1.52026
X2.15900 Y1.52026
X2.15900 Y1.51726
X2.16000 Y1.51726
X2.16000 Y1.51526
X2.15800 Y1.51526
X2.15800 Y1.51426
X2.15500 Y1.51426
X2.15500 Y1.51326
X2.15200 Y1.51326
X2.15200 Y1.51226
X2.14800 Y1.51226
X2.14800 Y1.51126
X2.14700 Y1.51126
X2.14700 Y1.51026
X2.14600 Y1.51026
X2.14600 Y1.50926
X2.14500 Y1.50926
X2.14500 Y1.50826
X2.14400 Y1.50826
X2.14400 Y1.50726
X2.14300 Y1.50726
X2.14300 Y1.50626
X2.14200 Y1.50626
X2.14200 Y1.50526
X2.14100 Y1.50526
X2.14100 Y1.50426
X2.14000 Y1.50426
X2.14000 Y1.50026
X2.13900 Y1.50026
X2.13900 Y1.49726
X2.13800 Y1.49726
X2.13800 Y1.49026
X2.13900 Y1.49026
X2.13900 Y1.48726
X2.14000 Y1.48726
X2.14000 Y1.48326
X2.14100 Y1.48326
X2.14100 Y1.48226
X2.14200 Y1.48226
X2.14200 Y1.48126
X2.14300 Y1.48126
X2.14300 Y1.48026
X2.14400 Y1.48026
X2.14400 Y1.47926
X2.14500 Y1.47926
X2.14500 Y1.47826
X2.14600 Y1.47826
X2.14600 Y1.47726
X2.14700 Y1.47726
X2.14700 Y1.47626
X2.14800 Y1.47626
X2.14800 Y1.47526
X2.15200 Y1.47526
X2.15200 Y1.47426
X2.15500 Y1.47426
X2.15500 Y1.47326
X2.24800 Y1.47326
X2.24800 Y1.47226
X2.25000 Y1.47226
X2.25000 Y1.47026
X2.25100 Y1.47026
X2.25100 Y1.45826
X2.25200 Y1.45826
X2.25200 Y1.45426
X2.38700 Y1.45426
X2.38700 Y1.41426
X2.25200 Y1.41426
X2.25200 Y1.41126
X2.25100 Y1.41126
X2.25100 Y1.39926
X2.25000 Y1.39926
X2.25000 Y1.39726
X2.24800 Y1.39726
X2.24800 Y1.39626
X2.17400 Y1.39626
X2.17400 Y1.39526
X2.17100 Y1.39526
X2.17100 Y1.39426
X2.16700 Y1.39426
X2.16700 Y1.39326
X2.16600 Y1.39326
X2.16600 Y1.39226
X2.16500 Y1.39226
X2.16500 Y1.39126
X2.16400 Y1.39126
X2.16400 Y1.39026
X2.16300 Y1.39026
X2.16300 Y1.38926
X2.16200 Y1.38926
X2.16200 Y1.38826
X2.16100 Y1.38826
X2.16100 Y1.38726
X2.16000 Y1.38726
X2.16000 Y1.38626
X2.15900 Y1.38626
X2.15900 Y1.38226
X2.15800 Y1.38226
X2.15800 Y1.37726
X2.15700 Y1.37726
X2.15700 Y1.37426
X2.15800 Y1.37426
X2.15800 Y1.36926
X2.15900 Y1.36926
X2.15900 Y1.36626
X2.16000 Y1.36626
X2.16000 Y1.36426
X2.16100 Y1.36426
X2.16100 Y1.36326
X2.16200 Y1.36326
X2.16200 Y1.36226
X2.16300 Y1.36226
X2.16300 Y1.36126
X2.16400 Y1.36126
X2.16400 Y1.36026
X2.16500 Y1.36026
X2.16500 Y1.35926
X2.16600 Y1.35926
X2.16600 Y1.35826
X2.16700 Y1.35826
X2.16700 Y1.35726
X2.17100 Y1.35726
X2.17100 Y1.35626
X2.17400 Y1.35626
X2.17400 Y1.35526
X2.18100 Y1.35526
X2.18100 Y1.35626
X2.18400 Y1.35626
X2.18400 Y1.35726
X2.18800 Y1.35726
X2.18800 Y1.35826
X2.18900 Y1.35826
X2.18900 Y1.35926
X2.19000 Y1.35926
X2.19000 Y1.36026
X2.19100 Y1.36026
X2.19100 Y1.36126
X2.19200 Y1.36126
X2.19200 Y1.36226
X2.19300 Y1.36226
X2.19300 Y1.36326
X2.19400 Y1.36326
X2.19400 Y1.36426
X2.19500 Y1.36426
X2.19500 Y1.36526
X2.19600 Y1.36526
X2.19600 Y1.36926
X2.19700 Y1.36926
X2.19700 Y1.37126
X2.19800 Y1.37126
X2.19800 Y1.37426
X2.19900 Y1.37426
X2.19900 Y1.37526
X2.24800 Y1.37526
X2.24800 Y1.37426
X2.25000 Y1.37426
X2.25000 Y1.37226
X2.25100 Y1.37226
X2.25100 Y1.30026
X2.25000 Y1.30026
X2.25000 Y1.29826
X2.24800 Y1.29826
X2.24800 Y1.29726
X2.19500 Y1.29726
X2.19500 Y1.29826
X2.19200 Y1.29826
X2.19200 Y1.29926
X2.19000 Y1.29926
X2.19000 Y1.30026
X2.18800 Y1.30026
X2.18800 Y1.30126
X2.18700 Y1.30126
X2.18700 Y1.30226
X2.18600 Y1.30226
X2.18600 Y1.30326
X2.18500 Y1.30326
X2.18500 Y1.30426
X2.18400 Y1.30426
X2.18400 Y1.30526
X2.18300 Y1.30526
X2.18300 Y1.30626
X2.18200 Y1.30626
X2.18200 Y1.30726
X2.18100 Y1.30726
X2.18100 Y1.30826
X2.18000 Y1.30826
X2.18000 Y1.30926
X2.17900 Y1.30926
X2.17900 Y1.31026
X2.17800 Y1.31026
X2.17800 Y1.31126
X2.17700 Y1.31126
X2.17700 Y1.31226
X2.17600 Y1.31226
X2.17600 Y1.31326
X2.17500 Y1.31326
X2.17500 Y1.31426
X2.17400 Y1.31426
X2.17400 Y1.31526
X2.17300 Y1.31526
X2.17300 Y1.31626
X2.17200 Y1.31626
X2.17200 Y1.31726
X2.17100 Y1.31726
X2.17100 Y1.31826
X2.17000 Y1.31826
X2.17000 Y1.31926
X2.16900 Y1.31926
X2.16900 Y1.32026
X2.16800 Y1.32026
X2.16800 Y1.32126
X2.16700 Y1.32126
X2.16700 Y1.32226
X2.16600 Y1.32226
X2.16600 Y1.32326
X2.16500 Y1.32326
X2.16500 Y1.32426
X2.16400 Y1.32426
X2.16400 Y1.32526
X2.16300 Y1.32526
X2.16300 Y1.32626
X2.16200 Y1.32626
X2.16200 Y1.32726
X2.16100 Y1.32726
X2.16100 Y1.32826
X2.16000 Y1.32826
X2.16000 Y1.32926
X2.15900 Y1.32926
X2.15900 Y1.33026
X2.15800 Y1.33026
X2.15800 Y1.33126
X2.15700 Y1.33126
X2.15700 Y1.33226
X2.15600 Y1.33226
X2.15600 Y1.33326
X2.15500 Y1.33326
X2.15500 Y1.33426
X2.15400 Y1.33426
X2.15400 Y1.33526
X2.15300 Y1.33526
X2.15300 Y1.33626
X2.15200 Y1.33626
X2.15200 Y1.33726
X2.15100 Y1.33726
X2.15100 Y1.33826
X2.15000 Y1.33826
X2.15000 Y1.33926
X2.14900 Y1.33926
X2.14900 Y1.34026
X2.14800 Y1.34026
X2.14800 Y1.34126
X2.14700 Y1.34126
X2.14700 Y1.34226
X2.14600 Y1.34226
X2.14600 Y1.34326
X2.14500 Y1.34326
X2.14500 Y1.34426
X2.14400 Y1.34426
X2.14400 Y1.34526
X2.14300 Y1.34526
X2.14300 Y1.34626
X2.14200 Y1.34626
X2.14200 Y1.34726
X2.14100 Y1.34726
X2.14100 Y1.34826
X2.14000 Y1.34826
X2.14000 Y1.34926
X2.13900 Y1.34926
X2.13900 Y1.35026
X2.13800 Y1.35026
X2.13800 Y1.35126
X2.13700 Y1.35126
X2.13700 Y1.35226
X2.13600 Y1.35226
X2.13600 Y1.35326
X2.13500 Y1.35326
X2.13500 Y1.35426
X2.13400 Y1.35426
X2.13400 Y1.35526
X2.13300 Y1.35526
X2.13300 Y1.35626
X2.13200 Y1.35626
X2.13200 Y1.35726
X2.13100 Y1.35726
X2.13100 Y1.35826
X2.13000 Y1.35826
X2.13000 Y1.35926
X2.12900 Y1.35926
X2.12900 Y1.36026
X2.12800 Y1.36026
X2.12800 Y1.36126
X2.12700 Y1.36126
X2.12700 Y1.36226
X2.12600 Y1.36226
X2.12600 Y1.36326
X2.12500 Y1.36326
X2.12500 Y1.36426
X2.12400 Y1.36426
X2.12400 Y1.36526
X2.12300 Y1.36526
X2.12300 Y1.36626
X2.12200 Y1.36626
X2.12200 Y1.36726
X2.12100 Y1.36726
X2.12100 Y1.36826
X2.12000 Y1.36826
X2.12000 Y1.36926
X2.11900 Y1.36926
X2.11900 Y1.37026
X2.11800 Y1.37026
X2.11800 Y1.37126
X2.11700 Y1.37126
X2.11700 Y1.37226
X2.11600 Y1.37226
X2.11600 Y1.37326
X2.11500 Y1.37326
X2.11500 Y1.37526
X2.11400 Y1.37526
X2.11400 Y1.37726
X2.11300 Y1.37726
X2.11300 Y1.56626
X2.11400 Y1.56626
X2.11400 Y1.56826
X2.11500 Y1.56826
X2.11500 Y1.57026
X2.11600 Y1.57026
X2.11600 Y1.57126
X2.11700 Y1.57126
X2.11700 Y1.57226
X2.11800 Y1.57226
X2.11800 Y1.57326
X2.11900 Y1.57326
X2.11900 Y1.57426
X2.12000 Y1.57426
X2.12000 Y1.57526
X2.12100 Y1.57526
X2.12100 Y1.57626
X2.12200 Y1.57626
X2.12200 Y1.57726
X2.12300 Y1.57726
X2.12300 Y1.57826
X2.12400 Y1.57826
X2.12400 Y1.57926
X2.12500 Y1.57926
X2.12500 Y1.58026
X2.12600 Y1.58026
X2.12600 Y1.58126
X2.12700 Y1.58126
X2.12700 Y1.58226
X2.12800 Y1.58226
X2.12800 Y1.58326
X2.12900 Y1.58326
X2.12900 Y1.58426
X2.13000 Y1.58426
X2.13000 Y1.58526
X2.13100 Y1.58526
X2.13100 Y1.58626
X2.13200 Y1.58626
X2.13200 Y1.58726
X2.13300 Y1.58726
X2.13300 Y1.58826
X2.13400 Y1.58826
X2.13400 Y1.58926
X2.13500 Y1.58926
X2.13500 Y1.59026
X2.13600 Y1.59026
X2.13600 Y1.59126
X2.13700 Y1.59126
X2.13700 Y1.59226
X2.13800 Y1.59226
X2.13800 Y1.59326
X2.13900 Y1.59326
X2.13900 Y1.59426
X2.14000 Y1.59426
X2.14000 Y1.59526
X2.14100 Y1.59526
X2.14100 Y1.59626
X2.14200 Y1.59626
X2.14200 Y1.59726
X2.14300 Y1.59726
X2.14300 Y1.59826
X2.14400 Y1.59826
X2.14400 Y1.59926
X2.14500 Y1.59926
X2.14500 Y1.60026
X2.14600 Y1.60026
X2.14600 Y1.60126
X2.14700 Y1.60126
X2.14700 Y1.60226
X2.14800 Y1.60226
X2.14800 Y1.60326
X2.14900 Y1.60326
X2.14900 Y1.60426
X2.15000 Y1.60426
X2.15000 Y1.60526
X2.15100 Y1.60526
X2.15100 Y1.61026
X2.15200 Y1.61026
X2.15200 Y1.71126
X2.15100 Y1.71126
X2.15100 Y1.71726
X2.15000 Y1.71726
X2.15000 Y1.71826
X2.14900 Y1.71826
X2.14900 Y1.71926
X2.14800 Y1.71926
X2.14800 Y1.72026
X2.14700 Y1.72026
X2.14700 Y1.72126
X2.14600 Y1.72126
X2.14600 Y1.72226
X2.14500 Y1.72226
X2.14500 Y1.72326
X2.14400 Y1.72326
X2.14400 Y1.72426
X2.14300 Y1.72426
X2.14300 Y1.72526
X2.14200 Y1.72526
X2.14200 Y1.72626
X2.14100 Y1.72626
X2.14100 Y1.72726
X2.14000 Y1.72726
X2.14000 Y1.72826
X2.13900 Y1.72826
X2.13900 Y1.72926
X2.13800 Y1.72926
X2.13800 Y1.73026
X2.13700 Y1.73026
X2.13700 Y1.73126
X2.13600 Y1.73126
X2.13600 Y1.73226
X2.13500 Y1.73226
X2.13500 Y1.73326
X2.13400 Y1.73326
X2.13400 Y1.73426
X2.13200 Y1.73426
X2.13200 Y1.73526
X2.13100 Y1.73526
X2.13100 Y1.73626
X2.13000 Y1.73626
X2.13000 Y1.73726
X2.12900 Y1.73726
X2.12900 Y1.73826
X2.12800 Y1.73826
X2.12800 Y1.73926
X2.12700 Y1.73926
X2.12700 Y1.74026
X2.12600 Y1.74026
X2.12600 Y1.74126
X2.12500 Y1.74126
X2.12500 Y1.74226
X2.12000 Y1.74226
X2.12000 Y1.74326
X1.97400 Y1.74326
X1.97400 Y1.74426
X1.97100 Y1.74426
X1.97100 Y1.74526
X1.96900 Y1.74526
X1.96900 Y1.74626
X1.96700 Y1.74626
X1.96700 Y1.74726
X1.96600 Y1.74726
X1.96600 Y1.74826
X1.96500 Y1.74826
X1.96500 Y1.74926
X1.96400 Y1.74926
X1.96400 Y1.75026
X1.96300 Y1.75026
X1.96300 Y1.75126
X1.96200 Y1.75126
X1.96200 Y1.75226
X1.96100 Y1.75226
X1.96100 Y1.75326
X1.96000 Y1.75326
X1.96000 Y1.75426
X1.95900 Y1.75426
X1.95900 Y1.75526
X1.95800 Y1.75526
X1.95800 Y1.75626
X1.95700 Y1.75626
X1.95700 Y1.75726
X1.95600 Y1.75726
X1.95600 Y1.75826
X1.95500 Y1.75826
X1.95500 Y1.75926
X1.95400 Y1.75926
X1.95400 Y1.76026
X1.95300 Y1.76026
X1.95300 Y1.76126
X1.95200 Y1.76126
X1.95200 Y1.76226
X1.95100 Y1.76226
X1.95100 Y1.76326
X1.95000 Y1.76326
X1.95000 Y1.76426
X1.94900 Y1.76426
X1.94900 Y1.76526
X1.94800 Y1.76526
X1.94800 Y1.76626
X1.94700 Y1.76626
X1.94700 Y1.76726
X1.94600 Y1.76726
X1.94600 Y1.76826
X1.94500 Y1.76826
X1.94500 Y1.76926
X1.94400 Y1.76926
X1.94400 Y1.77026
X1.94300 Y1.77026
X1.94300 Y1.77126
X1.94200 Y1.77126
X1.94200 Y1.77226
X1.94100 Y1.77226
X1.94100 Y1.77326
X1.94000 Y1.77326
X1.94000 Y1.77426
X1.93900 Y1.77426
X1.93900 Y1.77526
X1.93800 Y1.77526
X1.93800 Y1.77626
X1.93700 Y1.77626
X1.93700 Y1.77726
X1.93600 Y1.77726
X1.93600 Y1.77826
X1.93500 Y1.77826
X1.93500 Y1.77926
X1.93400 Y1.77926
X1.93400 Y1.78026
X1.93300 Y1.78026
X1.93300 Y1.78126
X1.93200 Y1.78126
X1.93200 Y1.78226
X1.93100 Y1.78226
X1.93100 Y1.78326
X1.93000 Y1.78326
X1.93000 Y1.78426
X1.92900 Y1.78426
X1.92900 Y1.78526
X1.92800 Y1.78526
X1.92800 Y1.78626
X1.92700 Y1.78626
X1.92700 Y1.78726
X1.92600 Y1.78726
X1.92600 Y1.78826
X1.92500 Y1.78826
X1.92500 Y1.78926
X1.92400 Y1.78926
X1.92400 Y1.79026
X1.92300 Y1.79026
X1.92300 Y1.79126
X1.92200 Y1.79126
X1.92200 Y1.79226
X1.92100 Y1.79226
X1.92100 Y1.79326
X1.92000 Y1.79326
X1.92000 Y1.79426
X1.91900 Y1.79426
X1.91900 Y1.79526
X1.91800 Y1.79526
X1.91800 Y1.79626
X1.91700 Y1.79626
X1.91700 Y1.79726
X1.91600 Y1.79726
X1.91600 Y1.79826
X1.91500 Y1.79826
X1.91500 Y1.79926
X1.91400 Y1.79926
X1.91400 Y1.80026
X1.91300 Y1.80026
X1.91300 Y1.80126
X1.91200 Y1.80126
X1.91200 Y1.80226
X1.91100 Y1.80226
X1.91100 Y1.80326
X1.91000 Y1.80326
X1.91000 Y1.80426
X1.90600 Y1.80426
X1.90600 Y1.80526
X1.90100 Y1.80526
X1.90100 Y1.80626
X1.89900 Y1.80626
X1.89900 Y1.80926
X1.89800 Y1.80926
X1.89800 Y1.81226
X1.89700 Y1.81226
X1.89700 Y1.81326
X1.89400 Y1.81326
X1.89400 Y1.81426
X1.89100 Y1.81426
X1.89100 Y1.81526
X1.86700 Y1.81526
X1.86700 Y1.81426
X1.86400 Y1.81426
X1.86400 Y1.81326
X1.86100 Y1.81326
X1.86100 Y1.81126
X1.86000 Y1.81126
X1.86000 Y1.80926
X1.85900 Y1.80926
X1.85900 Y1.80826
X1.85800 Y1.80826
X1.85800 Y1.80726
X1.85700 Y1.80726
X1.85700 Y1.80626
X1.85600 Y1.80626
X1.85600 Y1.80526
X1.85500 Y1.80526
X1.85500 Y1.80426
X1.85400 Y1.80426
X1.85400 Y1.78626
X1.85300 Y1.78626
X1.85300 Y1.78326
X1.85200 Y1.78326
X1.85200 Y1.78026
X1.85100 Y1.78026
X1.85100 Y1.77726
X1.85000 Y1.77726
X1.85000 Y1.77426
X1.84900 Y1.77426
X1.84900 Y1.77126
X1.84800 Y1.77126
X1.84800 Y1.76826
X1.84500 Y1.76826
X1.84500 Y1.76726
X1.84200 Y1.76726
X1.84200 Y1.76626
X1.83900 Y1.76626
X1.83900 Y1.76526
X1.83600 Y1.76526
X1.83600 Y1.76426
X1.81400 Y1.76426
X1.81400 Y1.76326
X1.81300 Y1.76326
X1.81300 Y1.76226
X1.81100 Y1.76226
X1.81100 Y1.76126
X1.80800 Y1.76126
X1.80800 Y1.76026
X1.76200 Y1.76026
X1.76200 Y1.75926
X1.75700 Y1.75926
X1.75700 Y1.75826
X1.75600 Y1.75826
X1.75600 Y1.75726
X1.75500 Y1.75726
X1.75500 Y1.75626
X1.75400 Y1.75626
X1.75400 Y1.75526
X1.75300 Y1.75526
X1.75300 Y1.75426
X1.75200 Y1.75426
X1.75200 Y1.75326
X1.75100 Y1.75326
X1.75100 Y1.75226
X1.75000 Y1.75226
X1.75000 Y1.75126
X1.74900 Y1.75126
X1.74900 Y1.75026
X1.74800 Y1.75026
X1.74800 Y1.74926
X1.74700 Y1.74926
X1.74700 Y1.74826
X1.74600 Y1.74826
X1.74600 Y1.74726
X1.74500 Y1.74726
X1.74500 Y1.74626
X1.74400 Y1.74626
X1.74400 Y1.74526
X1.74300 Y1.74526
X1.74300 Y1.74426
X1.74200 Y1.74426
X1.74200 Y1.74326
X1.74100 Y1.74326
X1.74100 Y1.74226
X1.74000 Y1.74226
X1.74000 Y1.74126
X1.73900 Y1.74126
X1.73900 Y1.74026
X1.73800 Y1.74026
X1.73800 Y1.73926
X1.73700 Y1.73926
X1.73700 Y1.73826
X1.73600 Y1.73826
X1.73600 Y1.73726
X1.73500 Y1.73726
X1.73500 Y1.73626
X1.73400 Y1.73626
X1.73400 Y1.73526
X1.73300 Y1.73526
X1.73300 Y1.73426
X1.73200 Y1.73426
X1.73200 Y1.73326
X1.73100 Y1.73326
X1.73100 Y1.72826
X1.73000 Y1.72826
X1.73000 Y1.72126
X1.72900 Y1.72126
X1.72900 Y1.71926
X1.72700 Y1.71926
X1.72700 Y1.71826
X1.68400 Y1.71826
X1.68400 Y1.71726
X1.67900 Y1.71726
X1.67900 Y1.65426
X1.68400 Y1.65426
X1.68400 Y1.65326
X1.70500 Y1.65326
X1.70500 Y1.65226
X1.70600 Y1.65226
X1.70600 Y1.65026
X1.70700 Y1.65026
X1.70700 Y1.63126
X1.70600 Y1.63126
X1.70600 Y1.62826
X1.70500 Y1.62826
X1.70500 Y1.62626
X1.70400 Y1.62626
X1.70400 Y1.62426
X1.70300 Y1.62426
X1.70300 Y1.62326
X1.70200 Y1.62326
X1.70200 Y1.62226
X1.70100 Y1.62226
X1.70100 Y1.62126
X1.70000 Y1.62126
X1.70000 Y1.62026
X1.69900 Y1.62026
X1.69900 Y1.61926
X1.69800 Y1.61926
X1.69800 Y1.61826
X1.69700 Y1.61826
X1.69700 Y1.61726
X1.69600 Y1.61726
X1.69600 Y1.61626
X1.69500 Y1.61626
X1.69500 Y1.61526
X1.69400 Y1.61526
X1.69400 Y1.61426
X1.69300 Y1.61426
X1.69300 Y1.61326
X1.69200 Y1.61326
X1.69200 Y1.61226
X1.69100 Y1.61226
X1.69100 Y1.61126
X1.69000 Y1.61126
X1.69000 Y1.61026
X1.68900 Y1.61026
X1.68900 Y1.60926
X1.68800 Y1.60926
X1.68800 Y1.60826
X1.68700 Y1.60826
X1.68700 Y1.60726
X1.68600 Y1.60726
X1.68600 Y1.60626
X1.68500 Y1.60626
X1.68500 Y1.60526
X1.68300 Y1.60526
X1.68300 Y1.60426
X1.68100 Y1.60426
X1.68100 Y1.60326
X1.67800 Y1.60326
X1.67800 Y1.60226
X1.66600 Y1.60226
X1.66600 Y1.60326
X1.66400 Y1.60326
X1.66400 Y1.60426
X1.66300 Y1.60426
X1.66300 Y1.60526
X1.66100 Y1.60526
X1.66100 Y1.60626
X1.66000 Y1.60626
X1.66000 Y1.60726
X1.65900 Y1.60726
X1.65900 Y1.60826
X1.65800 Y1.60826
X1.65800 Y1.60926
X1.65700 Y1.60926
X1.65700 Y1.61026
X1.65300 Y1.61026
X1.65300 Y1.61126
X1.65000 Y1.61126
X1.65000 Y1.61226
X1.64300 Y1.61226
X1.64300 Y1.61126
X1.64000 Y1.61126
X1.64000 Y1.61026
X1.63600 Y1.61026
X1.63600 Y1.60926
X1.63500 Y1.60926
X1.63500 Y1.60826
X1.63400 Y1.60826
X1.63400 Y1.60726
X1.63300 Y1.60726
X1.63300 Y1.60626
X1.63200 Y1.60626
X1.63200 Y1.60526
X1.63100 Y1.60526
X1.63100 Y1.60426
X1.63000 Y1.60426
X1.63000 Y1.60326
X1.62900 Y1.60326
X1.62900 Y1.60226
X1.62800 Y1.60226
X1.62800 Y1.59826
X1.62700 Y1.59826
X1.62700 Y1.59526
X1.62600 Y1.59526
X1.62600 Y1.58926
X1.62500 Y1.58926
X1.62500 Y1.58626
X1.62400 Y1.58626
X1.62400 Y1.58526
X1.62300 Y1.58526
X1.62300 Y1.58326
X1.62200 Y1.58326
X1.62200 Y1.58226
X1.62100 Y1.58226
X1.62100 Y1.58126
X1.62000 Y1.58126
X1.62000 Y1.58026
X1.61900 Y1.58026
X1.61900 Y1.57926
X1.61800 Y1.57926
X1.61800 Y1.57826
X1.61700 Y1.57826
X1.61700 Y1.57726
X1.61600 Y1.57726
X1.61600 Y1.57626
X1.61500 Y1.57626
X1.61500 Y1.57526
X1.61400 Y1.57526
X1.61400 Y1.57426
X1.61300 Y1.57426
X1.61300 Y1.57326
X1.61200 Y1.57326
X1.61200 Y1.57226
X1.61100 Y1.57226
X1.61100 Y1.57126
X1.61000 Y1.57126
X1.61000 Y1.57026
X1.60900 Y1.57026
X1.60900 Y1.56926
X1.60800 Y1.56926
X1.60800 Y1.56826
X1.60700 Y1.56826
X1.60700 Y1.56726
X1.60600 Y1.56726
X1.60600 Y1.56626
X1.60400 Y1.56626
X1.60400 Y1.56526
X1.60300 Y1.56526
X1.60300 Y1.56426
X1.59900 Y1.56426
X1.59900 Y1.56326
X1.49600 Y1.56326
X1.49600 Y1.56426
X1.49300 Y1.56426
X1.49300 Y1.56526
X1.49100 Y1.56526
X1.49100 Y1.56626
X1.48900 Y1.56626
X1.48900 Y1.56726
X1.48800 Y1.56726
X1.48800 Y1.56826
X1.48700 Y1.56826
X1.48700 Y1.56926
X1.48600 Y1.56926
X1.48600 Y1.57026
X1.48500 Y1.57026
X1.48500 Y1.57126
X1.48400 Y1.57126
X1.48400 Y1.57226
X1.48300 Y1.57226
X1.48300 Y1.57326
X1.48200 Y1.57326
X1.48200 Y1.57426
X1.48100 Y1.57426
X1.48100 Y1.57526
X1.48000 Y1.57526
X1.48000 Y1.57626
X1.47900 Y1.57626
X1.47900 Y1.57726
X1.47800 Y1.57726
X1.47800 Y1.57826
X1.47700 Y1.57826
X1.47700 Y1.57926
X1.47600 Y1.57926
X1.47600 Y1.58026
X1.47500 Y1.58026
X1.47500 Y1.58126
X1.47400 Y1.58126
X1.47400 Y1.58226
X1.47300 Y1.58226
X1.47300 Y1.58326
X1.47200 Y1.58326
X1.47200 Y1.58426
X1.47100 Y1.58426
X1.47100 Y1.58526
X1.47000 Y1.58526
X1.47000 Y1.58626
X1.46900 Y1.58626
X1.46900 Y1.58726
X1.46800 Y1.58726
X1.46800 Y1.58826
X1.46700 Y1.58826
X1.46700 Y1.58926
X1.46600 Y1.58926
X1.46600 Y1.59026
X1.46500 Y1.59026
X1.46500 Y1.59126
X1.46400 Y1.59126
X1.46400 Y1.59226
X1.46300 Y1.59226
X1.46300 Y1.59326
X1.46200 Y1.59326
X1.46200 Y1.59426
X1.46100 Y1.59426
X1.46100 Y1.59526
X1.46000 Y1.59526
X1.46000 Y1.59626
X1.45900 Y1.59626
X1.45900 Y1.59726
X1.45800 Y1.59726
X1.45800 Y1.59826
X1.45700 Y1.59826
X1.45700 Y1.59926
X1.45600 Y1.59926
X1.45600 Y1.60026
X1.45500 Y1.60026
X1.45500 Y1.60126
X1.45400 Y1.60126
X1.45400 Y1.60226
X1.45300 Y1.60226
X1.45300 Y1.60326
X1.45200 Y1.60326
X1.45200 Y1.60426
X1.45100 Y1.60426
X1.45100 Y1.60526
X1.45000 Y1.60526
X1.45000 Y1.60626
X1.44900 Y1.60626
X1.44900 Y1.60726
X1.44800 Y1.60726
X1.44800 Y1.60826
X1.44700 Y1.60826
X1.44700 Y1.60926
X1.44600 Y1.60926
X1.44600 Y1.61026
X1.44500 Y1.61026
X1.44500 Y1.61126
X1.44400 Y1.61126
X1.44400 Y1.61226
X1.44300 Y1.61226
X1.44300 Y1.61326
X1.44200 Y1.61326
X1.44200 Y1.61426
X1.44100 Y1.61426
X1.44100 Y1.61526
X1.44000 Y1.61526
X1.44000 Y1.61626
X1.43900 Y1.61626
X1.43900 Y1.61726
X1.43800 Y1.61726
X1.43800 Y1.61826
X1.43700 Y1.61826
X1.43700 Y1.61926
X1.43600 Y1.61926
X1.43600 Y1.62026
X1.43500 Y1.62026
X1.43500 Y1.62126
X1.43400 Y1.62126
X1.43400 Y1.62226
X1.43300 Y1.62226
X1.43300 Y1.62326
X1.43200 Y1.62326
X1.43200 Y1.62426
X1.43100 Y1.62426
X1.43100 Y1.62526
X1.43000 Y1.62526
X1.43000 Y1.62626
X1.42900 Y1.62626
X1.42900 Y1.62726
X1.42800 Y1.62726
X1.42800 Y1.62826
X1.42700 Y1.62826
X1.42700 Y1.62926
X1.42400 Y1.62926
X1.42400 Y1.63026
X1.37700 Y1.63026
X1.37700 Y1.63126
X1.37600 Y1.63126
X1.37600 Y1.63226
X1.37500 Y1.63226
X1.37500 Y1.63526
X1.37400 Y1.63526
X1.37400 Y1.63726
X1.37300 Y1.63726
X1.37300 Y1.63826
X1.37200 Y1.63826
X1.37200 Y1.63926
X1.37100 Y1.63926
X1.37100 Y1.64026
X1.37000 Y1.64026
X1.37000 Y1.64126
X1.36900 Y1.64126
X1.36900 Y1.64226
X1.36800 Y1.64226
X1.36800 Y1.64326
X1.36700 Y1.64326
X1.36700 Y1.64426
X1.36600 Y1.64426
X1.36600 Y1.64526
X1.36500 Y1.64526
X1.36500 Y1.64626
X1.36400 Y1.64626
X1.36400 Y1.64726
X1.36300 Y1.64726
X1.36300 Y1.64826
X1.36200 Y1.64826
X1.36200 Y1.64926
X1.36100 Y1.64926
X1.36100 Y1.65026
X1.35900 Y1.65026
X1.35900 Y1.65126
X1.35600 Y1.65126
X1.35600 Y1.65226
X1.35200 Y1.65226
X1.35200 Y1.65326
X1.34900 Y1.65326
X1.34900 Y1.65426
X1.27700 Y1.65426
X1.27700 Y1.65326
X1.27500 Y1.65326
X1.27500 Y1.65226
X1.27100 Y1.65226
X1.27100 Y1.65126
X1.26800 Y1.65126
X1.26800 Y1.65026
X1.26600 Y1.65026
X1.26600 Y1.64926
X1.26400 Y1.64926
X1.26400 Y1.64826
X1.26300 Y1.64826
X1.26300 Y1.64726
X1.26200 Y1.64726
X1.26200 Y1.64626
X1.26100 Y1.64626
X1.26100 Y1.64526
X1.26000 Y1.64526
X1.26000 Y1.64426
X1.25900 Y1.64426
X1.25900 Y1.64326
X1.25800 Y1.64326
X1.25800 Y1.64226
X1.25700 Y1.64226
X1.25700 Y1.64126
X1.25600 Y1.64126
X1.25600 Y1.64026
X1.25500 Y1.64026
X1.25500 Y1.63926
X1.25400 Y1.63926
X1.25400 Y1.63726
X1.25300 Y1.63726
X1.25300 Y1.63526
X1.25200 Y1.63526
X1.25200 Y1.63226
X1.25100 Y1.63226
X1.25100 Y1.62826
X1.25000 Y1.62826
X1.25000 Y1.62626
X1.24900 Y1.62626
X1.24900 Y1.61326
X1.25000 Y1.61326
X1.25000 Y1.61026
X1.25100 Y1.61026
X1.25100 Y1.60626
X1.25200 Y1.60626
X1.25200 Y1.60326
X1.25300 Y1.60326
X1.25300 Y1.60126
X1.25400 Y1.60126
X1.25400 Y1.60026
X1.25500 Y1.60026
X1.25500 Y1.59926
X1.25600 Y1.59926
X1.25600 Y1.59826
X1.25700 Y1.59826
X1.25700 Y1.59726
X1.25800 Y1.59726
X1.25800 Y1.59626
X1.25900 Y1.59626
X1.25900 Y1.59526
X1.26000 Y1.59526
X1.26000 Y1.59426
X1.26100 Y1.59426
X1.26100 Y1.59326
X1.26200 Y1.59326
X1.26200 Y1.59226
X1.26300 Y1.59226
X1.26300 Y1.59126
X1.26400 Y1.59126
X1.26400 Y1.59026
X1.26500 Y1.59026
X1.26500 Y1.58926
X1.26700 Y1.58926
X1.26700 Y1.58826
X1.26900 Y1.58826
X1.26900 Y1.58726
X1.27100 Y1.58726
X1.27100 Y1.58626
X1.27500 Y1.58626
X1.27500 Y1.58526
X1.28000 Y1.58526
X1.28000 Y1.58426
X1.34600 Y1.58426
X1.34600 Y1.58526
X1.35200 Y1.58526
X1.35200 Y1.58626
X1.35500 Y1.58626
X1.35500 Y1.58726
X1.35700 Y1.58726
X1.35700 Y1.58826
X1.35900 Y1.58826
X1.35900 Y1.58926
X1.36100 Y1.58926
X1.36100 Y1.59026
X1.36200 Y1.59026
X1.36200 Y1.59126
X1.36400 Y1.59126
X1.36400 Y1.59226
X1.36500 Y1.59226
X1.36500 Y1.59326
X1.36600 Y1.59326
X1.36600 Y1.59426
X1.36700 Y1.59426
X1.36700 Y1.59526
X1.36800 Y1.59526
X1.36800 Y1.59626
X1.36900 Y1.59626
X1.36900 Y1.59726
X1.37000 Y1.59726
X1.37000 Y1.59926
X1.37100 Y1.59926
X1.37100 Y1.60026
X1.37200 Y1.60026
X1.37200 Y1.60126
X1.37300 Y1.60126
X1.37300 Y1.60226
X1.37400 Y1.60226
X1.37400 Y1.60426
X1.37500 Y1.60426
X1.37500 Y1.60626
X1.37600 Y1.60626
X1.37600 Y1.60826
X1.37700 Y1.60826
X1.37700 Y1.60926
X1.41400 Y1.60926
X1.41400 Y1.60826
X1.41700 Y1.60826
X1.41700 Y1.60726
X1.41900 Y1.60726
X1.41900 Y1.60626
X1.42100 Y1.60626
X1.42100 Y1.60526
X1.42200 Y1.60526
X1.42200 Y1.60426
X1.42300 Y1.60426
X1.42300 Y1.60326
X1.42400 Y1.60326
X1.42400 Y1.60226
X1.42500 Y1.60226
X1.42500 Y1.60126
X1.42600 Y1.60126
X1.42600 Y1.60026
X1.42700 Y1.60026
X1.42700 Y1.59926
X1.42800 Y1.59926
X1.42800 Y1.59826
X1.42900 Y1.59826
X1.42900 Y1.59726
X1.43000 Y1.59726
X1.43000 Y1.59626
X1.43100 Y1.59626
X1.43100 Y1.59526
X1.43200 Y1.59526
X1.43200 Y1.59426
X1.43300 Y1.59426
X1.43300 Y1.59326
X1.43400 Y1.59326
X1.43400 Y1.59226
X1.43500 Y1.59226
X1.43500 Y1.59126
X1.43600 Y1.59126
X1.43600 Y1.59026
X1.43700 Y1.59026
X1.43700 Y1.58926
X1.43800 Y1.58926
X1.43800 Y1.58826
X1.43900 Y1.58826
X1.43900 Y1.58726
X1.44000 Y1.58726
X1.44000 Y1.58626
X1.44100 Y1.58626
X1.44100 Y1.58526
X1.44200 Y1.58526
X1.44200 Y1.58426
X1.44300 Y1.58426
X1.44300 Y1.58326
X1.44400 Y1.58326
X1.44400 Y1.58226
X1.44500 Y1.58226
X1.44500 Y1.58126
X1.44600 Y1.58126
X1.44600 Y1.58026
X1.44700 Y1.58026
X1.44700 Y1.57926
X1.44800 Y1.57926
X1.44800 Y1.57826
X1.44900 Y1.57826
X1.44900 Y1.57726
X1.45000 Y1.57726
X1.45000 Y1.57626
X1.45100 Y1.57626
X1.45100 Y1.57526
X1.45200 Y1.57526
X1.45200 Y1.57426
X1.45300 Y1.57426
X1.45300 Y1.57326
X1.45400 Y1.57326
X1.45400 Y1.57226
X1.45500 Y1.57226
X1.45500 Y1.57126
X1.45600 Y1.57126
X1.45600 Y1.57026
X1.45700 Y1.57026
X1.45700 Y1.56926
X1.45800 Y1.56926
X1.45800 Y1.56826
X1.45900 Y1.56826
X1.45900 Y1.56726
X1.46000 Y1.56726
X1.46000 Y1.56626
X1.46100 Y1.56626
X1.46100 Y1.56526
X1.46200 Y1.56526
X1.46200 Y1.56426
X1.46300 Y1.56426
X1.46300 Y1.56326
X1.46400 Y1.56326
X1.46400 Y1.56226
X1.46500 Y1.56226
X1.46500 Y1.56126
X1.46600 Y1.56126
X1.46600 Y1.56026
X1.46700 Y1.56026
X1.46700 Y1.55926
X1.46800 Y1.55926
X1.46800 Y1.55826
X1.46900 Y1.55826
X1.46900 Y1.55726
X1.47000 Y1.55726
X1.47000 Y1.55626
X1.47100 Y1.55626
X1.47100 Y1.55526
X1.47200 Y1.55526
X1.47200 Y1.55426
X1.47300 Y1.55426
X1.47300 Y1.55326
X1.47400 Y1.55326
X1.47400 Y1.55226
X1.47500 Y1.55226
X1.47500 Y1.55126
X1.47600 Y1.55126
X1.47600 Y1.54826
X1.47700 Y1.54826
X1.47700 Y1.54526
X1.47800 Y1.54526
X1.47800 Y1.54226
X1.47900 Y1.54226
X1.47900 Y1.54026
X1.48000 Y1.54026
X1.48000 Y1.53926
X1.48100 Y1.53926
X1.48100 Y1.53626
X1.48000 Y1.53626
X1.48000 Y1.53526
X1.47800 Y1.53526
X1.47800 Y1.53426
X1.47500 Y1.53426
X1.47500 Y1.53326
X1.37600 Y1.53326
X1.37600 Y1.53426
X1.37500 Y1.53426
X1.37500 Y1.53526
X1.37400 Y1.53526
X1.37400 Y1.53726
X1.37300 Y1.53726
X1.37300 Y1.53826
X1.37200 Y1.53826
X1.37200 Y1.53926
X1.37100 Y1.53926
X1.37100 Y1.54026
X1.37000 Y1.54026
X1.37000 Y1.54126
X1.36900 Y1.54126
X1.36900 Y1.54226
X1.36800 Y1.54226
X1.36800 Y1.54326
X1.36700 Y1.54326
X1.36700 Y1.54426
X1.36600 Y1.54426
X1.36600 Y1.54526
X1.36500 Y1.54526
X1.36500 Y1.54626
X1.36400 Y1.54626
X1.36400 Y1.54726
X1.36300 Y1.54726
X1.36300 Y1.54826
X1.36200 Y1.54826
X1.36200 Y1.54926
X1.36100 Y1.54926
X1.36100 Y1.55026
X1.35900 Y1.55026
X1.35900 Y1.55126
X1.35600 Y1.55126
X1.35600 Y1.55226
X1.35200 Y1.55226
X1.35200 Y1.55326
X1.34900 Y1.55326
X1.34900 Y1.55426
X1.27700 Y1.55426
X1.27700 Y1.55326
X1.27500 Y1.55326
X1.27500 Y1.55226
X1.27100 Y1.55226
X1.27100 Y1.55126
X1.26800 Y1.55126
X1.26800 Y1.55026
X1.26600 Y1.55026
X1.26600 Y1.54926
X1.26400 Y1.54926
X1.26400 Y1.54826
X1.26300 Y1.54826
X1.26300 Y1.54726
X1.26200 Y1.54726
X1.26200 Y1.54626
X1.26100 Y1.54626
X1.26100 Y1.54526
X1.26000 Y1.54526
X1.26000 Y1.54426
X1.25900 Y1.54426
X1.25900 Y1.54326
X1.25800 Y1.54326
X1.25800 Y1.54226
X1.25700 Y1.54226
X1.25700 Y1.54126
X1.25600 Y1.54126
X1.25600 Y1.54026
X1.25500 Y1.54026
X1.25500 Y1.53926
X1.25400 Y1.53926
X1.25400 Y1.53726
X1.25300 Y1.53726
X1.25300 Y1.53526
X1.25200 Y1.53526
X1.25200 Y1.53226
X1.25100 Y1.53226
X1.25100 Y1.52826
X1.25000 Y1.52826
X1.25000 Y1.52626
X1.24900 Y1.52626
X1.24900 Y1.51326
X1.25000 Y1.51326
X1.25000 Y1.51026
X1.25100 Y1.51026
X1.25100 Y1.50626
X1.25200 Y1.50626
X1.25200 Y1.50326
X1.25300 Y1.50326
X1.25300 Y1.50126
X1.25400 Y1.50126
X1.25400 Y1.50026
X1.25500 Y1.50026
X1.25500 Y1.49926
X1.25600 Y1.49926
X1.25600 Y1.49826
X1.25700 Y1.49826
X1.25700 Y1.49726
X1.25800 Y1.49726
X1.25800 Y1.49626
X1.25900 Y1.49626
X1.25900 Y1.49526
X1.26000 Y1.49526
X1.26000 Y1.49426
X1.26100 Y1.49426
X1.26100 Y1.49326
X1.26200 Y1.49326
X1.26200 Y1.49226
X1.26300 Y1.49226
X1.26300 Y1.49126
X1.26400 Y1.49126
X1.26400 Y1.49026
X1.26500 Y1.49026
X1.26500 Y1.48926
X1.26700 Y1.48926
X1.26700 Y1.48826
X1.26900 Y1.48826
X1.26900 Y1.48726
X1.27100 Y1.48726
X1.27100 Y1.48626
X1.27500 Y1.48626
X1.27500 Y1.48526
X1.28000 Y1.48526
X1.28000 Y1.48426
X1.34600 Y1.48426
X1.34600 Y1.48526
X1.35200 Y1.48526
X1.35200 Y1.48626
X1.35500 Y1.48626
X1.35500 Y1.48726
X1.35700 Y1.48726
X1.35700 Y1.48826
X1.35900 Y1.48826
X1.35900 Y1.48926
X1.36100 Y1.48926
X1.36100 Y1.49026
X1.36200 Y1.49026
X1.36200 Y1.49126
X1.36400 Y1.49126
X1.36400 Y1.49226
X1.36500 Y1.49226
X1.36500 Y1.49326
X1.36600 Y1.49326
X1.36600 Y1.49426
X1.36700 Y1.49426
X1.36700 Y1.49526
X1.36800 Y1.49526
X1.36800 Y1.49626
X1.36900 Y1.49626
X1.36900 Y1.49726
X1.37000 Y1.49726
X1.37000 Y1.49926
X1.37100 Y1.49926
X1.37100 Y1.50026
X1.37200 Y1.50026
X1.37200 Y1.50126
X1.37300 Y1.50126
X1.37300 Y1.50226
X1.37400 Y1.50226
X1.37400 Y1.50326
X1.37500 Y1.50326
X1.37500 Y1.50526
X1.37700 Y1.50526
X1.37700 Y1.50626
X1.57500 Y1.50626
X1.57500 Y1.50526
X1.57800 Y1.50526
X1.57800 Y1.50426
X1.58000 Y1.50426
X1.58000 Y1.50326
X1.58200 Y1.50326
X1.58200 Y1.50226
X1.58300 Y1.50226
X1.58300 Y1.50126
X1.58400 Y1.50126
X1.58400 Y1.50026
X1.58500 Y1.50026
X1.58500 Y1.49926
X1.58600 Y1.49926
X1.58600 Y1.49826
X1.58700 Y1.49826
X1.58700 Y1.49726
X1.58800 Y1.49726
X1.58800 Y1.49626
X1.58900 Y1.49626
X1.58900 Y1.49526
X1.59000 Y1.49526
X1.59000 Y1.49426
X1.59100 Y1.49426
X1.59100 Y1.49326
X1.59200 Y1.49326
X1.59200 Y1.49226
X1.59300 Y1.49226
X1.59300 Y1.49126
X1.59400 Y1.49126
X1.59400 Y1.49026
X1.59500 Y1.49026
X1.59500 Y1.48926
X1.59600 Y1.48926
X1.59600 Y1.48826
X1.59700 Y1.48826
X1.59700 Y1.48726
X1.59800 Y1.48726
X1.59800 Y1.48626
X1.59900 Y1.48626
X1.59900 Y1.48526
X1.60100 Y1.48526
X1.60100 Y1.48426
X1.60200 Y1.48426
X1.60200 Y1.48226
X1.60300 Y1.48226
X1.60300 Y1.48026
X1.60400 Y1.48026
X1.60400 Y1.47726
X1.60500 Y1.47726
X1.60500 Y1.43426
X1.60400 Y1.43426
X1.60400 Y1.43126
X1.58400 Y1.43126
X1.58400 Y1.43026
X1.57700 Y1.43026
X1.57700 Y1.36626
X1.58100 Y1.36626
X1.58100 Y1.36526
X1.62300 Y1.36526
X1.62300 Y1.36626
X1.62800 Y1.36626
X1.62800 Y1.43026
X1.62700 Y1.43026
X1.62700 Y1.43126
X1.62600 Y1.43126
X1.62600 Y1.47926
X1.62700 Y1.47926
X1.62700 Y1.48226
X1.62800 Y1.48226
X1.62800 Y1.48326
X1.62900 Y1.48326
X1.62900 Y1.48426
X1.63000 Y1.48426
X1.63000 Y1.48526
X1.63100 Y1.48526
X1.63100 Y1.48626
X1.63200 Y1.48626
X1.63200 Y1.48726
X1.63300 Y1.48726
X1.63300 Y1.48826
X1.63400 Y1.48826
X1.63400 Y1.48926
X1.63500 Y1.48926
X1.63500 Y1.49026
X1.63600 Y1.49026
X1.63600 Y1.49126
X1.63700 Y1.49126
X1.63700 Y1.49226
X1.63800 Y1.49226
X1.63800 Y1.49326
X1.63900 Y1.49326
X1.63900 Y1.49426
X1.64000 Y1.49426
X1.64000 Y1.49526
X1.64100 Y1.49526
X1.64100 Y1.49626
X1.64200 Y1.49626
X1.64200 Y1.49726
X1.64300 Y1.49726
X1.64300 Y1.49826
X1.64400 Y1.49826
X1.64400 Y1.49926
X1.64500 Y1.49926
X1.64500 Y1.50026
X1.64600 Y1.50026
X1.64600 Y1.50126
X1.64700 Y1.50126
X1.64700 Y1.50226
X1.64800 Y1.50226
X1.64800 Y1.50326
X1.64900 Y1.50326
X1.64900 Y1.50426
X1.65000 Y1.50426
X1.65000 Y1.50526
X1.65100 Y1.50526
X1.65100 Y1.50626
X1.65200 Y1.50626
X1.65200 Y1.50726
X1.65300 Y1.50726
X1.65300 Y1.50826
X1.65400 Y1.50826
X1.65400 Y1.50926
X1.65500 Y1.50926
X1.65500 Y1.51026
X1.65600 Y1.51026
X1.65600 Y1.51126
X1.65700 Y1.51126
X1.65700 Y1.51226
X1.65800 Y1.51226
X1.65800 Y1.51326
X1.65900 Y1.51326
X1.65900 Y1.51426
X1.66000 Y1.51426
X1.66000 Y1.51526
X1.66100 Y1.51526
X1.66100 Y1.51626
X1.66200 Y1.51626
X1.66200 Y1.51726
X1.66300 Y1.51726
X1.66300 Y1.51826
X1.66400 Y1.51826
X1.66400 Y1.51926
X1.66500 Y1.51926
X1.66500 Y1.52026
X1.66600 Y1.52026
X1.66600 Y1.52126
X1.66700 Y1.52126
X1.66700 Y1.52226
X1.66800 Y1.52226
X1.66800 Y1.52326
X1.66900 Y1.52326
X1.66900 Y1.52426
X1.67000 Y1.52426
X1.67000 Y1.52526
X1.67100 Y1.52526
X1.67100 Y1.52626
X1.67200 Y1.52626
X1.67200 Y1.52726
X1.67300 Y1.52726
X1.67300 Y1.52826
X1.67400 Y1.52826
X1.67400 Y1.52926
X1.67500 Y1.52926
X1.67500 Y1.53026
X1.67600 Y1.53026
X1.67600 Y1.53126
X1.67700 Y1.53126
X1.67700 Y1.53226
X1.67800 Y1.53226
X1.67800 Y1.53326
X1.67900 Y1.53326
X1.67900 Y1.53426
X1.68000 Y1.53426
X1.68000 Y1.53526
X1.68100 Y1.53526
X1.68100 Y1.53626
X1.68200 Y1.53626
X1.68200 Y1.53726
X1.68300 Y1.53726
X1.68300 Y1.53826
X1.68400 Y1.53826
X1.68400 Y1.53926
X1.68500 Y1.53926
X1.68500 Y1.54026
X1.68600 Y1.54026
X1.68600 Y1.54126
X1.68700 Y1.54126
X1.68700 Y1.54226
X1.68800 Y1.54226
X1.68800 Y1.54326
X1.68900 Y1.54326
X1.68900 Y1.54426
X1.69000 Y1.54426
X1.69000 Y1.54526
X1.69100 Y1.54526
X1.69100 Y1.54626
X1.69200 Y1.54626
X1.69200 Y1.54726
X1.69300 Y1.54726
X1.69300 Y1.54826
X1.69400 Y1.54826
X1.69400 Y1.54926
X1.69500 Y1.54926
X1.69500 Y1.55026
X1.69600 Y1.55026
X1.69600 Y1.55126
X1.69700 Y1.55126
X1.69700 Y1.55226
X1.69800 Y1.55226
X1.69800 Y1.55326
X1.69900 Y1.55326
X1.69900 Y1.55426
X1.70000 Y1.55426
X1.70000 Y1.55526
X1.70100 Y1.55526
X1.70100 Y1.55626
X1.70200 Y1.55626
X1.70200 Y1.55726
X1.70300 Y1.55726
X1.70300 Y1.55826
X1.70400 Y1.55826
X1.70400 Y1.55926
X1.70500 Y1.55926
X1.70500 Y1.56026
X1.70600 Y1.56026
X1.70600 Y1.56126
X1.70700 Y1.56126
X1.70700 Y1.56226
X1.70800 Y1.56226
X1.70800 Y1.56326
X1.70900 Y1.56326
X1.70900 Y1.56426
X1.71000 Y1.56426
X1.71000 Y1.56526
X1.71100 Y1.56526
X1.71100 Y1.56626
X1.71200 Y1.56626
X1.71200 Y1.56726
X1.71300 Y1.56726
X1.71300 Y1.56826
X1.71400 Y1.56826
X1.71400 Y1.56926
X1.71500 Y1.56926
X1.71500 Y1.57026
X1.71600 Y1.57026
X1.71600 Y1.57126
X1.71700 Y1.57126
X1.71700 Y1.57226
X1.71800 Y1.57226
X1.71800 Y1.57326
X1.71900 Y1.57326
X1.71900 Y1.57426
X1.72000 Y1.57426
X1.72000 Y1.57526
X1.72100 Y1.57526
X1.72100 Y1.57626
X1.72200 Y1.57626
X1.72200 Y1.57726
X1.72300 Y1.57726
X1.72300 Y1.57826
X1.72400 Y1.57826
X1.72400 Y1.57926
X1.72500 Y1.57926
X1.72500 Y1.58026
X1.72600 Y1.58026
X1.72600 Y1.58126
X1.72700 Y1.58126
X1.72700 Y1.58226
X1.72800 Y1.58226
X1.72800 Y1.58326
X1.72900 Y1.58326
X1.72900 Y1.58426
X1.73000 Y1.58426
X1.73000 Y1.58526
X1.73100 Y1.58526
X1.73100 Y1.58626
X1.73200 Y1.58626
X1.73200 Y1.58726
X1.73300 Y1.58726
X1.73300 Y1.58826
X1.73400 Y1.58826
X1.73400 Y1.58926
X1.73500 Y1.58926
X1.73500 Y1.59026
X1.73600 Y1.59026
X1.73600 Y1.59126
X1.73700 Y1.59126
X1.73700 Y1.59226
X1.73800 Y1.59226
X1.73800 Y1.59326
X1.73900 Y1.59326
X1.73900 Y1.59426
X1.74000 Y1.59426
X1.74000 Y1.59526
X1.74100 Y1.59526
X1.74100 Y1.59626
X1.74200 Y1.59626
X1.74200 Y1.59726
X1.74300 Y1.59726
X1.74300 Y1.59826
X1.74400 Y1.59826
X1.74400 Y1.59926
X1.74500 Y1.59926
X1.74500 Y1.60026
X1.74600 Y1.60026
X1.74600 Y1.60126
X1.74700 Y1.60126
X1.74700 Y1.60226
X1.74800 Y1.60226
X1.74800 Y1.60326
X1.74900 Y1.60326
X1.74900 Y1.60426
X1.75000 Y1.60426
X1.75000 Y1.60526
X1.75100 Y1.60526
X1.75100 Y1.60626
X1.75200 Y1.60626
X1.75200 Y1.60726
X1.75300 Y1.60726
X1.75300 Y1.60826
X1.75400 Y1.60826
X1.75400 Y1.60926
X1.75500 Y1.60926
X1.75500 Y1.61026
X1.75600 Y1.61026
X1.75600 Y1.62226
X1.75500 Y1.62226
X1.75500 Y1.62526
X1.75400 Y1.62526
X1.75400 Y1.65126
X1.75500 Y1.65126
X1.75500 Y1.65226
X1.75600 Y1.65226
X1.75600 Y1.65326
X1.82700 Y1.65326
X1.82700 Y1.65426
X1.83000 Y1.65426
X1.83000 Y1.65526
X1.83100 Y1.65526
X1.83100 Y1.65826
X1.83200 Y1.65826
X1.83200 Y1.67226
X1.83300 Y1.67226
X1.83300 Y1.67426
X1.83500 Y1.67426
X1.83500 Y1.67526
X1.85900 Y1.67526
X1.85900 Y1.67426
X1.86000 Y1.67426
X1.86000 Y1.67326
X1.86100 Y1.67326
X1.86100 Y1.67226
X1.86200 Y1.67226
X1.86200 Y1.66726
X1.86300 Y1.66726
X1.86300 Y1.66426
X1.86400 Y1.66426
X1.86400 Y1.66026
X1.86500 Y1.66026
X1.86500 Y1.65926
X1.86600 Y1.65926
X1.86600 Y1.65826
X1.86700 Y1.65826
X1.86700 Y1.65726
X1.86800 Y1.65726
X1.86800 Y1.65626
X1.86900 Y1.65626
X1.86900 Y1.65526
X1.87000 Y1.65526
X1.87000 Y1.65426
X1.87100 Y1.65426
X1.87100 Y1.65326
X1.87200 Y1.65326
X1.87200 Y1.65226
X1.87600 Y1.65226
X1.87600 Y1.65126
X1.87900 Y1.65126
X1.87900 Y1.65026
X1.88600 Y1.65026
X1.88600 Y1.65126
X1.88900 Y1.65126
X1.88900 Y1.65226
X1.89300 Y1.65226
X1.89300 Y1.65326
X1.89400 Y1.65326
X1.89400 Y1.65426
X1.89500 Y1.65426
X1.89500 Y1.65526
X1.89600 Y1.65526
X1.89600 Y1.65626
X1.89800 Y1.65626
X1.89800 Y1.65726
X1.89900 Y1.65726
X1.89900 Y1.65826
X1.90200 Y1.65826
X1.90200 Y1.65926
X1.90300 Y1.65926
X1.90300 Y1.66026
X1.90400 Y1.66026
X1.90400 Y1.66126
X1.90600 Y1.66126
X1.90600 Y1.66226
X1.90700 Y1.66226
X1.90700 Y1.66326
X1.90800 Y1.66326
X1.90800 Y1.66426
X1.91100 Y1.66426
X1.91100 Y1.66326
X1.91200 Y1.66326
X1.91200 Y1.66226
X1.91300 Y1.66226
X1.91300 Y1.66126
X1.91400 Y1.66126
X1.91400 Y1.65926
X1.91500 Y1.65926
X1.91500 Y1.65626
X1.91600 Y1.65626
X1.91600 Y1.62726
X1.91500 Y1.62726
X1.91500 Y1.62426
X1.91400 Y1.62426
X1.91400 Y1.62226
X1.91300 Y1.62226
X1.91300 Y1.62026
X1.91200 Y1.62026
X1.91200 Y1.61926
X1.91100 Y1.61926
X1.91100 Y1.61826
X1.91000 Y1.61826
X1.91000 Y1.61726
X1.90900 Y1.61726
X1.90900 Y1.61626
X1.90800 Y1.61626
X1.90800 Y1.61526
X1.90700 Y1.61526
X1.90700 Y1.61426
X1.90600 Y1.61426
X1.90600 Y1.61326
X1.90500 Y1.61326
X1.90500 Y1.61226
X1.90400 Y1.61226
X1.90400 Y1.61126
X1.90300 Y1.61126
X1.90300 Y1.61026
X1.90200 Y1.61026
X1.90200 Y1.60926
X1.90100 Y1.60926
X1.90100 Y1.60826
X1.90000 Y1.60826
X1.90000 Y1.60726
X1.89900 Y1.60726
X1.89900 Y1.60626
X1.89800 Y1.60626
X1.89800 Y1.60526
X1.89700 Y1.60526
X1.89700 Y1.60426
X1.89500 Y1.60426
X1.89500 Y1.60326
X1.89400 Y1.60326
X1.89400 Y1.60226
X1.89300 Y1.60226
X1.89300 Y1.60126
X1.89200 Y1.60126
X1.89200 Y1.60026
X1.89100 Y1.60026
X1.89100 Y1.59826
X1.89000 Y1.59826
X1.89000 Y1.59426
X1.88900 Y1.59426
X1.88900 Y1.53126
X1.88800 Y1.53126
X1.88800 Y1.52926
X1.88700 Y1.52926
X1.88700 Y1.52726
X1.88600 Y1.52726
X1.88600 Y1.52526
X1.88500 Y1.52526
X1.88500 Y1.52426
X1.88400 Y1.52426
X1.88400 Y1.52026
X1.88300 Y1.52026
X1.88300 Y1.51726
X1.88200 Y1.51726
X1.88200 Y1.51026
X1.88300 Y1.51026
X1.88300 Y1.50726
X1.88400 Y1.50726
X1.88400 Y1.50226
X1.88500 Y1.50226
X1.88500 Y1.50126
X1.88600 Y1.50126
X1.88600 Y1.49726
X1.88700 Y1.49726
X1.88700 Y1.49526
X1.88800 Y1.49526
X1.88800 Y1.49326
X1.88900 Y1.49326
X1.88900 Y1.49126
X1.89000 Y1.49126
X1.89000 Y1.49026
X1.89100 Y1.49026
X1.89100 Y1.48826
X1.89000 Y1.48826
X1.89000 Y1.48726
X1.88900 Y1.48726
X1.88900 Y1.48626
X1.88700 Y1.48626
X1.88700 Y1.48526
X1.88400 Y1.48526
X1.88400 Y1.48426
X1.68300 Y1.48426
X1.68300 Y1.48326
X1.68000 Y1.48326
X1.68000 Y1.48226
X1.67900 Y1.48226
X1.67900 Y1.48126
X1.67800 Y1.48126
X1.67800 Y1.48026
X1.67700 Y1.48026
X1.67700 Y1.47926
X1.67600 Y1.47926
X1.67600 Y1.47826
X1.67500 Y1.47826
X1.67500 Y1.47726
X1.67400 Y1.47726
X1.67400 Y1.47626
X1.67300 Y1.47626
X1.67300 Y1.47526
X1.67200 Y1.47526
X1.67200 Y1.47426
X1.67100 Y1.47426
X1.67100 Y1.47326
X1.67000 Y1.47326
X1.67000 Y1.47226
X1.66900 Y1.47226
X1.66900 Y1.47126
X1.66800 Y1.47126
X1.66800 Y1.47026
X1.66700 Y1.47026
X1.66700 Y1.46926
X1.66600 Y1.46926
X1.66600 Y1.46826
X1.66500 Y1.46826
X1.66500 Y1.46726
X1.66400 Y1.46726
X1.66400 Y1.46626
X1.66300 Y1.46626
X1.66300 Y1.46526
X1.66200 Y1.46526
X1.66200 Y1.46426
X1.66100 Y1.46426
X1.66100 Y1.46326
X1.66000 Y1.46326
X1.66000 Y1.46226
X1.65900 Y1.46226
X1.65900 Y1.46126
X1.65800 Y1.46126
X1.65800 Y1.46026
X1.65700 Y1.46026
X1.65700 Y1.45726
X1.65600 Y1.45726
X1.65600 Y1.43226
X1.65500 Y1.43226
X1.65500 Y1.43126
X1.65400 Y1.43126
X1.65400 Y1.36626
X1.65800 Y1.36626
X1.65800 Y1.36526
X1.72600 Y1.36526
X1.72600 Y1.36626
X1.73000 Y1.36626
X1.73000 Y1.43226
X1.78200 Y1.43226
X1.78200 Y1.36626
X1.78600 Y1.36626
X1.78600 Y1.36526
X1.82700 Y1.36526
X1.82700 Y1.36626
X1.83000 Y1.36626
X1.83000 Y1.36726
X1.83100 Y1.36726
X1.83100 Y1.37026
X1.83200 Y1.37026
X1.83200 Y1.43326
X1.83500 Y1.43326
X1.83500 Y1.43426
X2.02300 Y1.43426
X2.02300 Y1.43326
X2.02500 Y1.43326
X2.02500 Y1.43226
X2.02600 Y1.43226
X2.02600 Y1.43126
X2.02700 Y1.43126
X2.02700 Y1.43026
X2.02800 Y1.43026
X2.02800 Y1.40326
X2.02900 Y1.40326
X2.02900 Y1.40226
X2.03000 Y1.40226
X2.03000 Y1.40126
X2.03100 Y1.40126
X2.03100 Y1.40026
X2.03200 Y1.40026
X2.03200 Y1.39926
X2.03300 Y1.39926
X2.03300 Y1.39826
X2.03400 Y1.39826
X2.03400 Y1.39726
X2.03500 Y1.39726
X2.03500 Y1.39626
X2.03600 Y1.39626
X2.03600 Y1.39426
X2.03500 Y1.39426
X2.03500 Y1.39326
X2.03400 Y1.39326
X2.03400 Y1.39226
X2.03300 Y1.39226
X2.03300 Y1.39126
X2.03000 Y1.39126
X2.03000 Y1.39026
X2.02200 Y1.39026
X2.02200 Y1.39126
X2.01900 Y1.39126
X2.01900 Y1.39226
X2.01600 Y1.39226
X2.01600 Y1.39326
X2.01300 Y1.39326
X2.01300 Y1.39426
X2.01100 Y1.39426
X2.01100 Y1.39526
X2.00900 Y1.39526
X2.00900 Y1.39626
X2.00800 Y1.39626
X2.00800 Y1.39726
X2.00700 Y1.39726
X2.00700 Y1.39826
X2.00600 Y1.39826
X2.00600 Y1.39926
X2.00500 Y1.39926
X2.00500 Y1.40026
X2.00400 Y1.40026
X2.00400 Y1.40126
X2.00300 Y1.40126
X2.00300 Y1.40226
X2.00200 Y1.40226
X2.00200 Y1.40326
X2.00100 Y1.40326
X2.00100 Y1.40426
X1.99500 Y1.40426
X1.99500 Y1.40526
X1.98400 Y1.40526
X1.98400 Y1.40626
X1.98300 Y1.40626
X1.98300 Y1.40826
X1.98200 Y1.40826
X1.98200 Y1.40926
X1.98100 Y1.40926
X1.98100 Y1.41026
X1.97800 Y1.41026
X1.97800 Y1.41126
X1.94400 Y1.41126
X1.94400 Y1.41026
X1.94100 Y1.41026
X1.94100 Y1.40926
X1.94000 Y1.40926
X1.94000 Y1.40626
X1.93900 Y1.40626
X1.93900 Y1.40326
X1.93800 Y1.40326
X1.93800 Y1.37926
X1.93900 Y1.37926
X1.93900 Y1.37626
X1.94000 Y1.37626
X1.94000 Y1.37326
X1.94200 Y1.37326
X1.94200 Y1.37226
X1.94300 Y1.37226
X1.94300 Y1.37126
X1.94400 Y1.37126
X1.94400 Y1.37026
X1.94500 Y1.37026
X1.94500 Y1.36926
X1.94600 Y1.36926
X1.94600 Y1.36826
X1.94700 Y1.36826
X1.94700 Y1.36726
X1.94800 Y1.36726
X1.94800 Y1.36426
X1.94700 Y1.36426
X1.94700 Y1.36326
X1.94600 Y1.36326
X1.94600 Y1.36226
X1.94500 Y1.36226
X1.94500 Y1.36126
X1.94400 Y1.36126
X1.94400 Y1.36026
X1.94300 Y1.36026
X1.94300 Y1.35926
X1.94200 Y1.35926
X1.94200 Y1.35826
X1.94000 Y1.35826
X1.94000 Y1.35526
X1.93900 Y1.35526
X1.93900 Y1.35226
X1.93800 Y1.35226
X1.93800 Y1.35126
X1.93700 Y1.35126
X1.93700 Y1.35026
X1.91800 Y1.35026
X1.91800 Y1.35126
X1.91600 Y1.35126
X1.91600 Y1.35226
X1.91400 Y1.35226
X1.91400 Y1.35326
X1.91300 Y1.35326
X1.91300 Y1.35426
X1.91100 Y1.35426
X1.91100 Y1.35526
X1.90900 Y1.35526
X1.90900 Y1.35626
X1.90300 Y1.35626
X1.90300 Y1.35726
X1.90100 Y1.35726
X1.90100 Y1.35626
X1.89600 Y1.35626
X1.89600 Y1.35526
X1.89300 Y1.35526
X1.89300 Y1.35426
X1.89100 Y1.35426
X1.89100 Y1.35326
X1.89000 Y1.35326
X1.89000 Y1.35226
X1.88900 Y1.35226
X1.88900 Y1.35126
X1.88800 Y1.35126
X1.88800 Y1.35026
X1.88700 Y1.35026
X1.88700 Y1.34926
X1.88600 Y1.34926
X1.88600 Y1.34826
X1.88500 Y1.34826
X1.88500 Y1.34726
X1.88400 Y1.34726
X1.88400 Y1.34326
X1.88300 Y1.34326
X1.88300 Y1.34026
X1.88200 Y1.34026
X1.88200 Y1.33326
X1.88300 Y1.33326
X1.88300 Y1.33026
X1.88400 Y1.33026
X1.88400 Y1.32626
X1.88500 Y1.32626
X1.88500 Y1.32526
X1.88600 Y1.32526
X1.88600 Y1.32426
X1.88700 Y1.32426
X1.88700 Y1.32326
X1.88800 Y1.32326
X1.88800 Y1.32226
X1.88900 Y1.32226
X1.88900 Y1.32126
X1.89000 Y1.32126
X1.89000 Y1.32026
X1.89100 Y1.32026
X1.89100 Y1.31926
X1.89200 Y1.31926
X1.89200 Y1.31826
X1.89600 Y1.31826
X1.89600 Y1.31726
X1.89900 Y1.31726
X1.89900 Y1.31626
X1.90600 Y1.31626
X1.90600 Y1.31726
X1.90900 Y1.31726
X1.90900 Y1.31826
X1.91300 Y1.31826
X1.91300 Y1.31926
X1.91400 Y1.31926
X1.91400 Y1.32026
X1.91600 Y1.32026
X1.91600 Y1.32126
X1.91800 Y1.32126
X1.91800 Y1.32226
X1.92000 Y1.32226
X1.92000 Y1.32326
X1.93900 Y1.32326
X1.93900 Y1.32226
X1.94000 Y1.32226
X1.94000 Y1.32126
X1.94300 Y1.32126
X1.94300 Y1.32026
X1.94600 Y1.32026
X1.94600 Y1.31926
X1.94700 Y1.31926
X1.94700 Y1.30326
X1.94500 Y1.30326
X1.94500 Y1.30226
X1.94300 Y1.30226
X1.94300 Y1.30126
X1.94000 Y1.30126
X1.94000 Y1.29826
X1.93900 Y1.29826
X1.93900 Y1.29526
X1.93800 Y1.29526
X1.93800 Y1.27126
X1.93900 Y1.27126
X1.93900 Y1.26826
X1.94000 Y1.26826
X1.94000 Y1.26426
X1.94200 Y1.26426
X1.94200 Y1.26326
X1.94300 Y1.26326
X1.94300 Y1.26226
X1.94400 Y1.26226
X1.94400 Y1.26126
X1.94500 Y1.26126
X1.94500 Y1.26026
X1.94600 Y1.26026
X1.94600 Y1.25926
X1.94700 Y1.25926
X1.94700 Y1.25826
X1.94800 Y1.25826
X1.94800 Y1.25626
X1.94700 Y1.25626
X1.94700 Y1.25526
X1.94600 Y1.25526
X1.94600 Y1.25426
X1.94500 Y1.25426
X1.94500 Y1.25326
X1.94400 Y1.25326
X1.94400 Y1.25226
X1.94300 Y1.25226
X1.94300 Y1.25126
X1.94200 Y1.25126
X1.94200 Y1.25026
X1.94000 Y1.25026
X1.94000 Y1.24726
X1.93900 Y1.24726
X1.93900 Y1.24426
X1.93800 Y1.24426
X1.93800 Y1.21926
X1.93900 Y1.21926
X1.93900 Y1.21626
X1.94000 Y1.21626
X1.94000 Y1.21326
X1.94300 Y1.21326
X1.94300 Y1.21226
X1.97900 Y1.21226
X1.97900 Y1.21326
X1.98200 Y1.21326
X1.98200 Y1.21426
X1.98300 Y1.21426
X1.98300 Y1.21626
X1.98400 Y1.21626
X1.98400 Y1.21826
X1.99600 Y1.21826
X1.99600 Y1.21926
X2.00100 Y1.21926
X2.00100 Y1.22026
X2.00200 Y1.22026
X2.00200 Y1.22126
X2.00300 Y1.22126
X2.00300 Y1.22226
X2.00400 Y1.22226
X2.00400 Y1.22326
X2.00500 Y1.22326
X2.00500 Y1.22426
X2.00600 Y1.22426
X2.00600 Y1.22526
X2.00700 Y1.22526
X2.00700 Y1.22626
X2.00800 Y1.22626
X2.00800 Y1.22726
X2.00900 Y1.22726
X2.00900 Y1.22826
X2.01000 Y1.22826
X2.01000 Y1.22926
X2.01100 Y1.22926
X2.01100 Y1.23026
X2.01200 Y1.23026
X2.01200 Y1.23126
X2.01300 Y1.23126
X2.01300 Y1.23226
X2.01400 Y1.23226
X2.01400 Y1.23326
X2.01500 Y1.23326
X2.01500 Y1.23426
X2.01600 Y1.23426
X2.01600 Y1.23526
X2.01700 Y1.23526
X2.01700 Y1.23626
X2.01800 Y1.23626
X2.01800 Y1.23726
X2.01900 Y1.23726
X2.01900 Y1.23826
X2.02000 Y1.23826
X2.02000 Y1.23926
X2.02100 Y1.23926
X2.02100 Y1.24026
X2.02200 Y1.24026
X2.02200 Y1.24126
X2.02300 Y1.24126
X2.02300 Y1.24226
X2.02400 Y1.24226
X2.02400 Y1.24326
X2.02500 Y1.24326
X2.02500 Y1.24426
X2.02600 Y1.24426
X2.02600 Y1.24526
X2.02800 Y1.24526
X2.02800 Y1.24626
X2.03000 Y1.24626
X2.03000 Y1.24726
X2.03300 Y1.24726
X2.03300 Y1.24826
X2.03800 Y1.24826
X2.03800 Y1.24726
X2.04300 Y1.24726
X2.04300 Y1.24626
X2.04600 Y1.24626
X2.04600 Y1.24526
X2.04800 Y1.24526
X2.04800 Y1.24426
X2.04900 Y1.24426
X2.04900 Y1.24326
X2.05000 Y1.24326
X2.05000 Y1.24226
X2.05100 Y1.24226
X2.05100 Y1.24126
X2.05200 Y1.24126
X2.05200 Y1.24026
X2.05300 Y1.24026
X2.05300 Y1.23926
X2.05400 Y1.23926
X2.05400 Y1.23826
X2.06500 Y1.23826
X2.06500 Y1.23926
X2.06600 Y1.23926
X2.06600 Y1.24026
X2.06700 Y1.24026
X2.06700 Y1.24126
X2.06800 Y1.24126
X2.06800 Y1.24226
X2.06900 Y1.24226
X2.06900 Y1.24326
X2.07000 Y1.24326
X2.07000 Y1.24426
X2.07100 Y1.24426
X2.07100 Y1.24526
X2.07300 Y1.24526
X2.07300 Y1.24626
X2.07600 Y1.24626
X2.07600 Y1.24726
X2.07900 Y1.24726
X2.07900 Y1.24826
X2.08000 Y1.24826
X2.08000 Y1.25126
X2.08100 Y1.25126
X2.08100 Y1.26726
X2.08200 Y1.26726
X2.08200 Y1.27026
X2.08300 Y1.27026
X2.08300 Y1.27226
X2.08400 Y1.27226
X2.08400 Y1.27326
X2.08500 Y1.27326
X2.08500 Y1.27426
X2.08600 Y1.27426
X2.08600 Y1.27526
X2.09300 Y1.27526
X2.09300 Y1.27426
X2.09400 Y1.27426
X2.09400 Y1.27326
X2.09500 Y1.27326
X2.09500 Y1.27226
X2.09600 Y1.27226
X2.09600 Y1.27126
X2.09700 Y1.27126
X2.09700 Y1.27026
X2.09800 Y1.27026
X2.09800 Y1.26926
X2.10000 Y1.26926
X2.10000 Y1.26626
X2.10100 Y1.26626
X2.10100 Y1.26526
X2.10200 Y1.26526
X2.10200 Y1.26326
X2.10300 Y1.26326
X2.10300 Y1.26126
X2.10400 Y1.26126
X2.10400 Y1.25926
X2.10500 Y1.25926
X2.10500 Y1.20726
X2.10400 Y1.20726
X2.10400 Y1.20426
X2.10300 Y1.20426
X2.10300 Y1.20226
X2.10200 Y1.20226
X2.10200 Y1.20026
X2.10100 Y1.20026
X2.10100 Y1.19926
X2.10000 Y1.19926
X2.10000 Y1.19826
X2.09900 Y1.19826
X2.09900 Y1.19726
X2.09700 Y1.19726
X2.09700 Y1.19626
X2.09600 Y1.19626
X2.09600 Y1.19526
X2.09300 Y1.19526
X2.09300 Y1.19426
X2.09000 Y1.19426
X2.09000 Y1.19326
X2.08700 Y1.19326
X2.08700 Y1.19226
X2.08400 Y1.19226
X2.08400 Y1.18926
X2.08300 Y1.18926
X2.08300 Y1.18626
X2.08200 Y1.18626
X2.08200 Y1.18526
X2.07900 Y1.18526
X2.07900 Y1.18426
X2.04000 Y1.18426
X2.04000 Y1.18326
X2.03700 Y1.18326
X2.03700 Y1.18226
X1.64100 Y1.18226
X1.64100 Y1.18326
X1.63800 Y1.18326
X1.63800 Y1.18426
X1.63700 Y1.18426
X1.63700 Y1.18526
X1.63500 Y1.18526
X1.63500 Y1.18626
X1.63400 Y1.18626
X1.63400 Y1.18726
X1.63300 Y1.18726
X1.63300 Y1.18826
X1.63200 Y1.18826
X1.63200 Y1.18926
X1.63100 Y1.18926
X1.63100 Y1.19026
X1.63000 Y1.19026
X1.63000 Y1.19126
X1.62900 Y1.19126
X1.62900 Y1.19226
X1.62800 Y1.19226
X1.62800 Y1.19326
X1.62700 Y1.19326
X1.62700 Y1.19426
X1.62600 Y1.19426
X1.62600 Y1.19526
X1.62500 Y1.19526
X1.62500 Y1.19626
X1.62400 Y1.19626
X1.62400 Y1.19726
X1.62300 Y1.19726
X1.62300 Y1.19826
X1.62200 Y1.19826
X1.62200 Y1.19926
X1.62100 Y1.19926
X1.62100 Y1.20026
X1.62000 Y1.20026
X1.62000 Y1.20126
X1.61900 Y1.20126
X1.61900 Y1.20226
X1.61800 Y1.20226
X1.61800 Y1.20326
X1.61700 Y1.20326
X1.61700 Y1.20426
X1.61600 Y1.20426
X1.61600 Y1.20526
X1.61500 Y1.20526
X1.61500 Y1.20626
X1.61400 Y1.20626
X1.61400 Y1.20726
X1.61300 Y1.20726
X1.61300 Y1.20826
X1.61200 Y1.20826
X1.61200 Y1.20926
X1.61100 Y1.20926
X1.61100 Y1.21026
X1.61000 Y1.21026
X1.61000 Y1.21126
X1.60900 Y1.21126
X1.60900 Y1.21226
X1.60800 Y1.21226
X1.60800 Y1.21326
X1.60700 Y1.21326
X1.60700 Y1.21426
X1.60600 Y1.21426
X1.60600 Y1.21526
X1.60500 Y1.21526
X1.60500 Y1.21626
X1.60400 Y1.21626
X1.60400 Y1.21726
X1.60300 Y1.21726
X1.60300 Y1.21826
X1.60200 Y1.21826
X1.60200 Y1.21926
X1.60100 Y1.21926
X1.60100 Y1.22026
X1.60000 Y1.22026
X1.60000 Y1.22126
X1.59900 Y1.22126
X1.59900 Y1.22226
X1.59800 Y1.22226
X1.59800 Y1.22326
X1.59700 Y1.22326
X1.59700 Y1.22426
X1.59600 Y1.22426
X1.59600 Y1.22526
X1.59500 Y1.22526
X1.59500 Y1.22626
X1.59400 Y1.22626
X1.59400 Y1.22726
X1.59300 Y1.22726
X1.59300 Y1.22826
X1.59200 Y1.22826
X1.59200 Y1.22926
X1.59100 Y1.22926
X1.59100 Y1.23026
X1.59000 Y1.23026
X1.59000 Y1.23126
X1.58900 Y1.23126
X1.58900 Y1.23226
X1.58800 Y1.23226
X1.58800 Y1.23326
X1.58700 Y1.23326
X1.58700 Y1.23426
X1.58600 Y1.23426
X1.58600 Y1.23526
X1.58500 Y1.23526
X1.58500 Y1.23626
X1.58400 Y1.23626
X1.58400 Y1.23726
X1.58300 Y1.23726
X1.58300 Y1.23826
X1.58200 Y1.23826
X1.58200 Y1.23926
X1.58100 Y1.23926
X1.58100 Y1.24026
X1.58000 Y1.24026
X1.58000 Y1.24126
X1.57900 Y1.24126
X1.57900 Y1.24226
X1.57800 Y1.24226
X1.57800 Y1.24326
X1.57700 Y1.24326
X1.57700 Y1.24426
X1.57600 Y1.24426
X1.57600 Y1.24526
X1.57500 Y1.24526
X1.57500 Y1.24626
X1.57400 Y1.24626
X1.57400 Y1.24726
X1.57300 Y1.24726
X1.57300 Y1.24826
X1.57200 Y1.24826
X1.57200 Y1.24926
X1.57100 Y1.24926
X1.57100 Y1.25026
X1.57000 Y1.25026
X1.57000 Y1.25126
X1.56900 Y1.25126
X1.56900 Y1.25226
X1.56800 Y1.25226
X1.56800 Y1.25326
X1.56700 Y1.25326
X1.56700 Y1.25426
X1.56600 Y1.25426
X1.56600 Y1.25526
X1.56500 Y1.25526
X1.56500 Y1.25626
X1.56400 Y1.25626
X1.56400 Y1.25726
X1.56300 Y1.25726
X1.56300 Y1.25826
X1.56200 Y1.25826
X1.56200 Y1.25926
X1.56100 Y1.25926
X1.56100 Y1.26126
X1.56000 Y1.26126
X1.56000 Y1.26326
X1.55900 Y1.26326
X1.55900 Y1.26626
X1.55800 Y1.26626
X1.55800 Y1.29126
X1.56000 Y1.29126
X1.56000 Y1.29226
X1.56300 Y1.29226
X1.56300 Y1.29526
X1.56400 Y1.29526
X1.56400 Y1.29726
X1.56500 Y1.29726
X1.56500 Y1.29826
X1.56600 Y1.29826
X1.56600 Y1.29926
X1.56700 Y1.29926
X1.56700 Y1.30026
X1.56800 Y1.30026
X1.56800 Y1.30126
X1.56900 Y1.30126
X1.56900 Y1.30226
X1.57000 Y1.30226
X1.57000 Y1.32526
X1.56900 Y1.32526
X1.56900 Y1.32626
X1.56800 Y1.32626
X1.56800 Y1.32726
X1.56700 Y1.32726
X1.56700 Y1.32826
X1.56600 Y1.32826
X1.56600 Y1.32926
X1.56500 Y1.32926
X1.56500 Y1.33026
X1.56400 Y1.33026
X1.56400 Y1.33226
X1.56300 Y1.33226
X1.56300 Y1.33426
X1.56200 Y1.33426
X1.56200 Y1.33526
X1.55900 Y1.33526
X1.55900 Y1.33626
X1.55200 Y1.33626
X1.55200 Y1.33726
X1.55000 Y1.33726
X1.55000 Y1.33926
X1.54900 Y1.33926
X1.54900 Y1.36426
X1.55000 Y1.36426
X1.55000 Y1.36526
X1.55100 Y1.36526
X1.55100 Y1.43026
X1.54700 Y1.43026
X1.54700 Y1.43126
X1.54400 Y1.43126
X1.54400 Y1.43226
X1.54300 Y1.43226
X1.54300 Y1.43426
X1.54400 Y1.43426
X1.54400 Y1.43626
X1.54500 Y1.43626
X1.54500 Y1.44026
X1.54600 Y1.44026
X1.54600 Y1.44326
X1.54700 Y1.44326
X1.54700 Y1.44826
X1.54800 Y1.44826
X1.54800 Y1.45326
X1.54900 Y1.45326
X1.54900 Y1.45626
X1.54800 Y1.45626
X1.54800 Y1.46126
X1.54700 Y1.46126
X1.54700 Y1.46526
X1.54600 Y1.46526
X1.54600 Y1.46626
X1.54500 Y1.46626
X1.54500 Y1.46726
X1.54400 Y1.46726
X1.54400 Y1.46826
X1.54300 Y1.46826
X1.54300 Y1.46926
X1.54200 Y1.46926
X1.54200 Y1.47026
X1.54100 Y1.47026
X1.54100 Y1.47126
X1.54000 Y1.47126
X1.54000 Y1.47226
X1.53900 Y1.47226
X1.53900 Y1.47326
X1.53500 Y1.47326
X1.53500 Y1.47426
X1.53000 Y1.47426
X1.53000 Y1.47526
X1.52700 Y1.47526
X1.52700 Y1.47426
X1.52200 Y1.47426
X1.52200 Y1.47326
X1.51800 Y1.47326
X1.51800 Y1.47226
X1.51700 Y1.47226
X1.51700 Y1.47126
X1.51600 Y1.47126
X1.51600 Y1.47026
X1.51500 Y1.47026
X1.51500 Y1.46926
X1.51400 Y1.46926
X1.51400 Y1.46826
X1.51300 Y1.46826
X1.51300 Y1.46726
X1.51200 Y1.46726
X1.51200 Y1.46626
X1.51100 Y1.46626
X1.51100 Y1.46526
X1.51000 Y1.46526
X1.51000 Y1.46126
X1.50900 Y1.46126
X1.50900 Y1.45826
X1.50800 Y1.45826
X1.50800 Y1.45526
X1.50700 Y1.45526
X1.50700 Y1.45326
X1.50400 Y1.45326
X1.50400 Y1.45226
X1.50100 Y1.45226
X1.50100 Y1.45126
X1.49700 Y1.45126
X1.49700 Y1.45226
X1.49400 Y1.45226
X1.49400 Y1.45326
X1.49100 Y1.45326
X1.49100 Y1.45426
X1.49000 Y1.45426
X1.49000 Y1.45726
X1.48900 Y1.45726
X1.48900 Y1.46126
X1.48800 Y1.46126
X1.48800 Y1.46326
X1.48700 Y1.46326
X1.48700 Y1.46626
X1.48600 Y1.46626
X1.48600 Y1.46726
X1.48500 Y1.46726
X1.48500 Y1.46826
X1.48400 Y1.46826
X1.48400 Y1.46926
X1.48300 Y1.46926
X1.48300 Y1.47026
X1.48200 Y1.47026
X1.48200 Y1.47126
X1.48100 Y1.47126
X1.48100 Y1.47226
X1.48000 Y1.47226
X1.48000 Y1.47326
X1.47600 Y1.47326
X1.47600 Y1.47426
X1.47100 Y1.47426
X1.47100 Y1.47526
X1.46800 Y1.47526
X1.46800 Y1.47426
X1.46300 Y1.47426
X1.46300 Y1.47326
X1.45900 Y1.47326
X1.45900 Y1.47226
X1.45800 Y1.47226
X1.45800 Y1.47126
X1.45700 Y1.47126
X1.45700 Y1.47026
X1.45600 Y1.47026
X1.45600 Y1.46926
X1.45500 Y1.46926
X1.45500 Y1.46826
X1.45400 Y1.46826
X1.45400 Y1.46726
X1.45300 Y1.46726
X1.45300 Y1.46626
X1.45200 Y1.46626
X1.45200 Y1.46526
X1.45100 Y1.46526
X1.45100 Y1.46126
X1.45000 Y1.46126
X1.45000 Y1.45826
X1.44900 Y1.45826
X1.44900 Y1.45126
X1.45000 Y1.45126
X1.45000 Y1.44826
X1.45100 Y1.44826
X1.45100 Y1.44426
X1.45200 Y1.44426
X1.45200 Y1.44326
X1.45300 Y1.44326
X1.45300 Y1.44226
X1.45400 Y1.44226
X1.45400 Y1.44126
X1.45500 Y1.44126
X1.45500 Y1.44026
X1.45600 Y1.44026
X1.45600 Y1.43926
X1.45700 Y1.43926
X1.45700 Y1.43826
X1.45800 Y1.43826
X1.45800 Y1.43726
X1.45900 Y1.43726
X1.45900 Y1.43626
X1.46300 Y1.43626
X1.46300 Y1.43526
X1.46600 Y1.43526
X1.46600 Y1.43426
X1.47200 Y1.43426
X1.47200 Y1.43326
X1.47300 Y1.43326
X1.47300 Y1.43226
X1.47400 Y1.43226
X1.47400 Y1.43126
X1.47500 Y1.43126
X1.47500 Y1.37026
X1.47600 Y1.37026
X1.47600 Y1.36726
X1.47700 Y1.36726
X1.47700 Y1.36626
X1.48000 Y1.36626
X1.48000 Y1.36526
X1.52600 Y1.36526
X1.52600 Y1.36426
X1.52700 Y1.36426
X1.52700 Y1.36226
X1.52800 Y1.36226
X1.52800 Y1.33626
X1.52700 Y1.33626
X1.52700 Y1.33526
X1.52600 Y1.33526
X1.52600 Y1.33226
X1.52500 Y1.33226
X1.52500 Y1.29526
X1.52600 Y1.29526
X1.52600 Y1.29226
X1.52900 Y1.29226
X1.52900 Y1.29126
X1.53100 Y1.29126
X1.53100 Y1.26626
X1.53000 Y1.26626
X1.53000 Y1.26326
X1.52900 Y1.26326
X1.52900 Y1.26126
X1.52800 Y1.26126
X1.52800 Y1.25926
X1.52700 Y1.25926
X1.52700 Y1.25826
X1.52600 Y1.25826
X1.52600 Y1.25726
X1.52500 Y1.25726
X1.52500 Y1.25626
X1.52400 Y1.25626
X1.52400 Y1.25526
X1.52300 Y1.25526
X1.52300 Y1.25426
X1.52200 Y1.25426
X1.52200 Y1.25326
X1.52100 Y1.25326
X1.52100 Y1.25226
X1.52000 Y1.25226
X1.52000 Y1.25126
X1.51900 Y1.25126
X1.51900 Y1.25026
X1.51800 Y1.25026
X1.51800 Y1.24926
X1.51700 Y1.24926
X1.51700 Y1.24826
X1.51600 Y1.24826
X1.51600 Y1.24726
X1.51500 Y1.24726
X1.51500 Y1.24626
X1.51400 Y1.24626
X1.51400 Y1.24526
X1.51300 Y1.24526
X1.51300 Y1.24426
X1.51200 Y1.24426
X1.51200 Y1.24326
X1.51100 Y1.24326
X1.51100 Y1.24226
X1.51000 Y1.24226
X1.51000 Y1.24126
X1.50900 Y1.24126
X1.50900 Y1.24026
X1.50800 Y1.24026
X1.50800 Y1.23926
X1.50700 Y1.23926
X1.50700 Y1.23826
X1.50600 Y1.23826
X1.50600 Y1.23726
X1.50500 Y1.23726
X1.50500 Y1.23626
X1.50300 Y1.23626
X1.50300 Y1.23526
X1.50100 Y1.23526
X1.50100 Y1.23426
X1.49800 Y1.23426
X1.49800 Y1.23326
X1.37600 Y1.23326
X1.37600 Y1.23426
X1.37500 Y1.23426
X1.37500 Y1.23526
X1.37400 Y1.23526
X1.37400 Y1.23726
X1.37300 Y1.23726
X1.37300 Y1.23826
X1.37200 Y1.23826
X1.37200 Y1.23926
X1.37100 Y1.23926
X1.37100 Y1.24026
X1.37000 Y1.24026
X1.37000 Y1.24126
X1.36900 Y1.24126
X1.36900 Y1.24226
X1.36800 Y1.24226
X1.36800 Y1.24326
X1.36700 Y1.24326
X1.36700 Y1.24426
X1.36600 Y1.24426
X1.36600 Y1.24526
X1.36500 Y1.24526
X1.36500 Y1.24626
X1.36400 Y1.24626
X1.36400 Y1.24726
X1.36300 Y1.24726
X1.36300 Y1.24826
X1.36200 Y1.24826
X1.36200 Y1.24926
X1.36100 Y1.24926
X1.36100 Y1.25026
X1.35900 Y1.25026
X1.35900 Y1.25126
X1.35600 Y1.25126
X1.35600 Y1.25226
X1.35200 Y1.25226
X1.35200 Y1.25326
X1.34900 Y1.25326
X1.34900 Y1.25426
X1.27700 Y1.25426
X1.27700 Y1.25326
X1.27500 Y1.25326
X1.27500 Y1.25226
X1.27100 Y1.25226
X1.27100 Y1.25126
X1.26800 Y1.25126
X1.26800 Y1.25026
X1.26600 Y1.25026
X1.26600 Y1.24926
X1.26400 Y1.24926
X1.26400 Y1.24826
X1.26300 Y1.24826
X1.26300 Y1.24726
X1.26200 Y1.24726
X1.26200 Y1.24626
X1.26100 Y1.24626
X1.26100 Y1.24526
X1.26000 Y1.24526
X1.26000 Y1.24426
X1.25900 Y1.24426
X1.25900 Y1.24326
X1.25800 Y1.24326
X1.25800 Y1.24226
X1.25700 Y1.24226
X1.25700 Y1.24126
X1.25600 Y1.24126
X1.25600 Y1.24026
X1.25500 Y1.24026
X1.25500 Y1.23926
X1.25400 Y1.23926
X1.25400 Y1.23726
X1.25300 Y1.23726
X1.25300 Y1.23526
X1.25200 Y1.23526
X1.25200 Y1.23226
X1.25100 Y1.23226
X1.25100 Y1.22826
X1.25000 Y1.22826
X1.25000 Y1.22626
X1.24900 Y1.22626
X1.24900 Y1.21326
X1.25000 Y1.21326
X1.25000 Y1.21026
X1.25100 Y1.21026
X1.25100 Y1.20626
X1.25200 Y1.20626
X1.25200 Y1.20326
X1.25300 Y1.20326
X1.25300 Y1.20126
X1.25400 Y1.20126
X1.25400 Y1.20026
X1.25500 Y1.20026
X1.25500 Y1.19926
X1.25600 Y1.19926
X1.25600 Y1.19826
X1.25700 Y1.19826
X1.25700 Y1.19726
X1.25800 Y1.19726
X1.25800 Y1.19626
X1.25900 Y1.19626
X1.25900 Y1.19526
X1.26000 Y1.19526
X1.26000 Y1.19426
X1.26100 Y1.19426
X1.26100 Y1.19326
X1.26200 Y1.19326
X1.26200 Y1.19226
X1.26300 Y1.19226
X1.26300 Y1.19126
X1.26400 Y1.19126
X1.26400 Y1.19026
X1.26500 Y1.19026
X1.26500 Y1.18926
X1.26700 Y1.18926
X1.26700 Y1.18826
X1.26900 Y1.18826
X1.26900 Y1.18726
X1.27100 Y1.18726
X1.27100 Y1.18626
X1.27500 Y1.18626
X1.27500 Y1.18526
X1.28000 Y1.18526
X1.28000 Y1.18426
X1.34600 Y1.18426
X1.34600 Y1.18526
X1.35200 Y1.18526
X1.35200 Y1.18626
X1.35500 Y1.18626
X1.35500 Y1.18726
X1.35700 Y1.18726
X1.35700 Y1.18826
X1.35900 Y1.18826
X1.35900 Y1.18926
X1.36100 Y1.18926
X1.36100 Y1.19026
X1.36200 Y1.19026
X1.36200 Y1.19126
X1.36400 Y1.19126
X1.36400 Y1.19226
X1.36500 Y1.19226
X1.36500 Y1.19326
X1.36600 Y1.19326
X1.36600 Y1.19426
X1.36700 Y1.19426
X1.36700 Y1.19526
X1.36800 Y1.19526
X1.36800 Y1.19626
X1.36900 Y1.19626
X1.36900 Y1.19726
X1.37000 Y1.19726
X1.37000 Y1.19926
X1.37100 Y1.19926
X1.37100 Y1.20026
X1.37200 Y1.20026
X1.37200 Y1.20126
X1.37300 Y1.20126
X1.37300 Y1.20226
X1.37400 Y1.20226
X1.37400 Y1.20326
X1.37500 Y1.20326
X1.37500 Y1.20526
X1.37700 Y1.20526
X1.37700 Y1.20626
X1.50800 Y1.20626
X1.50800 Y1.20726
X1.51300 Y1.20726
X1.51300 Y1.20826
X1.51400 Y1.20826
X1.51400 Y1.20926
X1.51500 Y1.20926
X1.51500 Y1.21026
X1.51600 Y1.21026
X1.51600 Y1.21126
X1.51700 Y1.21126
X1.51700 Y1.21226
X1.51800 Y1.21226
X1.51800 Y1.21326
X1.51900 Y1.21326
X1.51900 Y1.21426
X1.52000 Y1.21426
X1.52000 Y1.21526
X1.52100 Y1.21526
X1.52100 Y1.21626
X1.52200 Y1.21626
X1.52200 Y1.21726
X1.52300 Y1.21726
X1.52300 Y1.21826
X1.52400 Y1.21826
X1.52400 Y1.21926
X1.52500 Y1.21926
X1.52500 Y1.22026
X1.52600 Y1.22026
X1.52600 Y1.22126
X1.52700 Y1.22126
X1.52700 Y1.22226
X1.52800 Y1.22226
X1.52800 Y1.22326
X1.52900 Y1.22326
X1.52900 Y1.22426
X1.53000 Y1.22426
X1.53000 Y1.22526
X1.53100 Y1.22526
X1.53100 Y1.22626
X1.53200 Y1.22626
X1.53200 Y1.22726
X1.53300 Y1.22726
X1.53300 Y1.22826
X1.53400 Y1.22826
X1.53400 Y1.22926
X1.53500 Y1.22926
X1.53500 Y1.23026
X1.53600 Y1.23026
X1.53600 Y1.23126
X1.53800 Y1.23126
X1.53800 Y1.23226
X1.54000 Y1.23226
X1.54000 Y1.23326
X1.54300 Y1.23326
X1.54300 Y1.23426
X1.54600 Y1.23426
X1.54600 Y1.23326
X1.54900 Y1.23326
X1.54900 Y1.23226
X1.55100 Y1.23226
X1.55100 Y1.23126
X1.55300 Y1.23126
X1.55300 Y1.23026
X1.55400 Y1.23026
X1.55400 Y1.22926
X1.55500 Y1.22926
X1.55500 Y1.22826
X1.55600 Y1.22826
X1.55600 Y1.22726
X1.55700 Y1.22726
X1.55700 Y1.22526
X1.55800 Y1.22526
X1.55800 Y1.22426
X1.55900 Y1.22426
X1.55900 Y1.22326
X1.56000 Y1.22326
X1.56000 Y1.22226
X1.56100 Y1.22226
X1.56100 Y1.22126
X1.56200 Y1.22126
X1.56200 Y1.22026
X1.56300 Y1.22026
X1.56300 Y1.21926
X1.56400 Y1.21926
X1.56400 Y1.21826
X1.56500 Y1.21826
X1.56500 Y1.21726
X1.56600 Y1.21726
X1.56600 Y1.21626
X1.56700 Y1.21626
X1.56700 Y1.21526
X1.56800 Y1.21526
X1.56800 Y1.21426
X1.56900 Y1.21426
X1.56900 Y1.21326
X1.57000 Y1.21326
X1.57000 Y1.21226
X1.57100 Y1.21226
X1.57100 Y1.21126
X1.57200 Y1.21126
X1.57200 Y1.21026
X1.57300 Y1.21026
X1.57300 Y1.20926
X1.57400 Y1.20926
X1.57400 Y1.20826
X1.57500 Y1.20826
X1.57500 Y1.20726
X1.57600 Y1.20726
X1.57600 Y1.20626
X1.57700 Y1.20626
X1.57700 Y1.20526
X1.57800 Y1.20526
X1.57800 Y1.20426
X1.57900 Y1.20426
X1.57900 Y1.20326
X1.58000 Y1.20326
X1.58000 Y1.20226
X1.58100 Y1.20226
X1.58100 Y1.20126
X1.58200 Y1.20126
X1.58200 Y1.20026
X1.58300 Y1.20026
X1.58300 Y1.19926
X1.58400 Y1.19926
X1.58400 Y1.19826
X1.58500 Y1.19826
X1.58500 Y1.19726
X1.58600 Y1.19726
X1.58600 Y1.19626
X1.58700 Y1.19626
X1.58700 Y1.19526
X1.58800 Y1.19526
X1.58800 Y1.19426
X1.58900 Y1.19426
X1.58900 Y1.19326
X1.59000 Y1.19326
X1.59000 Y1.19226
X1.59100 Y1.19226
X1.59100 Y1.19126
X1.59200 Y1.19126
X1.59200 Y1.19026
X1.59300 Y1.19026
X1.59300 Y1.18926
X1.59400 Y1.18926
X1.59400 Y1.18826
X1.59500 Y1.18826
X1.59500 Y1.18726
X1.59600 Y1.18726
X1.59600 Y1.18626
X1.59700 Y1.18626
X1.59700 Y1.18526
X1.59800 Y1.18526
X1.59800 Y1.18426
X1.59900 Y1.18426
X1.59900 Y1.18326
X1.60000 Y1.18326
X1.60000 Y1.18226
X1.60100 Y1.18226
X1.60100 Y1.18126
X1.60200 Y1.18126
X1.60200 Y1.18026
X1.60300 Y1.18026
X1.60300 Y1.17926
X1.60400 Y1.17926
X1.60400 Y1.17826
X1.60500 Y1.17826
X1.60500 Y1.17726
X1.60600 Y1.17726
X1.60600 Y1.17626
X1.60700 Y1.17626
X1.60700 Y1.17526
X1.60800 Y1.17526
X1.60800 Y1.17426
X1.60900 Y1.17426
X1.60900 Y1.17326
X1.61000 Y1.17326
X1.61000 Y1.17226
X1.61100 Y1.17226
X1.61100 Y1.17126
X1.61200 Y1.17126
X1.61200 Y1.17026
X1.61300 Y1.17026
X1.61300 Y1.16926
X1.61400 Y1.16926
X1.61400 Y1.16826
X1.61500 Y1.16826
X1.61500 Y1.16726
X1.61600 Y1.16726
X1.61600 Y1.16626
X1.61700 Y1.16626
X1.61700 Y1.16526
X1.61800 Y1.16526
X1.61800 Y1.16426
X1.61900 Y1.16426
X1.61900 Y1.16326
X1.62000 Y1.16326
X1.62000 Y1.16226
X1.62100 Y1.16226
X1.62100 Y1.16126
X1.62200 Y1.16126
X1.62200 Y1.16026
X1.62300 Y1.16026
X1.62300 Y1.15926
X1.62400 Y1.15926
X1.62400 Y1.15826
X1.62500 Y1.15826
X1.62500 Y1.15726
X1.62600 Y1.15726
X1.62600 Y1.15626
X1.63100 Y1.15626
X1.63100 Y1.15526
X2.09100 Y1.15526
X2.09100 Y1.15626
X2.09600 Y1.15626
X2.09600 Y1.15726
X2.09700 Y1.15726
X2.09700 Y1.15826
X2.09800 Y1.15826
X2.09800 Y1.15926
X2.09900 Y1.15926
X2.09900 Y1.16026
X2.10000 Y1.16026
X2.10000 Y1.16126
X2.10100 Y1.16126
X2.10100 Y1.16226
X2.10200 Y1.16226
X2.10200 Y1.16326
X2.10300 Y1.16326
X2.10300 Y1.16426
X2.10400 Y1.16426
X2.10400 Y1.16526
X2.10500 Y1.16526
X2.10500 Y1.16626
X2.10600 Y1.16626
X2.10600 Y1.16726
X2.10700 Y1.16726
X2.10700 Y1.16826
X2.10800 Y1.16826
X2.10800 Y1.16926
X2.10900 Y1.16926
X2.10900 Y1.17026
X2.11000 Y1.17026
X2.11000 Y1.17126
X2.11100 Y1.17126
X2.11100 Y1.17226
X2.11200 Y1.17226
X2.11200 Y1.17326
X2.11300 Y1.17326
X2.11300 Y1.17426
X2.11400 Y1.17426
X2.11400 Y1.17526
X2.11500 Y1.17526
X2.11500 Y1.17626
X2.11600 Y1.17626
X2.11600 Y1.17726
X2.11700 Y1.17726
X2.11700 Y1.17826
X2.11800 Y1.17826
X2.11800 Y1.17926
X2.11900 Y1.17926
X2.11900 Y1.18026
X2.12000 Y1.18026
X2.12000 Y1.18126
X2.12100 Y1.18126
X2.12100 Y1.18226
X2.12200 Y1.18226
X2.12200 Y1.18326
X2.12300 Y1.18326
X2.12300 Y1.18426
X2.12400 Y1.18426
X2.12400 Y1.18526
X2.12500 Y1.18526
X2.12500 Y1.18626
X2.12600 Y1.18626
X2.12600 Y1.18726
X2.12700 Y1.18726
X2.12700 Y1.18826
X2.12800 Y1.18826
X2.12800 Y1.18926
X2.12900 Y1.18926
X2.12900 Y1.19126
X2.13000 Y1.19126
X2.13000 Y1.19226
X2.13100 Y1.19226
X2.13100 Y1.19726
X2.13200 Y1.19726
X2.13200 Y1.25926
X2.13300 Y1.25926
X2.13300 Y1.26126
X2.13400 Y1.26126
X2.13400 Y1.26326
X2.13500 Y1.26326
X2.13500 Y1.26526
X2.13600 Y1.26526
X2.13600 Y1.26626
X2.13700 Y1.26626
X2.13700 Y1.27026
X2.13900 Y1.27026
X2.13900 Y1.27126
X2.14100 Y1.27126
X2.14100 Y1.27026
X2.14200 Y1.27026
X2.14200 Y1.26926
X2.14500 Y1.26926
X2.14500 Y1.26826
X2.15100 Y1.26826
X2.15100 Y1.26726
X2.15400 Y1.26726
X2.15400 Y1.26626
X2.15700 Y1.26626
X2.15700 Y1.25526
X2.15800 Y1.25526
X2.15800 Y1.25126
X2.15900 Y1.25126
X2.15900 Y1.24726
X2.16000 Y1.24726
X2.16000 Y1.24626
X2.16100 Y1.24626
X2.16100 Y1.24526
X2.16200 Y1.24526
X2.16200 Y1.24426
X2.16300 Y1.24426
X2.16300 Y1.24326
X2.16400 Y1.24326
X2.16400 Y1.24226
X2.16500 Y1.24226
X2.16500 Y1.24126
X2.16600 Y1.24126
X2.16600 Y1.24026
X2.16700 Y1.24026
X2.16700 Y1.23926
X2.17100 Y1.23926
X2.17100 Y1.23826
X2.17400 Y1.23826
X2.17400 Y1.23726
X2.17700 Y1.23726
X2.17700 Y1.23626
X2.17900 Y1.23626
X2.17900 Y1.23526
X2.18000 Y1.23526
X2.18000 Y1.23426
X2.18100 Y1.23426
X2.18100 Y1.23326
X2.18200 Y1.23326
X2.18200 Y1.23226
X2.18300 Y1.23226
X2.18300 Y1.23126
X2.18400 Y1.23126
X2.18400 Y1.23026
X2.18500 Y1.23026
X2.18500 Y1.22926
X2.18600 Y1.22926
X2.18600 Y1.22726
X2.18500 Y1.22726
X2.18500 Y1.22626
X2.18400 Y1.22626
X2.18400 Y1.22526
X2.18300 Y1.22526
X2.18300 Y1.22426
X2.18200 Y1.22426
X2.18200 Y1.22326
X2.18100 Y1.22326
X2.18100 Y1.22226
X2.18000 Y1.22226
X2.18000 Y1.22126
X2.17900 Y1.22126
X2.17900 Y1.22026
X2.17800 Y1.22026
X2.17800 Y1.21926
X2.17500 Y1.21926
X2.17500 Y1.21826
X2.17100 Y1.21826
X2.17100 Y1.21726
X2.16700 Y1.21726
X2.16700 Y1.21626
X2.16600 Y1.21626
X2.16600 Y1.21526
X2.16500 Y1.21526
X2.16500 Y1.21426
X2.16400 Y1.21426
X2.16400 Y1.21326
X2.16300 Y1.21326
X2.16300 Y1.21226
X2.16200 Y1.21226
X2.16200 Y1.21126
X2.16100 Y1.21126
X2.16100 Y1.21026
X2.16000 Y1.21026
X2.16000 Y1.20926
X2.15900 Y1.20926
X2.15900 Y1.20526
X2.15800 Y1.20526
X2.15800 Y1.20026
X2.15700 Y1.20026
X2.15700 Y1.19726
X2.15800 Y1.19726
X2.15800 Y1.19226
X2.15900 Y1.19226
X2.15900 Y1.18826
X2.16000 Y1.18826
X2.16000 Y1.18726
X2.16100 Y1.18726
X2.16100 Y1.18626
X2.16200 Y1.18626
X2.16200 Y1.18526
X2.16300 Y1.18526
X2.16300 Y1.18426
X2.16400 Y1.18426
X2.16400 Y1.18326
X2.16500 Y1.18326
X2.16500 Y1.18226
X2.16600 Y1.18226
X2.16600 Y1.18126
X2.16700 Y1.18126
X2.16700 Y1.18026
X2.17100 Y1.18026
X2.17100 Y1.17926
X2.17400 Y1.17926
X2.17400 Y1.17826
X2.18100 Y1.17826
X2.18100 Y1.17926
X2.18400 Y1.17926
X2.18400 Y1.18026
X2.18800 Y1.18026
X2.18800 Y1.18126
X2.18900 Y1.18126
X2.18900 Y1.18226
X2.19000 Y1.18226
X2.19000 Y1.18326
X2.19100 Y1.18326
X2.19100 Y1.18426
X2.19200 Y1.18426
X2.19200 Y1.18526
X2.19300 Y1.18526
X2.19300 Y1.18626
X2.19400 Y1.18626
X2.19400 Y1.18726
X2.19500 Y1.18726
X2.19500 Y1.18826
X2.19600 Y1.18826
X2.19600 Y1.19226
X2.19700 Y1.19226
X2.19700 Y1.19426
X2.19800 Y1.19426
X2.19800 Y1.19726
X2.19900 Y1.19726
X2.19900 Y1.19826
X2.24800 Y1.19826
X2.24800 Y1.19726
X2.25000 Y1.19726
X2.25000 Y1.19526
X2.25100 Y1.19526
X2.25100 Y1.18226
X2.25200 Y1.18226
X2.25200 Y1.17926
X2.38700 Y1.17926
X2.38700 Y1.12526
X1.19900 Y1.12526
X1.19900 Y2.09826
X2.38700 Y2.09826
X2.38700 Y2.08826
G04 P0 ( dwell for no time -- G64 should not smooth over this point )
G00 Z0.10000 ( retract )

G00 X1.89900 Y1.80826 ( rapid move to begin. )
G01 Z-0.00500 F10.00000 ( plunge. )
G04 P0 ( dwell for no time -- G64 should not smooth over this point )
X1.89900 Y1.80826
X1.89900 Y1.80626
X1.90100 Y1.80626
X1.90100 Y1.80526
X1.90600 Y1.80526
X1.90600 Y1.80426
X1.91000 Y1.80426
X1.91000 Y1.80326
X1.91100 Y1.80326
X1.91100 Y1.80226
X1.91200 Y1.80226
X1.91200 Y1.80126
X1.91300 Y1.80126
X1.91300 Y1.80026
X1.91400 Y1.80026
X1.91400 Y1.79926
X1.91500 Y1.79926
X1.91500 Y1.79826
X1.91600 Y1.79826
X1.91600 Y1.79726
X1.91700 Y1.79726
X1.91700 Y1.79626
X1.91800 Y1.79626
X1.91800 Y1.79526
X1.91900 Y1.79526
X1.91900 Y1.79426
X1.92000 Y1.79426
X1.92000 Y1.79326
X1.92100 Y1.79326
X1.92100 Y1.79226
X1.92200 Y1.79226
X1.92200 Y1.79126
X1.92300 Y1.79126
X1.92300 Y1.79026
X1.92400 Y1.79026
X1.92400 Y1.78926
X1.92500 Y1.78926
X1.92500 Y1.78826
X1.92600 Y1.78826
X1.92600 Y1.78726
X1.92700 Y1.78726
X1.92700 Y1.78626
X1.92800 Y1.78626
X1.92800 Y1.78526
X1.92900 Y1.78526
X1.92900 Y1.78426
X1.93000 Y1.78426
X1.93000 Y1.78326
X1.93100 Y1.78326
X1.93100 Y1.78226
X1.93200 Y1.78226
X1.93200 Y1.78126
X1.93300 Y1.78126
X1.93300 Y1.78026
X1.93400 Y1.78026
X1.93400 Y1.77926
X1.93500 Y1.77926
X1.93500 Y1.77826
X1.93600 Y1.77826
X1.93600 Y1.77726
X1.93700 Y1.77726
X1.93700 Y1.77626
X1.93800 Y1.77626
X1.93800 Y1.77526
X1.93900 Y1.77526
X1.93900 Y1.77426
X1.94000 Y1.77426
X1.94000 Y1.77326
X1.94100 Y1.77326
X1.94100 Y1.77226
X1.94200 Y1.77226
X1.94200 Y1.77126
X1.94300 Y1.77126
X1.94300 Y1.77026
X1.94400 Y1.77026
X1.94400 Y1.76926
X1.94500 Y1.76926
X1.94500 Y1.76826
X1.94600 Y1.76826
X1.94600 Y1.76726
X1.94700 Y1.76726
X1.94700 Y1.76626
X1.94800 Y1.76626
X1.94800 Y1.76526
X1.94900 Y1.76526
X1.94900 Y1.76426
X1.95000 Y1.76426
X1.95000 Y1.76326
X1.95100 Y1.76326
X1.95100 Y1.76226
X1.95200 Y1.76226
X1.95200 Y1.76126
X1.95300 Y1.76126
X1.95300 Y1.76026
X1.95400 Y1.76026
X1.95400 Y1.75926
X1.95500 Y1.75926
X1.95500 Y1.75826
X1.95600 Y1.75826
X1.95600 Y1.75726
X1.95700 Y1.75726
X1.95700 Y1.75626
X1.95800 Y1.75626
X1.95800 Y1.75526
X1.95900 Y1.75526
X1.95900 Y1.75426
X1.96000 Y1.75426
X1.96000 Y1.75326
X1.96100 Y1.75326
X1.96100 Y1.75226
X1.96200 Y1.75226
X1.96200 Y1.75126
X1.96300 Y1.75126
X1.96300 Y1.75026
X1.96400 Y1.75026
X1.96400 Y1.74926
X1.96500 Y1.74926
X1.96500 Y1.74826
X1.96600 Y1.74826
X1.96600 Y1.74726
X1.96700 Y1.74726
X1.96700 Y1.74626
X1.96900 Y1.74626
X1.96900 Y1.74526
X1.97100 Y1.74526
X1.97100 Y1.74426
X1.97400 Y1.74426
X1.97400 Y1.74326
X2.12000 Y1.74326
X2.12000 Y1.74226
X2.12500 Y1.74226
X2.12500 Y1.74126
X2.12600 Y1.74126
X2.12600 Y1.74026
X2.12700 Y1.74026
X2.12700 Y1.73926
X2.12800 Y1.73926
X2.12800 Y1.73826
X2.12900 Y1.73826
X2.12900 Y1.73726
X2.13000 Y1.73726
X2.13000 Y1.73626
X2.13100 Y1.73626
X2.13100 Y1.73526
X2.13200 Y1.73526
X2.13200 Y1.73426
X2.13400 Y1.73426
X2.13400 Y1.73326
X2.13500 Y1.73326
X2.13500 Y1.73226
X2.13600 Y1.73226
X2.13600 Y1.73126
X2.13700 Y1.73126
X2.13700 Y1.73026
X2.13800 Y1.73026
X2.13800 Y1.72926
X2.13900 Y1.72926
X2.13900 Y1.72826
X2.14000 Y1.72826
X2.14000 Y1.72726
X2.14100 Y1.72726
X2.14100 Y1.72626
X2.14200 Y1.72626
X2.14200 Y1.72526
X2.14300 Y1.72526
X2.14300 Y1.72426
X2.14400 Y1.72426
X2.14400 Y1.72326
X2.14500 Y1.72326
X2.14500 Y1.72226
X2.14600 Y1.72226
X2.14600 Y1.72126
X2.14700 Y1.72126
X2.14700 Y1.72026
X2.14800 Y1.72026
X2.14800 Y1.71926
X2.14900 Y1.71926
X2.14900 Y1.71826
X2.15000 Y1.71826
X2.15000 Y1.71726
X2.15100 Y1.71726
X2.15100 Y1.71126
X2.15200 Y1.71126
X2.15200 Y1.61026
X2.15100 Y1.61026
X2.15100 Y1.60526
X2.15000 Y1.60526
X2.15000 Y1.60426
X2.14900 Y1.60426
X2.14900 Y1.60326
X2.14800 Y1.60326
X2.14800 Y1.60226
X2.14700 Y1.60226
X2.14700 Y1.60126
X2.14600 Y1.60126
X2.14600 Y1.60026
X2.14500 Y1.60026
X2.14500 Y1.59926
X2.14400 Y1.59926
X2.14400 Y1.59826
X2.14300 Y1.59826
X2.14300 Y1.59726
X2.14200 Y1.59726
X2.14200 Y1.59626
X2.14100 Y1.59626
X2.14100 Y1.59526
X2.14000 Y1.59526
X2.14000 Y1.59426
X2.13900 Y1.59426
X2.13900 Y1.59326
X2.13800 Y1.59326
X2.13800 Y1.59226
X2.13700 Y1.59226
X2.13700 Y1.59126
X2.13600 Y1.59126
X2.13600 Y1.59026
X2.13500 Y1.59026
X2.13500 Y1.58926
X2.13400 Y1.58926
X2.13400 Y1.58826
X2.13300 Y1.58826
X2.13300 Y1.58726
X2.13200 Y1.58726
X2.13200 Y1.58626
X2.13100 Y1.58626
X2.13100 Y1.58526
X2.13000 Y1.58526
X2.13000 Y1.58426
X2.12900 Y1.58426
X2.12900 Y1.58326
X2.12800 Y1.58326
X2.12800 Y1.58226
X2.12700 Y1.58226
X2.12700 Y1.58126
X2.12600 Y1.58126
X2.12600 Y1.58026
X2.12500 Y1.58026
X2.12500 Y1.57926
X2.12400 Y1.57926
X2.12400 Y1.57826
X2.12300 Y1.57826
X2.12300 Y1.57726
X2.12200 Y1.57726
X2.12200 Y1.57626
X2.12100 Y1.57626
X2.12100 Y1.57526
X2.12000 Y1.57526
X2.12000 Y1.57426
X2.11900 Y1.57426
X2.11900 Y1.57326
X2.11800 Y1.57326
X2.11800 Y1.57226
X2.11700 Y1.57226
X2.11700 Y1.57126
X2.11600 Y1.57126
X2.11600 Y1.57026
X2.11500 Y1.57026
X2.11500 Y1.56826
X2.11400 Y1.56826
X2.11400 Y1.56626
X2.11300 Y1.56626
X2.11300 Y1.37726
X2.11400 Y1.37726
X2.11400 Y1.37526
X2.11500 Y1.37526
X2.11500 Y1.37326
X2.11600 Y1.37326
X2.11600 Y1.37226
X2.11700 Y1.37226
X2.11700 Y1.37126
X2.11800 Y1.37126
X2.11800 Y1.37026
X2.11900 Y1.37026
X2.11900 Y1.36926
X2.12000 Y1.36926
X2.12000 Y1.36826
X2.12100 Y1.36826
X2.12100 Y1.36726
X2.12200 Y1.36726
X2.12200 Y1.36626
X2.12300 Y1.36626
X2.12300 Y1.36526
X2.12400 Y1.36526
X2.12400 Y1.36426
X2.12500 Y1.36426
X2.12500 Y1.36326
X2.12600 Y1.36326
X2.12600 Y1.36226
X2.12700 Y1.36226
X2.12700 Y1.36126
X2.12800 Y1.36126
X2.12800 Y1.36026
X2.12900 Y1.36026
X2.12900 Y1.35926
X2.13000 Y1.35926
X2.13000 Y1.35826
X2.13100 Y1.35826
X2.13100 Y1.35726
X2.13200 Y1.35726
X2.13200 Y1.35626
X2.13300 Y1.35626
X2.13300 Y1.35526
X2.13400 Y1.35526
X2.13400 Y1.35426
X2.13500 Y1.35426
X2.13500 Y1.35326
X2.13600 Y1.35326
X2.13600 Y1.35226
X2.13700 Y1.35226
X2.13700 Y1.35126
X2.13800 Y1.35126
X2.13800 Y1.35026
X2.13900 Y1.35026
X2.13900 Y1.34926
X2.14000 Y1.34926
X2.14000 Y1.34826
X2.14100 Y1.34826
X2.14100 Y1.34726
X2.14200 Y1.34726
X2.14200 Y1.34626
X2.14300 Y1.34626
X2.14300 Y1.34526
X2.14400 Y1.34526
X2.14400 Y1.34426
X2.14500 Y1.34426
X2.14500 Y1.34326
X2.14600 Y1.34326
X2.14600 Y1.34226
X2.14700 Y1.34226
X2.14700 Y1.34126
X2.14800 Y1.34126
X2.14800 Y1.34026
X2.14900 Y1.34026
X2.14900 Y1.33926
X2.15000 Y1.33926
X2.15000 Y1.33826
X2.15100 Y1.33826
X2.15100 Y1.33726
X2.15200 Y1.33726
X2.15200 Y1.33626
X2.15300 Y1.33626
X2.15300 Y1.33526
X2.15400 Y1.33526
X2.15400 Y1.33426
X2.15500 Y1.33426
X2.15500 Y1.33326
X2.15600 Y1.33326
X2.15600 Y1.33226
X2.15700 Y1.33226
X2.15700 Y1.33126
X2.15800 Y1.33126
X2.15800 Y1.33026
X2.15900 Y1.33026
X2.15900 Y1.32926
X2.16000 Y1.32926
X2.16000 Y1.32826
X2.16100 Y1.32826
X2.16100 Y1.32726
X2.16200 Y1.32726
X2.16200 Y1.32626
X2.16300 Y1.32626
X2.16300 Y1.32526
X2.16400 Y1.32526
X2.16400 Y1.32426
X2.16500 Y1.32426
X2.16500 Y1.32326
X2.16600 Y1.32326
X2.16600 Y1.32226
X2.16700 Y1.32226
X2.16700 Y1.32126
X2.16800 Y1.32126
X2.16800 Y1.32026
X2.16900 Y1.32026
X2.16900 Y1.31926
X2.17000 Y1.31926
X2.17000 Y1.31826
X2.17100 Y1.31826
X2.17100 Y1.31726
X2.17200 Y1.31726
X2.17200 Y1.31626
X2.17300 Y1.31626
X2.17300 Y1.31526
X2.17400 Y1.31526
X2.17400 Y1.31426
X2.17500 Y1.31426
X2.17500 Y1.31326
X2.17600 Y1.31326
X2.17600 Y1.31226
X2.17700 Y1.31226
X2.17700 Y1.31126
X2.17800 Y1.31126
X2.17800 Y1.31026
X2.17900 Y1.31026
X2.17900 Y1.30926
X2.18000 Y1.30926
X2.18000 Y1.30826
X2.18100 Y1.30826
X2.18100 Y1.30726
X2.18200 Y1.30726
X2.18200 Y1.30626
X2.18300 Y1.30626
X2.18300 Y1.30526
X2.18400 Y1.30526
X2.18400 Y1.30426
X2.18500 Y1.30426
X2.18500 Y1.30326
X2.18600 Y1.30326
X2.18600 Y1.30226
X2.18700 Y1.30226
X2.18700 Y1.30126
X2.18800 Y1.30126
X2.18800 Y1.30026
X2.19000 Y1.30026
X2.19000 Y1.29926
X2.19200 Y1.29926
X2.19200 Y1.29826
X2.19500 Y1.29826
X2.19500 Y1.29726
X2.24800 Y1.29726
X2.24800 Y1.29826
X2.25100 Y1.29826
X2.25100 Y1.29726
X2.38700 Y1.29726
X2.38700 Y1.27726
X2.25200 Y1.27726
X2.25200 Y1.27626
X2.25100 Y1.27626
X2.25100 Y1.27526
X2.25000 Y1.27526
X2.25000 Y1.27426
X2.24900 Y1.27426
X2.24900 Y1.27326
X2.24800 Y1.27326
X2.24800 Y1.27226
X2.24700 Y1.27226
X2.24700 Y1.27126
X2.24600 Y1.27126
X2.24600 Y1.27026
X2.24500 Y1.27026
X2.24500 Y1.26926
X2.24400 Y1.26926
X2.24400 Y1.26826
X2.24300 Y1.26826
X2.24300 Y1.26726
X2.20600 Y1.26726
X2.20600 Y1.26826
X2.20500 Y1.26826
X2.20500 Y1.26926
X2.20400 Y1.26926
X2.20400 Y1.27026
X2.20200 Y1.27026
X2.20200 Y1.27126
X2.20100 Y1.27126
X2.20100 Y1.27226
X2.20000 Y1.27226
X2.20000 Y1.27326
X2.19700 Y1.27326
X2.19700 Y1.27426
X2.19500 Y1.27426
X2.19500 Y1.27526
X2.19100 Y1.27526
X2.19100 Y1.27626
X2.18400 Y1.27626
X2.18400 Y1.27726
X2.17800 Y1.27726
X2.17800 Y1.27826
X2.17500 Y1.27826
X2.17500 Y1.27926
X2.17100 Y1.27926
X2.17100 Y1.28426
X2.17000 Y1.28426
X2.17000 Y1.28726
X2.16900 Y1.28726
X2.16900 Y1.29026
X2.16800 Y1.29026
X2.16800 Y1.29126
X2.16700 Y1.29126
X2.16700 Y1.29226
X2.16600 Y1.29226
X2.16600 Y1.29326
X2.16500 Y1.29326
X2.16500 Y1.29426
X2.16400 Y1.29426
X2.16400 Y1.29526
X2.16300 Y1.29526
X2.16300 Y1.29626
X2.16200 Y1.29626
X2.16200 Y1.29726
X2.16100 Y1.29726
X2.16100 Y1.29826
X2.16000 Y1.29826
X2.16000 Y1.29926
X2.15900 Y1.29926
X2.15900 Y1.30026
X2.15800 Y1.30026
X2.15800 Y1.30126
X2.15700 Y1.30126
X2.15700 Y1.30226
X2.15600 Y1.30226
X2.15600 Y1.30326
X2.15500 Y1.30326
X2.15500 Y1.30426
X2.15400 Y1.30426
X2.15400 Y1.30526
X2.15300 Y1.30526
X2.15300 Y1.30626
X2.15200 Y1.30626
X2.15200 Y1.30726
X2.15100 Y1.30726
X2.15100 Y1.30826
X2.15000 Y1.30826
X2.15000 Y1.30926
X2.14900 Y1.30926
X2.14900 Y1.31026
X2.14800 Y1.31026
X2.14800 Y1.31126
X2.14700 Y1.31126
X2.14700 Y1.31226
X2.14600 Y1.31226
X2.14600 Y1.31326
X2.14500 Y1.31326
X2.14500 Y1.31426
X2.14400 Y1.31426
X2.14400 Y1.31526
X2.14300 Y1.31526
X2.14300 Y1.31626
X2.14200 Y1.31626
X2.14200 Y1.31726
X2.14100 Y1.31726
X2.14100 Y1.31826
X2.14000 Y1.31826
X2.14000 Y1.31926
X2.13900 Y1.31926
X2.13900 Y1.32026
X2.13800 Y1.32026
X2.13800 Y1.32126
X2.13700 Y1.32126
X2.13700 Y1.32226
X2.13600 Y1.32226
X2.13600 Y1.32326
X2.13500 Y1.32326
X2.13500 Y1.32426
X2.13400 Y1.32426
X2.13400 Y1.32526
X2.13300 Y1.32526
X2.13300 Y1.32626
X2.13200 Y1.32626
X2.13200 Y1.32726
X2.13100 Y1.32726
X2.13100 Y1.32826
X2.13000 Y1.32826
X2.13000 Y1.32926
X2.12900 Y1.32926
X2.12900 Y1.33026
X2.12800 Y1.33026
X2.12800 Y1.33126
X2.12700 Y1.33126
X2.12700 Y1.33226
X2.12600 Y1.33226
X2.12600 Y1.33326
X2.12500 Y1.33326
X2.12500 Y1.33426
X2.12400 Y1.33426
X2.12400 Y1.33526
X2.12300 Y1.33526
X2.12300 Y1.33626
X2.12200 Y1.33626
X2.12200 Y1.33726
X2.12100 Y1.33726
X2.12100 Y1.33826
X2.12000 Y1.33826
X2.12000 Y1.33926
X2.11900 Y1.33926
X2.11900 Y1.34026
X2.11800 Y1.34026
X2.11800 Y1.34126
X2.11700 Y1.34126
X2.11700 Y1.34226
X2.11600 Y1.34226
X2.11600 Y1.34326
X2.11500 Y1.34326
X2.11500 Y1.34426
X2.11400 Y1.34426
X2.11400 Y1.34526
X2.11300 Y1.34526
X2.11300 Y1.34626
X2.11200 Y1.34626
X2.11200 Y1.34726
X2.11100 Y1.34726
X2.11100 Y1.34826
X2.11000 Y1.34826
X2.11000 Y1.34926
X2.10900 Y1.34926
X2.10900 Y1.35026
X2.10800 Y1.35026
X2.10800 Y1.35126
X2.10700 Y1.35126
X2.10700 Y1.35226
X2.10600 Y1.35226
X2.10600 Y1.35326
X2.10500 Y1.35326
X2.10500 Y1.35426
X2.10400 Y1.35426
X2.10400 Y1.35526
X2.10300 Y1.35526
X2.10300 Y1.35626
X2.10200 Y1.35626
X2.10200 Y1.35726
X2.10100 Y1.35726
X2.10100 Y1.35826
X2.10000 Y1.35826
X2.10000 Y1.35926
X2.09900 Y1.35926
X2.09900 Y1.36026
X2.09800 Y1.36026
X2.09800 Y1.36126
X2.09700 Y1.36126
X2.09700 Y1.36226
X2.09400 Y1.36226
X2.09400 Y1.36326
X2.09200 Y1.36326
X2.09200 Y1.36426
X2.09100 Y1.36426
X2.09100 Y1.36526
X2.08900 Y1.36526
X2.08900 Y1.36626
X2.08700 Y1.36626
X2.08700 Y1.36726
X2.08500 Y1.36726
X2.08500 Y1.36826
X2.08400 Y1.36826
X2.08400 Y1.36926
X2.08300 Y1.36926
X2.08300 Y1.37026
X2.08200 Y1.37026
X2.08200 Y1.37126
X2.08100 Y1.37126
X2.08100 Y1.37226
X2.08000 Y1.37226
X2.08000 Y1.37326
X2.07800 Y1.37326
X2.07800 Y1.45426
X2.07700 Y1.45426
X2.07700 Y1.45526
X2.07600 Y1.45526
X2.07600 Y1.45626
X2.07500 Y1.45626
X2.07500 Y1.45726
X2.07400 Y1.45726
X2.07400 Y1.45826
X2.07300 Y1.45826
X2.07300 Y1.45926
X2.07200 Y1.45926
X2.07200 Y1.46026
X2.07100 Y1.46026
X2.07100 Y1.46126
X2.07000 Y1.46126
X2.07000 Y1.46226
X2.06900 Y1.46226
X2.06900 Y1.46326
X2.06800 Y1.46326
X2.06800 Y1.46426
X2.06700 Y1.46426
X2.06700 Y1.46526
X2.06600 Y1.46526
X2.06600 Y1.46726
X2.06500 Y1.46726
X2.06500 Y1.47126
X2.06600 Y1.47126
X2.06600 Y1.47326
X2.06700 Y1.47326
X2.06700 Y1.47426
X2.06800 Y1.47426
X2.06800 Y1.47526
X2.06900 Y1.47526
X2.06900 Y1.47626
X2.07000 Y1.47626
X2.07000 Y1.47726
X2.07100 Y1.47726
X2.07100 Y1.47826
X2.07200 Y1.47826
X2.07200 Y1.47926
X2.07300 Y1.47926
X2.07300 Y1.48026
X2.07400 Y1.48026
X2.07400 Y1.48126
X2.07500 Y1.48126
X2.07500 Y1.48226
X2.07600 Y1.48226
X2.07600 Y1.48326
X2.07700 Y1.48326
X2.07700 Y1.48426
X2.07800 Y1.48426
X2.07800 Y1.57326
X2.07900 Y1.57326
X2.07900 Y1.57426
X2.08000 Y1.57426
X2.08000 Y1.57526
X2.08100 Y1.57526
X2.08100 Y1.57626
X2.08200 Y1.57626
X2.08200 Y1.57726
X2.08300 Y1.57726
X2.08300 Y1.57826
X2.08400 Y1.57826
X2.08400 Y1.57926
X2.08500 Y1.57926
X2.08500 Y1.58026
X2.08700 Y1.58026
X2.08700 Y1.58126
X2.08900 Y1.58126
X2.08900 Y1.58326
X2.09000 Y1.58326
X2.09000 Y1.58426
X2.09100 Y1.58426
X2.09100 Y1.58526
X2.09200 Y1.58526
X2.09200 Y1.58626
X2.09300 Y1.58626
X2.09300 Y1.58726
X2.09400 Y1.58726
X2.09400 Y1.58826
X2.09500 Y1.58826
X2.09500 Y1.58926
X2.09600 Y1.58926
X2.09600 Y1.59026
X2.09700 Y1.59026
X2.09700 Y1.59126
X2.09800 Y1.59126
X2.09800 Y1.59226
X2.09900 Y1.59226
X2.09900 Y1.59326
X2.10000 Y1.59326
X2.10000 Y1.59426
X2.10100 Y1.59426
X2.10100 Y1.59526
X2.10200 Y1.59526
X2.10200 Y1.59626
X2.10300 Y1.59626
X2.10300 Y1.59726
X2.10400 Y1.59726
X2.10400 Y1.59826
X2.10500 Y1.59826
X2.10500 Y1.59926
X2.10600 Y1.59926
X2.10600 Y1.60026
X2.10700 Y1.60026
X2.10700 Y1.60126
X2.10800 Y1.60126
X2.10800 Y1.60226
X2.10900 Y1.60226
X2.10900 Y1.60326
X2.11000 Y1.60326
X2.11000 Y1.60426
X2.11100 Y1.60426
X2.11100 Y1.60526
X2.11200 Y1.60526
X2.11200 Y1.60626
X2.11300 Y1.60626
X2.11300 Y1.60726
X2.11400 Y1.60726
X2.11400 Y1.60826
X2.11500 Y1.60826
X2.11500 Y1.60926
X2.11600 Y1.60926
X2.11600 Y1.61026
X2.11700 Y1.61026
X2.11700 Y1.61126
X2.11800 Y1.61126
X2.11800 Y1.61226
X2.11900 Y1.61226
X2.11900 Y1.61326
X2.12000 Y1.61326
X2.12000 Y1.61426
X2.12100 Y1.61426
X2.12100 Y1.61526
X2.12200 Y1.61526
X2.12200 Y1.61626
X2.12300 Y1.61626
X2.12300 Y1.61926
X2.12400 Y1.61926
X2.12400 Y1.70326
X2.12300 Y1.70326
X2.12300 Y1.70626
X2.12200 Y1.70626
X2.12200 Y1.70726
X2.12100 Y1.70726
X2.12100 Y1.70826
X2.12000 Y1.70826
X2.12000 Y1.70926
X2.11900 Y1.70926
X2.11900 Y1.71026
X2.11800 Y1.71026
X2.11800 Y1.71126
X2.11700 Y1.71126
X2.11700 Y1.71226
X2.11600 Y1.71226
X2.11600 Y1.71326
X2.11400 Y1.71326
X2.11400 Y1.71426
X2.11100 Y1.71426
X2.11100 Y1.71526
X2.09000 Y1.71526
X2.09000 Y1.71426
X2.08700 Y1.71426
X2.08700 Y1.71326
X2.08600 Y1.71326
X2.08600 Y1.71226
X2.08500 Y1.71226
X2.08500 Y1.71126
X2.08400 Y1.71126
X2.08400 Y1.71026
X2.08300 Y1.71026
X2.08300 Y1.70926
X2.03400 Y1.70926
X2.03400 Y1.71026
X2.03300 Y1.71026
X2.03300 Y1.71126
X2.03200 Y1.71126
X2.03200 Y1.71226
X2.03100 Y1.71226
X2.03100 Y1.71326
X2.03000 Y1.71326
X2.03000 Y1.71426
X2.02700 Y1.71426
X2.02700 Y1.71526
X1.98300 Y1.71526
X1.98300 Y1.71426
X1.98000 Y1.71426
X1.98000 Y1.71326
X1.97900 Y1.71326
X1.97900 Y1.71226
X1.97800 Y1.71226
X1.97800 Y1.71126
X1.97700 Y1.71126
X1.97700 Y1.70826
X1.97800 Y1.70826
X1.97800 Y1.70726
X1.97900 Y1.70726
X1.97900 Y1.70626
X1.98000 Y1.70626
X1.98000 Y1.70526
X1.98100 Y1.70526
X1.98100 Y1.70426
X1.98200 Y1.70426
X1.98200 Y1.63626
X1.98100 Y1.63626
X1.98100 Y1.63326
X1.98000 Y1.63326
X1.98000 Y1.63126
X1.97800 Y1.63126
X1.97800 Y1.63026
X1.97500 Y1.63026
X1.97500 Y1.62926
X1.96100 Y1.62926
X1.96100 Y1.62826
X1.95900 Y1.62826
X1.95900 Y1.62626
X1.95700 Y1.62626
X1.95700 Y1.62526
X1.95500 Y1.62526
X1.95500 Y1.62426
X1.95400 Y1.62426
X1.95400 Y1.62326
X1.95300 Y1.62326
X1.95300 Y1.62226
X1.95200 Y1.62226
X1.95200 Y1.62126
X1.95100 Y1.62126
X1.95100 Y1.62026
X1.95000 Y1.62026
X1.95000 Y1.61926
X1.94900 Y1.61926
X1.94900 Y1.61826
X1.94800 Y1.61826
X1.94800 Y1.61726
X1.94700 Y1.61726
X1.94700 Y1.61626
X1.94600 Y1.61626
X1.94600 Y1.61526
X1.94500 Y1.61526
X1.94500 Y1.61426
X1.94400 Y1.61426
X1.94400 Y1.61326
X1.94300 Y1.61326
X1.94300 Y1.61226
X1.94200 Y1.61226
X1.94200 Y1.61126
X1.94100 Y1.61126
X1.94100 Y1.61026
X1.94000 Y1.61026
X1.94000 Y1.60926
X1.93900 Y1.60926
X1.93900 Y1.60826
X1.93800 Y1.60826
X1.93800 Y1.60726
X1.93700 Y1.60726
X1.93700 Y1.60626
X1.93600 Y1.60626
X1.93600 Y1.60526
X1.93500 Y1.60526
X1.93500 Y1.60226
X1.93400 Y1.60226
X1.93400 Y1.59926
X1.93300 Y1.59926
X1.93300 Y1.59626
X1.93200 Y1.59626
X1.93200 Y1.59326
X1.93100 Y1.59326
X1.93100 Y1.58926
X1.93000 Y1.58926
X1.93000 Y1.57626
X1.92900 Y1.57626
X1.92900 Y1.57326
X1.92800 Y1.57326
X1.92800 Y1.54326
X1.99700 Y1.54326
X1.99700 Y1.54226
X1.99800 Y1.54226
X1.99800 Y1.54126
X1.99900 Y1.54126
X1.99900 Y1.54026
X2.00000 Y1.54026
X2.00000 Y1.53926
X2.00100 Y1.53926
X2.00100 Y1.53826
X2.00200 Y1.53826
X2.00200 Y1.53726
X2.00300 Y1.53726
X2.00300 Y1.53626
X2.00400 Y1.53626
X2.00400 Y1.53526
X2.00500 Y1.53526
X2.00500 Y1.53426
X2.00600 Y1.53426
X2.00600 Y1.52926
X2.00500 Y1.52926
X2.00500 Y1.52626
X2.00400 Y1.52626
X2.00400 Y1.52326
X2.00300 Y1.52326
X2.00300 Y1.52026
X2.00200 Y1.52026
X2.00200 Y1.51726
X2.00100 Y1.51726
X2.00100 Y1.51426
X2.00000 Y1.51426
X2.00000 Y1.51126
X1.99900 Y1.51126
X1.99900 Y1.50826
X1.99800 Y1.50826
X1.99800 Y1.50526
X1.99700 Y1.50526
X1.99700 Y1.50226
X1.99600 Y1.50226
X1.99600 Y1.49926
X1.99500 Y1.49926
X1.99500 Y1.49626
X1.99400 Y1.49626
X1.99400 Y1.49326
X1.99300 Y1.49326
X1.99300 Y1.49226
X1.99200 Y1.49226
X1.99200 Y1.49126
X1.93100 Y1.49126
X1.93100 Y1.49226
X1.92800 Y1.49226
X1.92800 Y1.49126
X1.92600 Y1.49126
X1.92600 Y1.49026
X1.92200 Y1.49026
X1.92200 Y1.48926
X1.91500 Y1.48926
X1.91500 Y1.48826
X1.89100 Y1.48826
X1.89100 Y1.49026
X1.89000 Y1.49026
X1.89000 Y1.49126
X1.88900 Y1.49126
X1.88900 Y1.49326
X1.88800 Y1.49326
X1.88800 Y1.49526
X1.88700 Y1.49526
X1.88700 Y1.49726
X1.88600 Y1.49726
X1.88600 Y1.50126
X1.88500 Y1.50126
X1.88500 Y1.50226
X1.88400 Y1.50226
X1.88400 Y1.50726
X1.88300 Y1.50726
X1.88300 Y1.51026
X1.88200 Y1.51026
X1.88200 Y1.51726
X1.88300 Y1.51726
X1.88300 Y1.52026
X1.88400 Y1.52026
X1.88400 Y1.52426
X1.88500 Y1.52426
X1.88500 Y1.52526
X1.88600 Y1.52526
X1.88600 Y1.52726
X1.88700 Y1.52726
X1.88700 Y1.52926
X1.88800 Y1.52926
X1.88800 Y1.53126
X1.88900 Y1.53126
X1.88900 Y1.59426
X1.89000 Y1.59426
X1.89000 Y1.59826
X1.89100 Y1.59826
X1.89100 Y1.60026
X1.89200 Y1.60026
X1.89200 Y1.60126
X1.89300 Y1.60126
X1.89300 Y1.60226
X1.89400 Y1.60226
X1.89400 Y1.60326
X1.89500 Y1.60326
X1.89500 Y1.60426
X1.89700 Y1.60426
X1.89700 Y1.60526
X1.89800 Y1.60526
X1.89800 Y1.60626
X1.89900 Y1.60626
X1.89900 Y1.60726
X1.90000 Y1.60726
X1.90000 Y1.60826
X1.90100 Y1.60826
X1.90100 Y1.60926
X1.90200 Y1.60926
X1.90200 Y1.61026
X1.90300 Y1.61026
X1.90300 Y1.61126
X1.90400 Y1.61126
X1.90400 Y1.61226
X1.90500 Y1.61226
X1.90500 Y1.61326
X1.90600 Y1.61326
X1.90600 Y1.61426
X1.90700 Y1.61426
X1.90700 Y1.61526
X1.90800 Y1.61526
X1.90800 Y1.61626
X1.90900 Y1.61626
X1.90900 Y1.61726
X1.91000 Y1.61726
X1.91000 Y1.61826
X1.91100 Y1.61826
X1.91100 Y1.61926
X1.91200 Y1.61926
X1.91200 Y1.62026
X1.91300 Y1.62026
X1.91300 Y1.62226
X1.91400 Y1.62226
X1.91400 Y1.62426
X1.91500 Y1.62426
X1.91500 Y1.62726
X1.91600 Y1.62726
X1.91600 Y1.65626
X1.91500 Y1.65626
X1.91500 Y1.65926
X1.91400 Y1.65926
X1.91400 Y1.66126
X1.91300 Y1.66126
X1.91300 Y1.66226
X1.91200 Y1.66226
X1.91200 Y1.66326
X1.91100 Y1.66326
X1.91100 Y1.66426
X1.90900 Y1.66426
X1.90900 Y1.69026
X1.90800 Y1.69026
X1.90800 Y1.69326
X1.90700 Y1.69326
X1.90700 Y1.69726
X1.90600 Y1.69726
X1.90600 Y1.69926
X1.90500 Y1.69926
X1.90500 Y1.70126
X1.90400 Y1.70126
X1.90400 Y1.70226
X1.90300 Y1.70226
X1.90300 Y1.70426
X1.90200 Y1.70426
X1.90200 Y1.70526
X1.90100 Y1.70526
X1.90100 Y1.70626
X1.90000 Y1.70626
X1.90000 Y1.70726
X1.89900 Y1.70726
X1.89900 Y1.70826
X1.89800 Y1.70826
X1.89800 Y1.71026
X1.89700 Y1.71026
X1.89700 Y1.71326
X1.89600 Y1.71326
X1.89600 Y1.71526
X1.89500 Y1.71526
X1.89500 Y1.71726
X1.89400 Y1.71726
X1.89400 Y1.71826
X1.89300 Y1.71826
X1.89300 Y1.71926
X1.88900 Y1.71926
X1.88900 Y1.71826
X1.88600 Y1.71826
X1.88600 Y1.71726
X1.88300 Y1.71726
X1.88300 Y1.71626
X1.88000 Y1.71626
X1.88000 Y1.71526
X1.87500 Y1.71526
X1.87500 Y1.71426
X1.85000 Y1.71426
X1.85000 Y1.71526
X1.84900 Y1.71526
X1.84900 Y1.71626
X1.84800 Y1.71626
X1.84800 Y1.71726
X1.84700 Y1.71726
X1.84700 Y1.71826
X1.84600 Y1.71826
X1.84600 Y1.71926
X1.84500 Y1.71926
X1.84500 Y1.72026
X1.84400 Y1.72026
X1.84400 Y1.72126
X1.84300 Y1.72126
X1.84300 Y1.72226
X1.84200 Y1.72226
X1.84200 Y1.72326
X1.84100 Y1.72326
X1.84100 Y1.72426
X1.84000 Y1.72426
X1.84000 Y1.72526
X1.77800 Y1.72526
X1.77800 Y1.72426
X1.77500 Y1.72426
X1.77500 Y1.72326
X1.77200 Y1.72326
X1.77200 Y1.72226
X1.76900 Y1.72226
X1.76900 Y1.72126
X1.76600 Y1.72126
X1.76600 Y1.72026
X1.76300 Y1.72026
X1.76300 Y1.71926
X1.76000 Y1.71926
X1.76000 Y1.71826
X1.75700 Y1.71826
X1.75700 Y1.71726
X1.75600 Y1.71726
X1.75600 Y1.65226
X1.75500 Y1.65226
X1.75500 Y1.65126
X1.75400 Y1.65126
X1.75400 Y1.62526
X1.75500 Y1.62526
X1.75500 Y1.62226
X1.75600 Y1.62226
X1.75600 Y1.61026
X1.75500 Y1.61026
X1.75500 Y1.60926
X1.75400 Y1.60926
X1.75400 Y1.60826
X1.75300 Y1.60826
X1.75300 Y1.60726
X1.75200 Y1.60726
X1.75200 Y1.60626
X1.75100 Y1.60626
X1.75100 Y1.60526
X1.75000 Y1.60526
X1.75000 Y1.60426
X1.74900 Y1.60426
X1.74900 Y1.60326
X1.74800 Y1.60326
X1.74800 Y1.60226
X1.74700 Y1.60226
X1.74700 Y1.60126
X1.74600 Y1.60126
X1.74600 Y1.60026
X1.74500 Y1.60026
X1.74500 Y1.59926
X1.74400 Y1.59926
X1.74400 Y1.59826
X1.74300 Y1.59826
X1.74300 Y1.59726
X1.74200 Y1.59726
X1.74200 Y1.59626
X1.74100 Y1.59626
X1.74100 Y1.59526
X1.74000 Y1.59526
X1.74000 Y1.59426
X1.73900 Y1.59426
X1.73900 Y1.59326
X1.73800 Y1.59326
X1.73800 Y1.59226
X1.73700 Y1.59226
X1.73700 Y1.59126
X1.73600 Y1.59126
X1.73600 Y1.59026
X1.73500 Y1.59026
X1.73500 Y1.58926
X1.73400 Y1.58926
X1.73400 Y1.58826
X1.73300 Y1.58826
X1.73300 Y1.58726
X1.73200 Y1.58726
X1.73200 Y1.58626
X1.73100 Y1.58626
X1.73100 Y1.58526
X1.73000 Y1.58526
X1.73000 Y1.58426
X1.72900 Y1.58426
X1.72900 Y1.58326
X1.72800 Y1.58326
X1.72800 Y1.58226
X1.72700 Y1.58226
X1.72700 Y1.58126
X1.72600 Y1.58126
X1.72600 Y1.58026
X1.72500 Y1.58026
X1.72500 Y1.57926
X1.72400 Y1.57926
X1.72400 Y1.57826
X1.72300 Y1.57826
X1.72300 Y1.57726
X1.72200 Y1.57726
X1.72200 Y1.57626
X1.72100 Y1.57626
X1.72100 Y1.57526
X1.72000 Y1.57526
X1.72000 Y1.57426
X1.71900 Y1.57426
X1.71900 Y1.57326
X1.71800 Y1.57326
X1.71800 Y1.57226
X1.71700 Y1.57226
X1.71700 Y1.57126
X1.71600 Y1.57126
X1.71600 Y1.57026
X1.71500 Y1.57026
X1.71500 Y1.56926
X1.71400 Y1.56926
X1.71400 Y1.56826
X1.71300 Y1.56826
X1.71300 Y1.56726
X1.71200 Y1.56726
X1.71200 Y1.56626
X1.71100 Y1.56626
X1.71100 Y1.56526
X1.71000 Y1.56526
X1.71000 Y1.56426
X1.70900 Y1.56426
X1.70900 Y1.56326
X1.70800 Y1.56326
X1.70800 Y1.56226
X1.70700 Y1.56226
X1.70700 Y1.56126
X1.70600 Y1.56126
X1.70600 Y1.56026
X1.70500 Y1.56026
X1.70500 Y1.55926
X1.70400 Y1.55926
X1.70400 Y1.55826
X1.70300 Y1.55826
X1.70300 Y1.55726
X1.70200 Y1.55726
X1.70200 Y1.55626
X1.70100 Y1.55626
X1.70100 Y1.55526
X1.70000 Y1.55526
X1.70000 Y1.55426
X1.69900 Y1.55426
X1.69900 Y1.55326
X1.69800 Y1.55326
X1.69800 Y1.55226
X1.69700 Y1.55226
X1.69700 Y1.55126
X1.69600 Y1.55126
X1.69600 Y1.55026
X1.69500 Y1.55026
X1.69500 Y1.54926
X1.69400 Y1.54926
X1.69400 Y1.54826
X1.69300 Y1.54826
X1.69300 Y1.54726
X1.69200 Y1.54726
X1.69200 Y1.54626
X1.69100 Y1.54626
X1.69100 Y1.54526
X1.69000 Y1.54526
X1.69000 Y1.54426
X1.68900 Y1.54426
X1.68900 Y1.54326
X1.68800 Y1.54326
X1.68800 Y1.54226
X1.68700 Y1.54226
X1.68700 Y1.54126
X1.68600 Y1.54126
X1.68600 Y1.54026
X1.68500 Y1.54026
X1.68500 Y1.53926
X1.68400 Y1.53926
X1.68400 Y1.53826
X1.68300 Y1.53826
X1.68300 Y1.53726
X1.68200 Y1.53726
X1.68200 Y1.53626
X1.68100 Y1.53626
X1.68100 Y1.53526
X1.68000 Y1.53526
X1.68000 Y1.53426
X1.67900 Y1.53426
X1.67900 Y1.53326
X1.67800 Y1.53326
X1.67800 Y1.53226
X1.67700 Y1.53226
X1.67700 Y1.53126
X1.67600 Y1.53126
X1.67600 Y1.53026
X1.67500 Y1.53026
X1.67500 Y1.52926
X1.67400 Y1.52926
X1.67400 Y1.52826
X1.67300 Y1.52826
X1.67300 Y1.52726
X1.67200 Y1.52726
X1.67200 Y1.52626
X1.67100 Y1.52626
X1.67100 Y1.52526
X1.67000 Y1.52526
X1.67000 Y1.52426
X1.66900 Y1.52426
X1.66900 Y1.52326
X1.66800 Y1.52326
X1.66800 Y1.52226
X1.66700 Y1.52226
X1.66700 Y1.52126
X1.66600 Y1.52126
X1.66600 Y1.52026
X1.66500 Y1.52026
X1.66500 Y1.51926
X1.66400 Y1.51926
X1.66400 Y1.51826
X1.66300 Y1.51826
X1.66300 Y1.51726
X1.66200 Y1.51726
X1.66200 Y1.51626
X1.66100 Y1.51626
X1.66100 Y1.51526
X1.66000 Y1.51526
X1.66000 Y1.51426
X1.65900 Y1.51426
X1.65900 Y1.51326
X1.65800 Y1.51326
X1.65800 Y1.51226
X1.65700 Y1.51226
X1.65700 Y1.51126
X1.65600 Y1.51126
X1.65600 Y1.51026
X1.65500 Y1.51026
X1.65500 Y1.50926
X1.65400 Y1.50926
X1.65400 Y1.50826
X1.65300 Y1.50826
X1.65300 Y1.50726
X1.65200 Y1.50726
X1.65200 Y1.50626
X1.65100 Y1.50626
X1.65100 Y1.50526
X1.65000 Y1.50526
X1.65000 Y1.50426
X1.64900 Y1.50426
X1.64900 Y1.50326
X1.64800 Y1.50326
X1.64800 Y1.50226
X1.64700 Y1.50226
X1.64700 Y1.50126
X1.64600 Y1.50126
X1.64600 Y1.50026
X1.64500 Y1.50026
X1.64500 Y1.49926
X1.64400 Y1.49926
X1.64400 Y1.49826
X1.64300 Y1.49826
X1.64300 Y1.49726
X1.64200 Y1.49726
X1.64200 Y1.49626
X1.64100 Y1.49626
X1.64100 Y1.49526
X1.64000 Y1.49526
X1.64000 Y1.49426
X1.63900 Y1.49426
X1.63900 Y1.49326
X1.63800 Y1.49326
X1.63800 Y1.49226
X1.63700 Y1.49226
X1.63700 Y1.49126
X1.63600 Y1.49126
X1.63600 Y1.49026
X1.63500 Y1.49026
X1.63500 Y1.48926
X1.63400 Y1.48926
X1.63400 Y1.48826
X1.63300 Y1.48826
X1.63300 Y1.48726
X1.63200 Y1.48726
X1.63200 Y1.48626
X1.63100 Y1.48626
X1.63100 Y1.48526
X1.63000 Y1.48526
X1.63000 Y1.48426
X1.62900 Y1.48426
X1.62900 Y1.48326
X1.62800 Y1.48326
X1.62800 Y1.48226
X1.62700 Y1.48226
X1.62700 Y1.47926
X1.62600 Y1.47926
X1.62600 Y1.43126
X1.62700 Y1.43126
X1.62700 Y1.43026
X1.62800 Y1.43026
X1.62800 Y1.36626
X1.62300 Y1.36626
X1.62300 Y1.36526
X1.60200 Y1.36526
X1.60200 Y1.43126
X1.60400 Y1.43126
X1.60400 Y1.43426
X1.60500 Y1.43426
X1.60500 Y1.47726
X1.60400 Y1.47726
X1.60400 Y1.48026
X1.60300 Y1.48026
X1.60300 Y1.48226
X1.60200 Y1.48226
X1.60200 Y1.48426
X1.60100 Y1.48426
X1.60100 Y1.48526
X1.59900 Y1.48526
X1.59900 Y1.48626
X1.59800 Y1.48626
X1.59800 Y1.48726
X1.59700 Y1.48726
X1.59700 Y1.48826
X1.59600 Y1.48826
X1.59600 Y1.48926
X1.59500 Y1.48926
X1.59500 Y1.49026
X1.59400 Y1.49026
X1.59400 Y1.49126
X1.59300 Y1.49126
X1.59300 Y1.49226
X1.59200 Y1.49226
X1.59200 Y1.49326
X1.59100 Y1.49326
X1.59100 Y1.49426
X1.59000 Y1.49426
X1.59000 Y1.49526
X1.58900 Y1.49526
X1.58900 Y1.49626
X1.58800 Y1.49626
X1.58800 Y1.49726
X1.58700 Y1.49726
X1.58700 Y1.49826
X1.58600 Y1.49826
X1.58600 Y1.49926
X1.58500 Y1.49926
X1.58500 Y1.50026
X1.58400 Y1.50026
X1.58400 Y1.50126
X1.58300 Y1.50126
X1.58300 Y1.50226
X1.58200 Y1.50226
X1.58200 Y1.50326
X1.58000 Y1.50326
X1.58000 Y1.50426
X1.57800 Y1.50426
X1.57800 Y1.50526
X1.57500 Y1.50526
X1.57500 Y1.50626
X1.37700 Y1.50626
X1.37700 Y1.50526
X1.37500 Y1.50526
X1.37500 Y1.50326
X1.37400 Y1.50326
X1.37400 Y1.50226
X1.37300 Y1.50226
X1.37300 Y1.50126
X1.37200 Y1.50126
X1.37200 Y1.50026
X1.37100 Y1.50026
X1.37100 Y1.49926
X1.37000 Y1.49926
X1.37000 Y1.49726
X1.36900 Y1.49726
X1.36900 Y1.49626
X1.36800 Y1.49626
X1.36800 Y1.49526
X1.36700 Y1.49526
X1.36700 Y1.49426
X1.36600 Y1.49426
X1.36600 Y1.49326
X1.36500 Y1.49326
X1.36500 Y1.49226
X1.36400 Y1.49226
X1.36400 Y1.49126
X1.36200 Y1.49126
X1.36200 Y1.49026
X1.36100 Y1.49026
X1.36100 Y1.48926
X1.35900 Y1.48926
X1.35900 Y1.48826
X1.35700 Y1.48826
X1.35700 Y1.48726
X1.35500 Y1.48726
X1.35500 Y1.48626
X1.35200 Y1.48626
X1.35200 Y1.48526
X1.34600 Y1.48526
X1.34600 Y1.48426
X1.28000 Y1.48426
X1.28000 Y1.48526
X1.27500 Y1.48526
X1.27500 Y1.48626
X1.27100 Y1.48626
X1.27100 Y1.48726
X1.26900 Y1.48726
X1.26900 Y1.48826
X1.26700 Y1.48826
X1.26700 Y1.48926
X1.26500 Y1.48926
X1.26500 Y1.49026
X1.26400 Y1.49026
X1.26400 Y1.49126
X1.26300 Y1.49126
X1.26300 Y1.49226
X1.26200 Y1.49226
X1.26200 Y1.49326
X1.26100 Y1.49326
X1.26100 Y1.49426
X1.26000 Y1.49426
X1.26000 Y1.49526
X1.25900 Y1.49526
X1.25900 Y1.49626
X1.25800 Y1.49626
X1.25800 Y1.49726
X1.25700 Y1.49726
X1.25700 Y1.49826
X1.25600 Y1.49826
X1.25600 Y1.49926
X1.25500 Y1.49926
X1.25500 Y1.50026
X1.25400 Y1.50026
X1.25400 Y1.50126
X1.25300 Y1.50126
X1.25300 Y1.50326
X1.25200 Y1.50326
X1.25200 Y1.50626
X1.25100 Y1.50626
X1.25100 Y1.51026
X1.25000 Y1.51026
X1.25000 Y1.51326
X1.24900 Y1.51326
X1.24900 Y1.52626
X1.25000 Y1.52626
X1.25000 Y1.52826
X1.25100 Y1.52826
X1.25100 Y1.53226
X1.25200 Y1.53226
X1.25200 Y1.53526
X1.25300 Y1.53526
X1.25300 Y1.53726
X1.25400 Y1.53726
X1.25400 Y1.53926
X1.25500 Y1.53926
X1.25500 Y1.54026
X1.25600 Y1.54026
X1.25600 Y1.54126
X1.25700 Y1.54126
X1.25700 Y1.54226
X1.25800 Y1.54226
X1.25800 Y1.54326
X1.25900 Y1.54326
X1.25900 Y1.54426
X1.26000 Y1.54426
X1.26000 Y1.54526
X1.26100 Y1.54526
X1.26100 Y1.54626
X1.26200 Y1.54626
X1.26200 Y1.54726
X1.26300 Y1.54726
X1.26300 Y1.54826
X1.26400 Y1.54826
X1.26400 Y1.54926
X1.26600 Y1.54926
X1.26600 Y1.55026
X1.26800 Y1.55026
X1.26800 Y1.55126
X1.27100 Y1.55126
X1.27100 Y1.55226
X1.27500 Y1.55226
X1.27500 Y1.55326
X1.27700 Y1.55326
X1.27700 Y1.55426
X1.34900 Y1.55426
X1.34900 Y1.55326
X1.35200 Y1.55326
X1.35200 Y1.55226
X1.35600 Y1.55226
X1.35600 Y1.55126
X1.35900 Y1.55126
X1.35900 Y1.55026
X1.36100 Y1.55026
X1.36100 Y1.54926
X1.36200 Y1.54926
X1.36200 Y1.54826
X1.36300 Y1.54826
X1.36300 Y1.54726
X1.36400 Y1.54726
X1.36400 Y1.54626
X1.36500 Y1.54626
X1.36500 Y1.54526
X1.36600 Y1.54526
X1.36600 Y1.54426
X1.36700 Y1.54426
X1.36700 Y1.54326
X1.36800 Y1.54326
X1.36800 Y1.54226
X1.36900 Y1.54226
X1.36900 Y1.54126
X1.37000 Y1.54126
X1.37000 Y1.54026
X1.37100 Y1.54026
X1.37100 Y1.53926
X1.37200 Y1.53926
X1.37200 Y1.53826
X1.37300 Y1.53826
X1.37300 Y1.53726
X1.37400 Y1.53726
X1.37400 Y1.53526
X1.37500 Y1.53526
X1.37500 Y1.53426
X1.37600 Y1.53426
X1.37600 Y1.53326
X1.47500 Y1.53326
X1.47500 Y1.53426
X1.47800 Y1.53426
X1.47800 Y1.53526
X1.48000 Y1.53526
X1.48000 Y1.53626
X1.48100 Y1.53626
X1.48100 Y1.53826
X1.59600 Y1.53826
X1.59600 Y1.53726
X1.60100 Y1.53726
X1.60100 Y1.53626
X1.60400 Y1.53626
X1.60400 Y1.53526
X1.60700 Y1.53526
X1.60700 Y1.53426
X1.61000 Y1.53426
X1.61000 Y1.53326
X1.61300 Y1.53326
X1.61300 Y1.53226
X1.61700 Y1.53226
X1.61700 Y1.53326
X1.62000 Y1.53326
X1.62000 Y1.53426
X1.62200 Y1.53426
X1.62200 Y1.53526
X1.62400 Y1.53526
X1.62400 Y1.53626
X1.62500 Y1.53626
X1.62500 Y1.53726
X1.62600 Y1.53726
X1.62600 Y1.53826
X1.62700 Y1.53826
X1.62700 Y1.53926
X1.62800 Y1.53926
X1.62800 Y1.54026
X1.62900 Y1.54026
X1.62900 Y1.54126
X1.63000 Y1.54126
X1.63000 Y1.54226
X1.63100 Y1.54226
X1.63100 Y1.54326
X1.63200 Y1.54326
X1.63200 Y1.54426
X1.63300 Y1.54426
X1.63300 Y1.54526
X1.63400 Y1.54526
X1.63400 Y1.54626
X1.63500 Y1.54626
X1.63500 Y1.54726
X1.63600 Y1.54726
X1.63600 Y1.54826
X1.63700 Y1.54826
X1.63700 Y1.54926
X1.63800 Y1.54926
X1.63800 Y1.55026
X1.63900 Y1.55026
X1.63900 Y1.55126
X1.64000 Y1.55126
X1.64000 Y1.55226
X1.64100 Y1.55226
X1.64100 Y1.55326
X1.64200 Y1.55326
X1.64200 Y1.55426
X1.64300 Y1.55426
X1.64300 Y1.55526
X1.64400 Y1.55526
X1.64400 Y1.55626
X1.64500 Y1.55626
X1.64500 Y1.55726
X1.64600 Y1.55726
X1.64600 Y1.55826
X1.64700 Y1.55826
X1.64700 Y1.55926
X1.64800 Y1.55926
X1.64800 Y1.56026
X1.64900 Y1.56026
X1.64900 Y1.56126
X1.65000 Y1.56126
X1.65000 Y1.56226
X1.65100 Y1.56226
X1.65100 Y1.56326
X1.65200 Y1.56326
X1.65200 Y1.56426
X1.65500 Y1.56426
X1.65500 Y1.56526
X1.65800 Y1.56526
X1.65800 Y1.56626
X1.65900 Y1.56626
X1.65900 Y1.56726
X1.66200 Y1.56726
X1.66200 Y1.56826
X1.66300 Y1.56826
X1.66300 Y1.56926
X1.66400 Y1.56926
X1.66400 Y1.57026
X1.66600 Y1.57026
X1.66600 Y1.57126
X1.66700 Y1.57126
X1.66700 Y1.57326
X1.66800 Y1.57326
X1.66800 Y1.57426
X1.66900 Y1.57426
X1.66900 Y1.57526
X1.67000 Y1.57526
X1.67000 Y1.57626
X1.67100 Y1.57626
X1.67100 Y1.57726
X1.67400 Y1.57726
X1.67400 Y1.57826
X1.67700 Y1.57826
X1.67700 Y1.57926
X1.68000 Y1.57926
X1.68000 Y1.58026
X1.68300 Y1.58026
X1.68300 Y1.58126
X1.68600 Y1.58126
X1.68600 Y1.58226
X1.68900 Y1.58226
X1.68900 Y1.58326
X1.69100 Y1.58326
X1.69100 Y1.58426
X1.69300 Y1.58426
X1.69300 Y1.58526
X1.69400 Y1.58526
X1.69400 Y1.58626
X1.69500 Y1.58626
X1.69500 Y1.58726
X1.69600 Y1.58726
X1.69600 Y1.58826
X1.69700 Y1.58826
X1.69700 Y1.58926
X1.69800 Y1.58926
X1.69800 Y1.59026
X1.69900 Y1.59026
X1.69900 Y1.59126
X1.70000 Y1.59126
X1.70000 Y1.59226
X1.70100 Y1.59226
X1.70100 Y1.59326
X1.70200 Y1.59326
X1.70200 Y1.59426
X1.70300 Y1.59426
X1.70300 Y1.59526
X1.70400 Y1.59526
X1.70400 Y1.59626
X1.70500 Y1.59626
X1.70500 Y1.59726
X1.70600 Y1.59726
X1.70600 Y1.59826
X1.70700 Y1.59826
X1.70700 Y1.59926
X1.70800 Y1.59926
X1.70800 Y1.60026
X1.70900 Y1.60026
X1.70900 Y1.60126
X1.71000 Y1.60126
X1.71000 Y1.60226
X1.71100 Y1.60226
X1.71100 Y1.60326
X1.71200 Y1.60326
X1.71200 Y1.60426
X1.71300 Y1.60426
X1.71300 Y1.60526
X1.71400 Y1.60526
X1.71400 Y1.60626
X1.71500 Y1.60626
X1.71500 Y1.60726
X1.71600 Y1.60726
X1.71600 Y1.60826
X1.71700 Y1.60826
X1.71700 Y1.60926
X1.71800 Y1.60926
X1.71800 Y1.61026
X1.71900 Y1.61026
X1.71900 Y1.61126
X1.72000 Y1.61126
X1.72000 Y1.61226
X1.72100 Y1.61226
X1.72100 Y1.61326
X1.72200 Y1.61326
X1.72200 Y1.61426
X1.72300 Y1.61426
X1.72300 Y1.61526
X1.72400 Y1.61526
X1.72400 Y1.61626
X1.72500 Y1.61626
X1.72500 Y1.61826
X1.72600 Y1.61826
X1.72600 Y1.62026
X1.72700 Y1.62026
X1.72700 Y1.62326
X1.72800 Y1.62326
X1.72800 Y1.62626
X1.72900 Y1.62626
X1.72900 Y1.62926
X1.73000 Y1.62926
X1.73000 Y1.71826
X1.72900 Y1.71826
X1.72900 Y1.72126
X1.73000 Y1.72126
X1.73000 Y1.72826
X1.73100 Y1.72826
X1.73100 Y1.73326
X1.73200 Y1.73326
X1.73200 Y1.73426
X1.73300 Y1.73426
X1.73300 Y1.73526
X1.73400 Y1.73526
