( pcb2gcode 1.1.4 )

G94     ( Inches per minute feed rate. )
G20     ( Units == INCHES.             )
G90     ( Absolute coordinates.        )
S30000  ( RPM spindle speed.           )
M3      ( Spindle on clockwise.        )

G64 P0.00500 ( set maximum deviation from commanded toolpath )

G04 P0 ( dwell for no time -- G64 should not smooth over this point )
G00 Z0.10000 ( retract )

G00 X-2.38700 Y2.08826 ( rapid move to begin. )
G01 Z-0.00500 F10.00000 ( plunge. )
G04 P0 ( dwell for no time -- G64 should not smooth over this point )
X-2.38700 Y2.08826
X-2.38700 Y1.12526
X-1.19900 Y1.12526
X-1.19900 Y2.09826
X-2.38700 Y2.09826
X-2.38700 Y2.08826
G04 P0 ( dwell for no time -- G64 should not smooth over this point )
G00 Z0.10000 ( retract )

G00 X-1.37100 Y1.74826 ( rapid move to begin. )
G01 Z-0.00500 F10.00000 ( plunge. )
G04 P0 ( dwell for no time -- G64 should not smooth over this point )
X-1.37100 Y1.74826
X-1.37200 Y1.74826
X-1.37200 Y1.74726
X-1.37300 Y1.74726
X-1.37300 Y1.74626
X-1.37400 Y1.74626
X-1.37400 Y1.74526
X-1.37500 Y1.74526
X-1.37500 Y1.74426
X-1.37600 Y1.74426
X-1.37600 Y1.74326
X-1.37700 Y1.74326
X-1.37700 Y1.74226
X-1.37800 Y1.74226
X-1.37800 Y1.73926
X-1.37900 Y1.73926
X-1.37900 Y1.73826
X-1.38000 Y1.73826
X-1.38000 Y1.73726
X-1.38100 Y1.73726
X-1.38100 Y1.73626
X-1.84000 Y1.73626
X-1.84000 Y1.73526
X-1.84100 Y1.73526
X-1.84100 Y1.73426
X-1.84200 Y1.73426
X-1.84200 Y1.73326
X-1.84300 Y1.73326
X-1.84300 Y1.73226
X-1.84400 Y1.73226
X-1.84400 Y1.73126
X-1.84500 Y1.73126
X-1.84500 Y1.73026
X-1.84600 Y1.73026
X-1.84600 Y1.72926
X-1.84700 Y1.72926
X-1.84700 Y1.72826
X-1.84800 Y1.72826
X-1.84800 Y1.72726
X-1.84900 Y1.72726
X-1.84900 Y1.72626
X-1.85000 Y1.72626
X-1.85000 Y1.72526
X-1.85100 Y1.72526
X-1.85100 Y1.72426
X-1.85200 Y1.72426
X-1.85200 Y1.72326
X-1.85300 Y1.72326
X-1.85300 Y1.72226
X-1.85400 Y1.72226
X-1.85400 Y1.72126
X-1.85500 Y1.72126
X-1.85500 Y1.72026
X-1.85600 Y1.72026
X-1.85600 Y1.71926
X-1.85700 Y1.71926
X-1.85700 Y1.71826
X-1.85800 Y1.71826
X-1.85800 Y1.71726
X-1.85900 Y1.71726
X-1.85900 Y1.71626
X-1.86000 Y1.71626
X-1.86000 Y1.71526
X-1.86100 Y1.71526
X-1.86100 Y1.71426
X-1.86200 Y1.71426
X-1.86200 Y1.71326
X-1.86300 Y1.71326
X-1.86300 Y1.71226
X-1.86400 Y1.71226
X-1.86400 Y1.71126
X-1.86500 Y1.71126
X-1.86500 Y1.71026
X-1.86600 Y1.71026
X-1.86600 Y1.70926
X-1.86700 Y1.70926
X-1.86700 Y1.70826
X-1.86800 Y1.70826
X-1.86800 Y1.70726
X-1.86900 Y1.70726
X-1.86900 Y1.70626
X-1.87000 Y1.70626
X-1.87000 Y1.70526
X-1.87100 Y1.70526
X-1.87100 Y1.70426
X-1.87200 Y1.70426
X-1.87200 Y1.70326
X-1.87300 Y1.70326
X-1.87300 Y1.70226
X-1.87400 Y1.70226
X-1.87400 Y1.70126
X-1.87500 Y1.70126
X-1.87500 Y1.70026
X-1.87600 Y1.70026
X-1.87600 Y1.69926
X-1.87700 Y1.69926
X-1.87700 Y1.69826
X-1.87900 Y1.69826
X-1.87900 Y1.69726
X-1.88800 Y1.69726
X-1.88800 Y1.69626
X-1.89100 Y1.69626
X-1.89100 Y1.69526
X-1.89300 Y1.69526
X-1.89300 Y1.69426
X-1.89500 Y1.69426
X-1.89500 Y1.69326
X-1.89700 Y1.69326
X-1.89700 Y1.69226
X-1.89800 Y1.69226
X-1.89800 Y1.69126
X-1.89900 Y1.69126
X-1.89900 Y1.69026
X-1.90000 Y1.69026
X-1.90000 Y1.68926
X-1.90100 Y1.68926
X-1.90100 Y1.68826
X-1.90200 Y1.68826
X-1.90200 Y1.68726
X-1.90300 Y1.68726
X-1.90300 Y1.68626
X-1.90400 Y1.68626
X-1.90400 Y1.68526
X-1.90500 Y1.68526
X-1.90500 Y1.68426
X-1.90600 Y1.68426
X-1.90600 Y1.68126
X-1.90700 Y1.68126
X-1.90700 Y1.67926
X-1.90800 Y1.67926
X-1.90800 Y1.67626
X-1.90900 Y1.67626
X-1.90900 Y1.66726
X-1.91000 Y1.66726
X-1.91000 Y1.66526
X-1.91100 Y1.66526
X-1.91100 Y1.66426
X-1.91200 Y1.66426
X-1.91200 Y1.66326
X-1.91300 Y1.66326
X-1.91300 Y1.66226
X-1.91400 Y1.66226
X-1.91400 Y1.66126
X-1.91500 Y1.66126
X-1.91500 Y1.66026
X-1.91600 Y1.66026
X-1.91600 Y1.65926
X-1.91700 Y1.65926
X-1.91700 Y1.65826
X-1.91800 Y1.65826
X-1.91800 Y1.65726
X-1.91900 Y1.65726
X-1.91900 Y1.65626
X-1.92000 Y1.65626
X-1.92000 Y1.65526
X-1.92100 Y1.65526
X-1.92100 Y1.65426
X-1.92200 Y1.65426
X-1.92200 Y1.65326
X-1.92300 Y1.65326
X-1.92300 Y1.65226
X-1.92400 Y1.65226
X-1.92400 Y1.65126
X-1.92500 Y1.65126
X-1.92500 Y1.65026
X-1.92600 Y1.65026
X-1.92600 Y1.64926
X-1.92700 Y1.64926
X-1.92700 Y1.64826
X-1.92800 Y1.64826
X-1.92800 Y1.64726
X-1.92900 Y1.64726
X-1.92900 Y1.64626
X-1.93000 Y1.64626
X-1.93000 Y1.64526
X-1.93100 Y1.64526
X-1.93100 Y1.64426
X-1.93200 Y1.64426
X-1.93200 Y1.64326
X-1.93300 Y1.64326
X-1.93300 Y1.64226
X-1.93400 Y1.64226
X-1.93400 Y1.64126
X-1.93500 Y1.64126
X-1.93500 Y1.64026
X-1.93600 Y1.64026
X-1.93600 Y1.63926
X-1.93700 Y1.63926
X-1.93700 Y1.63826
X-1.93800 Y1.63826
X-1.93800 Y1.63726
X-1.93900 Y1.63726
X-1.93900 Y1.63626
X-1.94000 Y1.63626
X-1.94000 Y1.63526
X-1.94100 Y1.63526
X-1.94100 Y1.63426
X-1.94200 Y1.63426
X-1.94200 Y1.63326
X-1.94300 Y1.63326
X-1.94300 Y1.63226
X-1.94400 Y1.63226
X-1.94400 Y1.63126
X-1.94500 Y1.63126
X-1.94500 Y1.63026
X-1.94600 Y1.63026
X-1.94600 Y1.62926
X-1.94700 Y1.62926
X-1.94700 Y1.62826
X-1.94800 Y1.62826
X-1.94800 Y1.62726
X-1.94900 Y1.62726
X-1.94900 Y1.62626
X-1.95000 Y1.62626
X-1.95000 Y1.62526
X-1.95100 Y1.62526
X-1.95100 Y1.62426
X-1.95200 Y1.62426
X-1.95200 Y1.62326
X-1.95300 Y1.62326
X-1.95300 Y1.62226
X-1.95400 Y1.62226
X-1.95400 Y1.62126
X-1.95500 Y1.62126
X-1.95500 Y1.62026
X-1.95600 Y1.62026
X-1.95600 Y1.61926
X-1.95700 Y1.61926
X-1.95700 Y1.61826
X-1.95800 Y1.61826
X-1.95800 Y1.61726
X-1.95900 Y1.61726
X-1.95900 Y1.61626
X-1.96000 Y1.61626
X-1.96000 Y1.61526
X-1.96100 Y1.61526
X-1.96100 Y1.61426
X-1.96200 Y1.61426
X-1.96200 Y1.61326
X-1.96300 Y1.61326
X-1.96300 Y1.61226
X-1.96400 Y1.61226
X-1.96400 Y1.61126
X-1.96500 Y1.61126
X-1.96500 Y1.61026
X-1.96600 Y1.61026
X-1.96600 Y1.60926
X-1.96700 Y1.60926
X-1.96700 Y1.60826
X-1.96800 Y1.60826
X-1.96800 Y1.60726
X-1.96900 Y1.60726
X-1.96900 Y1.60626
X-1.97000 Y1.60626
X-1.97000 Y1.60526
X-1.97100 Y1.60526
X-1.97100 Y1.60426
X-1.97200 Y1.60426
X-1.97200 Y1.60326
X-1.97300 Y1.60326
X-1.97300 Y1.60226
X-1.97400 Y1.60226
X-1.97400 Y1.60126
X-1.97500 Y1.60126
X-1.97500 Y1.60026
X-1.97600 Y1.60026
X-1.97600 Y1.59926
X-1.97700 Y1.59926
X-1.97700 Y1.59826
X-1.97800 Y1.59826
X-1.97800 Y1.59726
X-1.97900 Y1.59726
X-1.97900 Y1.59626
X-1.98000 Y1.59626
X-1.98000 Y1.59526
X-1.98100 Y1.59526
X-1.98100 Y1.59426
X-1.98200 Y1.59426
X-1.98200 Y1.59326
X-1.98300 Y1.59326
X-1.98300 Y1.59226
X-1.98400 Y1.59226
X-1.98400 Y1.59126
X-1.98500 Y1.59126
X-1.98500 Y1.59026
X-1.98600 Y1.59026
X-1.98600 Y1.58926
X-1.98700 Y1.58926
X-1.98700 Y1.58826
X-1.98800 Y1.58826
X-1.98800 Y1.58726
X-1.98900 Y1.58726
X-1.98900 Y1.58626
X-1.99000 Y1.58626
X-1.99000 Y1.58526
X-1.99100 Y1.58526
X-1.99100 Y1.58426
X-1.99200 Y1.58426
X-1.99200 Y1.58326
X-1.99300 Y1.58326
X-1.99300 Y1.58226
X-1.99400 Y1.58226
X-1.99400 Y1.58126
X-1.99500 Y1.58126
X-1.99500 Y1.58026
X-1.99600 Y1.58026
X-1.99600 Y1.57926
X-1.99700 Y1.57926
X-1.99700 Y1.57826
X-1.99800 Y1.57826
X-1.99800 Y1.57726
X-1.99900 Y1.57726
X-1.99900 Y1.57626
X-2.00000 Y1.57626
X-2.00000 Y1.57526
X-2.00100 Y1.57526
X-2.00100 Y1.57426
X-2.00200 Y1.57426
X-2.00200 Y1.57326
X-2.00300 Y1.57326
X-2.00300 Y1.57226
X-2.00400 Y1.57226
X-2.00400 Y1.57126
X-2.00500 Y1.57126
X-2.00500 Y1.57026
X-2.00600 Y1.57026
X-2.00600 Y1.56926
X-2.00700 Y1.56926
X-2.00700 Y1.56826
X-2.00800 Y1.56826
X-2.00800 Y1.56726
X-2.00900 Y1.56726
X-2.00900 Y1.56626
X-2.01000 Y1.56626
X-2.01000 Y1.56526
X-2.01100 Y1.56526
X-2.01100 Y1.56426
X-2.01200 Y1.56426
X-2.01200 Y1.56326
X-2.01300 Y1.56326
X-2.01300 Y1.56226
X-2.01400 Y1.56226
X-2.01400 Y1.56126
X-2.01500 Y1.56126
X-2.01500 Y1.56026
X-2.01600 Y1.56026
X-2.01600 Y1.55926
X-2.01700 Y1.55926
X-2.01700 Y1.55826
X-2.01800 Y1.55826
X-2.01800 Y1.55726
X-2.01900 Y1.55726
X-2.01900 Y1.55626
X-2.02000 Y1.55626
X-2.02000 Y1.55526
X-2.02100 Y1.55526
X-2.02100 Y1.55426
X-2.02200 Y1.55426
X-2.02200 Y1.55326
X-2.02300 Y1.55326
X-2.02300 Y1.55226
X-2.02400 Y1.55226
X-2.02400 Y1.55126
X-2.02500 Y1.55126
X-2.02500 Y1.55026
X-2.02700 Y1.55026
X-2.02700 Y1.54926
X-2.15700 Y1.54926
X-2.15700 Y1.55026
X-2.15900 Y1.55026
X-2.15900 Y1.55126
X-2.16000 Y1.55126
X-2.16000 Y1.55226
X-2.16100 Y1.55226
X-2.16100 Y1.55326
X-2.16200 Y1.55326
X-2.16200 Y1.55426
X-2.16300 Y1.55426
X-2.16300 Y1.55526
X-2.16500 Y1.55526
X-2.16500 Y1.55626
X-2.16700 Y1.55626
X-2.16700 Y1.55726
X-2.16900 Y1.55726
X-2.16900 Y1.55826
X-2.17200 Y1.55826
X-2.17200 Y1.55926
X-2.18400 Y1.55926
X-2.18400 Y1.55826
X-2.18600 Y1.55826
X-2.18600 Y1.55726
X-2.18800 Y1.55726
X-2.18800 Y1.55626
X-2.19100 Y1.55626
X-2.19100 Y1.55526
X-2.19200 Y1.55526
X-2.19200 Y1.55426
X-2.19300 Y1.55426
X-2.19300 Y1.55326
X-2.19400 Y1.55326
X-2.19400 Y1.55226
X-2.19500 Y1.55226
X-2.19500 Y1.55126
X-2.19600 Y1.55126
X-2.19600 Y1.55026
X-2.19700 Y1.55026
X-2.19700 Y1.54926
X-2.19800 Y1.54926
X-2.19800 Y1.54826
X-2.19900 Y1.54826
X-2.19900 Y1.54726
X-2.20000 Y1.54726
X-2.20000 Y1.54626
X-2.20100 Y1.54626
X-2.20100 Y1.54326
X-2.20200 Y1.54326
X-2.20200 Y1.54126
X-2.20300 Y1.54126
X-2.20300 Y1.53926
X-2.20400 Y1.53926
X-2.20400 Y1.52726
X-2.20300 Y1.52726
X-2.20300 Y1.52426
X-2.20200 Y1.52426
X-2.20200 Y1.52226
X-2.20100 Y1.52226
X-2.20100 Y1.52026
X-2.20000 Y1.52026
X-2.20000 Y1.51826
X-2.19900 Y1.51826
X-2.19900 Y1.51726
X-2.19800 Y1.51726
X-2.19800 Y1.51626
X-2.19700 Y1.51626
X-2.19700 Y1.51526
X-2.19600 Y1.51526
X-2.19600 Y1.51426
X-2.19500 Y1.51426
X-2.19500 Y1.51326
X-2.19400 Y1.51326
X-2.19400 Y1.51226
X-2.19300 Y1.51226
X-2.19300 Y1.51126
X-2.19200 Y1.51126
X-2.19200 Y1.51026
X-2.19000 Y1.51026
X-2.19000 Y1.50926
X-2.18800 Y1.50926
X-2.18800 Y1.50826
X-2.18600 Y1.50826
X-2.18600 Y1.50726
X-2.18500 Y1.50726
X-2.18500 Y1.50626
X-2.18300 Y1.50626
X-2.18300 Y1.50726
X-2.18200 Y1.50726
X-2.18200 Y1.50826
X-2.18100 Y1.50826
X-2.18100 Y1.50926
X-2.17800 Y1.50926
X-2.17800 Y1.51026
X-2.17600 Y1.51026
X-2.17600 Y1.51126
X-2.17200 Y1.51126
X-2.17200 Y1.51226
X-2.17000 Y1.51226
X-2.17000 Y1.51326
X-2.16600 Y1.51326
X-2.16600 Y1.51426
X-2.16100 Y1.51426
X-2.16100 Y1.51526
X-2.15900 Y1.51526
X-2.15900 Y1.51626
X-2.15600 Y1.51626
X-2.15600 Y1.51726
X-2.15400 Y1.51726
X-2.15400 Y1.51826
X-2.14700 Y1.51826
X-2.14700 Y1.51726
X-2.14000 Y1.51726
X-2.14000 Y1.51626
X-2.13600 Y1.51626
X-2.13600 Y1.51526
X-2.13400 Y1.51526
X-2.13400 Y1.51426
X-2.13100 Y1.51426
X-2.13100 Y1.51326
X-2.01500 Y1.51326
X-2.01500 Y1.51426
X-2.01200 Y1.51426
X-2.01200 Y1.51526
X-2.00900 Y1.51526
X-2.00900 Y1.51626
X-2.00700 Y1.51626
X-2.00700 Y1.51726
X-2.00500 Y1.51726
X-2.00500 Y1.51826
X-2.00400 Y1.51826
X-2.00400 Y1.51926
X-2.00300 Y1.51926
X-2.00300 Y1.52026
X-2.00200 Y1.52026
X-2.00200 Y1.52126
X-2.00100 Y1.52126
X-2.00100 Y1.52226
X-2.00000 Y1.52226
X-2.00000 Y1.52326
X-1.99900 Y1.52326
X-1.99900 Y1.52426
X-1.99800 Y1.52426
X-1.99800 Y1.52526
X-1.99700 Y1.52526
X-1.99700 Y1.52626
X-1.99600 Y1.52626
X-1.99600 Y1.52726
X-1.99500 Y1.52726
X-1.99500 Y1.52826
X-1.99400 Y1.52826
X-1.99400 Y1.52926
X-1.99300 Y1.52926
X-1.99300 Y1.53026
X-1.99200 Y1.53026
X-1.99200 Y1.53126
X-1.99100 Y1.53126
X-1.99100 Y1.53226
X-1.99000 Y1.53226
X-1.99000 Y1.53326
X-1.98900 Y1.53326
X-1.98900 Y1.53426
X-1.98800 Y1.53426
X-1.98800 Y1.53526
X-1.98700 Y1.53526
X-1.98700 Y1.53626
X-1.98600 Y1.53626
X-1.98600 Y1.53726
X-1.98500 Y1.53726
X-1.98500 Y1.53826
X-1.98400 Y1.53826
X-1.98400 Y1.53926
X-1.98300 Y1.53926
X-1.98300 Y1.54026
X-1.98200 Y1.54026
X-1.98200 Y1.54126
X-1.98100 Y1.54126
X-1.98100 Y1.54226
X-1.98000 Y1.54226
X-1.98000 Y1.54326
X-1.97900 Y1.54326
X-1.97900 Y1.54426
X-1.97800 Y1.54426
X-1.97800 Y1.54526
X-1.97700 Y1.54526
X-1.97700 Y1.54626
X-1.97600 Y1.54626
X-1.97600 Y1.54726
X-1.97500 Y1.54726
X-1.97500 Y1.54826
X-1.97400 Y1.54826
X-1.97400 Y1.54926
X-1.97300 Y1.54926
X-1.97300 Y1.55026
X-1.97200 Y1.55026
X-1.97200 Y1.55126
X-1.97100 Y1.55126
X-1.97100 Y1.55226
X-1.97000 Y1.55226
X-1.97000 Y1.55326
X-1.96900 Y1.55326
X-1.96900 Y1.55426
X-1.96800 Y1.55426
X-1.96800 Y1.55526
X-1.96700 Y1.55526
X-1.96700 Y1.55626
X-1.96600 Y1.55626
X-1.96600 Y1.55726
X-1.96500 Y1.55726
X-1.96500 Y1.55826
X-1.96400 Y1.55826
X-1.96400 Y1.55926
X-1.96300 Y1.55926
X-1.96300 Y1.56026
X-1.96200 Y1.56026
X-1.96200 Y1.56126
X-1.96100 Y1.56126
X-1.96100 Y1.56226
X-1.96000 Y1.56226
X-1.96000 Y1.56326
X-1.95900 Y1.56326
X-1.95900 Y1.56426
X-1.95800 Y1.56426
X-1.95800 Y1.56526
X-1.95700 Y1.56526
X-1.95700 Y1.56626
X-1.95600 Y1.56626
X-1.95600 Y1.56726
X-1.95500 Y1.56726
X-1.95500 Y1.56826
X-1.95400 Y1.56826
X-1.95400 Y1.56926
X-1.95300 Y1.56926
X-1.95300 Y1.57026
X-1.95200 Y1.57026
X-1.95200 Y1.57126
X-1.95100 Y1.57126
X-1.95100 Y1.57226
X-1.95000 Y1.57226
X-1.95000 Y1.57326
X-1.94900 Y1.57326
X-1.94900 Y1.57426
X-1.94800 Y1.57426
X-1.94800 Y1.57526
X-1.94700 Y1.57526
X-1.94700 Y1.57626
X-1.94600 Y1.57626
X-1.94600 Y1.57726
X-1.94500 Y1.57726
X-1.94500 Y1.57826
X-1.94400 Y1.57826
X-1.94400 Y1.57926
X-1.94300 Y1.57926
X-1.94300 Y1.58026
X-1.94200 Y1.58026
X-1.94200 Y1.58126
X-1.94100 Y1.58126
X-1.94100 Y1.58226
X-1.94000 Y1.58226
X-1.94000 Y1.58326
X-1.93900 Y1.58326
X-1.93900 Y1.58426
X-1.93800 Y1.58426
X-1.93800 Y1.58526
X-1.93700 Y1.58526
X-1.93700 Y1.58626
X-1.93600 Y1.58626
X-1.93600 Y1.58726
X-1.93500 Y1.58726
X-1.93500 Y1.58826
X-1.93400 Y1.58826
X-1.93400 Y1.58926
X-1.93300 Y1.58926
X-1.93300 Y1.59026
X-1.93200 Y1.59026
X-1.93200 Y1.59126
X-1.93100 Y1.59126
X-1.93100 Y1.59226
X-1.93000 Y1.59226
X-1.93000 Y1.59326
X-1.92900 Y1.59326
X-1.92900 Y1.59426
X-1.92800 Y1.59426
X-1.92800 Y1.59526
X-1.92700 Y1.59526
X-1.92700 Y1.59626
X-1.92600 Y1.59626
X-1.92600 Y1.59726
X-1.92500 Y1.59726
X-1.92500 Y1.59826
X-1.92400 Y1.59826
X-1.92400 Y1.59926
X-1.92300 Y1.59926
X-1.92300 Y1.60026
X-1.92200 Y1.60026
X-1.92200 Y1.60126
X-1.92100 Y1.60126
X-1.92100 Y1.60226
X-1.92000 Y1.60226
X-1.92000 Y1.60326
X-1.91900 Y1.60326
X-1.91900 Y1.60426
X-1.91800 Y1.60426
X-1.91800 Y1.60526
X-1.91700 Y1.60526
X-1.91700 Y1.60626
X-1.91600 Y1.60626
X-1.91600 Y1.60726
X-1.91500 Y1.60726
X-1.91500 Y1.60826
X-1.91200 Y1.60826
X-1.91200 Y1.61026
X-1.91300 Y1.61026
X-1.91300 Y1.61126
X-1.91400 Y1.61126
X-1.91400 Y1.61626
X-1.91300 Y1.61626
X-1.91300 Y1.61826
X-1.91200 Y1.61826
X-1.91200 Y1.61926
X-1.91100 Y1.61926
X-1.91100 Y1.62026
X-1.91000 Y1.62026
X-1.91000 Y1.62126
X-1.90900 Y1.62126
X-1.90900 Y1.62226
X-1.90800 Y1.62226
X-1.90800 Y1.62326
X-1.90700 Y1.62326
X-1.90700 Y1.62426
X-1.90600 Y1.62426
X-1.90600 Y1.62526
X-1.90500 Y1.62526
X-1.90500 Y1.62626
X-1.90400 Y1.62626
X-1.90400 Y1.62726
X-1.90300 Y1.62726
X-1.90300 Y1.62826
X-1.90200 Y1.62826
X-1.90200 Y1.62926
X-1.90100 Y1.62926
X-1.90100 Y1.63026
X-1.90000 Y1.63026
X-1.90000 Y1.63126
X-1.89900 Y1.63126
X-1.89900 Y1.63226
X-1.89800 Y1.63226
X-1.89800 Y1.63326
X-1.89700 Y1.63326
X-1.89700 Y1.63426
X-1.89600 Y1.63426
X-1.89600 Y1.63526
X-1.89500 Y1.63526
X-1.89500 Y1.63626
X-1.89400 Y1.63626
X-1.89400 Y1.63726
X-1.89300 Y1.63726
X-1.89300 Y1.63826
X-1.89200 Y1.63826
X-1.89200 Y1.63926
X-1.89100 Y1.63926
X-1.89100 Y1.64026
X-1.89000 Y1.64026
X-1.89000 Y1.64126
X-1.88900 Y1.64126
X-1.88900 Y1.64226
X-1.88800 Y1.64226
X-1.88800 Y1.64326
X-1.88600 Y1.64326
X-1.88600 Y1.64426
X-1.87700 Y1.64426
X-1.87700 Y1.64526
X-1.87400 Y1.64526
X-1.87400 Y1.64626
X-1.87200 Y1.64626
X-1.87200 Y1.64726
X-1.87000 Y1.64726
X-1.87000 Y1.64826
X-1.86800 Y1.64826
X-1.86800 Y1.64926
X-1.86700 Y1.64926
X-1.86700 Y1.65026
X-1.86600 Y1.65026
X-1.86600 Y1.65126
X-1.86500 Y1.65126
X-1.86500 Y1.65226
X-1.86400 Y1.65226
X-1.86400 Y1.65326
X-1.86300 Y1.65326
X-1.86300 Y1.65426
X-1.86200 Y1.65426
X-1.86200 Y1.65526
X-1.86100 Y1.65526
X-1.86100 Y1.65626
X-1.86000 Y1.65626
X-1.86000 Y1.65826
X-1.85900 Y1.65826
X-1.85900 Y1.66026
X-1.85800 Y1.66026
X-1.85800 Y1.66226
X-1.85700 Y1.66226
X-1.85700 Y1.66526
X-1.85600 Y1.66526
X-1.85600 Y1.67426
X-1.85500 Y1.67426
X-1.85500 Y1.67626
X-1.85400 Y1.67626
X-1.85400 Y1.67726
X-1.85300 Y1.67726
X-1.85300 Y1.67826
X-1.85200 Y1.67826
X-1.85200 Y1.67926
X-1.85100 Y1.67926
X-1.85100 Y1.68026
X-1.85000 Y1.68026
X-1.85000 Y1.68126
X-1.84900 Y1.68126
X-1.84900 Y1.68226
X-1.84800 Y1.68226
X-1.84800 Y1.68326
X-1.84700 Y1.68326
X-1.84700 Y1.68426
X-1.84600 Y1.68426
X-1.84600 Y1.68526
X-1.84500 Y1.68526
X-1.84500 Y1.68626
X-1.84400 Y1.68626
X-1.84400 Y1.68726
X-1.84300 Y1.68726
X-1.84300 Y1.68826
X-1.84200 Y1.68826
X-1.84200 Y1.68926
X-1.84100 Y1.68926
X-1.84100 Y1.69026
X-1.84000 Y1.69026
X-1.84000 Y1.69126
X-1.83900 Y1.69126
X-1.83900 Y1.69226
X-1.83800 Y1.69226
X-1.83800 Y1.69326
X-1.83700 Y1.69326
X-1.83700 Y1.69426
X-1.83600 Y1.69426
X-1.83600 Y1.69526
X-1.83500 Y1.69526
X-1.83500 Y1.69626
X-1.83400 Y1.69626
X-1.83400 Y1.69726
X-1.83300 Y1.69726
X-1.83300 Y1.69826
X-1.83200 Y1.69826
X-1.83200 Y1.69926
X-1.83100 Y1.69926
X-1.83100 Y1.70026
X-1.83000 Y1.70026
X-1.83000 Y1.70126
X-1.82900 Y1.70126
X-1.82900 Y1.70226
X-1.82700 Y1.70226
X-1.82700 Y1.70326
X-1.38100 Y1.70326
X-1.38100 Y1.70226
X-1.38000 Y1.70226
X-1.38000 Y1.70126
X-1.37900 Y1.70126
X-1.37900 Y1.70026
X-1.37800 Y1.70026
X-1.37800 Y1.69726
X-1.37700 Y1.69726
X-1.37700 Y1.69626
X-1.37600 Y1.69626
X-1.37600 Y1.69526
X-1.37500 Y1.69526
X-1.37500 Y1.69426
X-1.37400 Y1.69426
X-1.37400 Y1.69326
X-1.37300 Y1.69326
X-1.37300 Y1.69226
X-1.37200 Y1.69226
X-1.37200 Y1.69126
X-1.37100 Y1.69126
X-1.37100 Y1.69026
X-1.37000 Y1.69026
X-1.37000 Y1.68926
X-1.36900 Y1.68926
X-1.36900 Y1.68826
X-1.36800 Y1.68826
X-1.36800 Y1.68726
X-1.36700 Y1.68726
X-1.36700 Y1.68626
X-1.36600 Y1.68626
X-1.36600 Y1.68526
X-1.36500 Y1.68526
X-1.36500 Y1.68426
X-1.36200 Y1.68426
X-1.36200 Y1.68326
X-1.36000 Y1.68326
X-1.36000 Y1.68226
X-1.35800 Y1.68226
X-1.35800 Y1.68126
X-1.35600 Y1.68126
X-1.35600 Y1.68026
X-1.35300 Y1.68026
X-1.35300 Y1.67926
X-1.35100 Y1.67926
X-1.35100 Y1.67826
X-1.27500 Y1.67826
X-1.27500 Y1.67926
X-1.27300 Y1.67926
X-1.27300 Y1.68026
X-1.27100 Y1.68026
X-1.27100 Y1.68126
X-1.26900 Y1.68126
X-1.26900 Y1.68226
X-1.26700 Y1.68226
X-1.26700 Y1.68326
X-1.26400 Y1.68326
X-1.26400 Y1.68426
X-1.26200 Y1.68426
X-1.26200 Y1.68526
X-1.26100 Y1.68526
X-1.26100 Y1.68626
X-1.26000 Y1.68626
X-1.26000 Y1.68726
X-1.25900 Y1.68726
X-1.25900 Y1.68826
X-1.25800 Y1.68826
X-1.25800 Y1.68926
X-1.25700 Y1.68926
X-1.25700 Y1.69026
X-1.25600 Y1.69026
X-1.25600 Y1.69126
X-1.25500 Y1.69126
X-1.25500 Y1.69226
X-1.25400 Y1.69226
X-1.25400 Y1.69326
X-1.25300 Y1.69326
X-1.25300 Y1.69426
X-1.25200 Y1.69426
X-1.25200 Y1.69526
X-1.25100 Y1.69526
X-1.25100 Y1.69626
X-1.25000 Y1.69626
X-1.25000 Y1.69726
X-1.24900 Y1.69726
X-1.24900 Y1.69926
X-1.24800 Y1.69926
X-1.24800 Y1.70126
X-1.24700 Y1.70126
X-1.24700 Y1.70326
X-1.24600 Y1.70326
X-1.24600 Y1.70626
X-1.24500 Y1.70626
X-1.24500 Y1.70826
X-1.24400 Y1.70826
X-1.24400 Y1.71126
X-1.24300 Y1.71126
X-1.24300 Y1.72826
X-1.24400 Y1.72826
X-1.24400 Y1.73126
X-1.24500 Y1.73126
X-1.24500 Y1.73326
X-1.24600 Y1.73326
X-1.24600 Y1.73626
X-1.24700 Y1.73626
X-1.24700 Y1.73826
X-1.24800 Y1.73826
X-1.24800 Y1.74026
X-1.24900 Y1.74026
X-1.24900 Y1.74226
X-1.25000 Y1.74226
X-1.25000 Y1.74326
X-1.25100 Y1.74326
X-1.25100 Y1.74426
X-1.25200 Y1.74426
X-1.25200 Y1.74526
X-1.25300 Y1.74526
X-1.25300 Y1.74626
X-1.25400 Y1.74626
X-1.25400 Y1.74726
X-1.25500 Y1.74726
X-1.25500 Y1.74826
X-1.25600 Y1.74826
X-1.25600 Y1.74926
X-1.25700 Y1.74926
X-1.25700 Y1.75026
X-1.25800 Y1.75026
X-1.25800 Y1.75126
X-1.25900 Y1.75126
X-1.25900 Y1.75226
X-1.26000 Y1.75226
X-1.26000 Y1.75326
X-1.26100 Y1.75326
X-1.26100 Y1.75426
X-1.26200 Y1.75426
X-1.26200 Y1.75526
X-1.26400 Y1.75526
X-1.26400 Y1.75626
X-1.26700 Y1.75626
X-1.26700 Y1.75726
X-1.26900 Y1.75726
X-1.26900 Y1.75826
X-1.27100 Y1.75826
X-1.27100 Y1.75926
X-1.27300 Y1.75926
X-1.27300 Y1.76026
X-1.27500 Y1.76026
X-1.27500 Y1.76126
X-1.35100 Y1.76126
X-1.35100 Y1.76026
X-1.35300 Y1.76026
X-1.35300 Y1.75926
X-1.35600 Y1.75926
X-1.35600 Y1.75826
X-1.35800 Y1.75826
X-1.35800 Y1.75726
X-1.36000 Y1.75726
X-1.36000 Y1.75626
X-1.36200 Y1.75626
X-1.36200 Y1.75526
X-1.36500 Y1.75526
X-1.36500 Y1.75426
X-1.36600 Y1.75426
X-1.36600 Y1.75326
X-1.36700 Y1.75326
X-1.36700 Y1.75226
X-1.36800 Y1.75226
X-1.36800 Y1.75126
X-1.36900 Y1.75126
X-1.36900 Y1.75026
X-1.37000 Y1.75026
X-1.37000 Y1.74926
X-1.37100 Y1.74926
X-1.37100 Y1.74826
G04 P0 ( dwell for no time -- G64 should not smooth over this point )
G00 Z0.10000 ( retract )

G00 X-1.37100 Y1.64826 ( rapid move to begin. )
G01 Z-0.00500 F10.00000 ( plunge. )
G04 P0 ( dwell for no time -- G64 should not smooth over this point )
X-1.37100 Y1.64826
X-1.37200 Y1.64826
X-1.37200 Y1.64726
X-1.37300 Y1.64726
X-1.37300 Y1.64626
X-1.37400 Y1.64626
X-1.37400 Y1.64526
X-1.37500 Y1.64526
X-1.37500 Y1.64426
X-1.37600 Y1.64426
X-1.37600 Y1.64326
X-1.37700 Y1.64326
X-1.37700 Y1.64226
X-1.37800 Y1.64226
X-1.37800 Y1.64026
X-1.37900 Y1.64026
X-1.37900 Y1.63826
X-1.38000 Y1.63826
X-1.38000 Y1.63526
X-1.38100 Y1.63526
X-1.38100 Y1.63326
X-1.38200 Y1.63326
X-1.38200 Y1.63126
X-1.38300 Y1.63126
X-1.38300 Y1.62826
X-1.38400 Y1.62826
X-1.38400 Y1.61126
X-1.38300 Y1.61126
X-1.38300 Y1.60826
X-1.38200 Y1.60826
X-1.38200 Y1.60626
X-1.38100 Y1.60626
X-1.38100 Y1.60326
X-1.38000 Y1.60326
X-1.38000 Y1.60126
X-1.37900 Y1.60126
X-1.37900 Y1.59926
X-1.37800 Y1.59926
X-1.37800 Y1.59726
X-1.37700 Y1.59726
X-1.37700 Y1.59626
X-1.37600 Y1.59626
X-1.37600 Y1.59526
X-1.37500 Y1.59526
X-1.37500 Y1.59426
X-1.37400 Y1.59426
X-1.37400 Y1.59326
X-1.37300 Y1.59326
X-1.37300 Y1.59226
X-1.37200 Y1.59226
X-1.37200 Y1.59126
X-1.37100 Y1.59126
X-1.37100 Y1.59026
X-1.37000 Y1.59026
X-1.37000 Y1.58926
X-1.36900 Y1.58926
X-1.36900 Y1.58826
X-1.36800 Y1.58826
X-1.36800 Y1.58726
X-1.36700 Y1.58726
X-1.36700 Y1.58626
X-1.36600 Y1.58626
X-1.36600 Y1.58526
X-1.36500 Y1.58526
X-1.36500 Y1.58426
X-1.36200 Y1.58426
X-1.36200 Y1.58326
X-1.36000 Y1.58326
X-1.36000 Y1.58226
X-1.35800 Y1.58226
X-1.35800 Y1.58126
X-1.35600 Y1.58126
X-1.35600 Y1.58026
X-1.35300 Y1.58026
X-1.35300 Y1.57926
X-1.35100 Y1.57926
X-1.35100 Y1.57826
X-1.27500 Y1.57826
X-1.27500 Y1.57926
X-1.27300 Y1.57926
X-1.27300 Y1.58026
X-1.27100 Y1.58026
X-1.27100 Y1.58126
X-1.26900 Y1.58126
X-1.26900 Y1.58226
X-1.26700 Y1.58226
X-1.26700 Y1.58326
X-1.26400 Y1.58326
X-1.26400 Y1.58426
X-1.26200 Y1.58426
X-1.26200 Y1.58526
X-1.26100 Y1.58526
X-1.26100 Y1.58626
X-1.26000 Y1.58626
X-1.26000 Y1.58726
X-1.25900 Y1.58726
X-1.25900 Y1.58826
X-1.25800 Y1.58826
X-1.25800 Y1.58926
X-1.25700 Y1.58926
X-1.25700 Y1.59026
X-1.25600 Y1.59026
X-1.25600 Y1.59126
X-1.25500 Y1.59126
X-1.25500 Y1.59226
X-1.25400 Y1.59226
X-1.25400 Y1.59326
X-1.25300 Y1.59326
X-1.25300 Y1.59426
X-1.25200 Y1.59426
X-1.25200 Y1.59526
X-1.25100 Y1.59526
X-1.25100 Y1.59626
X-1.25000 Y1.59626
X-1.25000 Y1.59726
X-1.24900 Y1.59726
X-1.24900 Y1.59926
X-1.24800 Y1.59926
X-1.24800 Y1.60126
X-1.24700 Y1.60126
X-1.24700 Y1.60326
X-1.24600 Y1.60326
X-1.24600 Y1.60626
X-1.24500 Y1.60626
X-1.24500 Y1.60826
X-1.24400 Y1.60826
X-1.24400 Y1.61126
X-1.24300 Y1.61126
X-1.24300 Y1.62826
X-1.24400 Y1.62826
X-1.24400 Y1.63126
X-1.24500 Y1.63126
X-1.24500 Y1.63326
X-1.24600 Y1.63326
X-1.24600 Y1.63626
X-1.24700 Y1.63626
X-1.24700 Y1.63826
X-1.24800 Y1.63826
X-1.24800 Y1.64026
X-1.24900 Y1.64026
X-1.24900 Y1.64226
X-1.25000 Y1.64226
X-1.25000 Y1.64326
X-1.25100 Y1.64326
X-1.25100 Y1.64426
X-1.25200 Y1.64426
X-1.25200 Y1.64526
X-1.25300 Y1.64526
X-1.25300 Y1.64626
X-1.25400 Y1.64626
X-1.25400 Y1.64726
X-1.25500 Y1.64726
X-1.25500 Y1.64826
X-1.25600 Y1.64826
X-1.25600 Y1.64926
X-1.25700 Y1.64926
X-1.25700 Y1.65026
X-1.25800 Y1.65026
X-1.25800 Y1.65126
X-1.25900 Y1.65126
X-1.25900 Y1.65226
X-1.26000 Y1.65226
X-1.26000 Y1.65326
X-1.26100 Y1.65326
X-1.26100 Y1.65426
X-1.26200 Y1.65426
X-1.26200 Y1.65526
X-1.26400 Y1.65526
X-1.26400 Y1.65626
X-1.26700 Y1.65626
X-1.26700 Y1.65726
X-1.26900 Y1.65726
X-1.26900 Y1.65826
X-1.27100 Y1.65826
X-1.27100 Y1.65926
X-1.27300 Y1.65926
X-1.27300 Y1.66026
X-1.27500 Y1.66026
X-1.27500 Y1.66126
X-1.35100 Y1.66126
X-1.35100 Y1.66026
X-1.35300 Y1.66026
X-1.35300 Y1.65926
X-1.35600 Y1.65926
X-1.35600 Y1.65826
X-1.35800 Y1.65826
X-1.35800 Y1.65726
X-1.36000 Y1.65726
X-1.36000 Y1.65626
X-1.36200 Y1.65626
X-1.36200 Y1.65526
X-1.36500 Y1.65526
X-1.36500 Y1.65426
X-1.36600 Y1.65426
X-1.36600 Y1.65326
X-1.36700 Y1.65326
X-1.36700 Y1.65226
X-1.36800 Y1.65226
X-1.36800 Y1.65126
X-1.36900 Y1.65126
X-1.36900 Y1.65026
X-1.37000 Y1.65026
X-1.37000 Y1.64926
X-1.37100 Y1.64926
X-1.37100 Y1.64826
G04 P0 ( dwell for no time -- G64 should not smooth over this point )
G00 Z0.10000 ( retract )

G00 X-1.91600 Y1.60626 ( rapid move to begin. )
G01 Z-0.00500 F10.00000 ( plunge. )
G04 P0 ( dwell for no time -- G64 should not smooth over this point )
X-1.91600 Y1.60626
X-1.91700 Y1.60626
X-1.91700 Y1.60526
X-1.91800 Y1.60526
X-1.91800 Y1.60426
X-1.91900 Y1.60426
X-1.91900 Y1.60326
X-1.92000 Y1.60326
X-1.92000 Y1.60226
X-1.92100 Y1.60226
X-1.92100 Y1.60126
X-1.92200 Y1.60126
X-1.92200 Y1.60026
X-1.92300 Y1.60026
X-1.92300 Y1.59926
X-1.92400 Y1.59926
X-1.92400 Y1.59826
X-1.92500 Y1.59826
X-1.92500 Y1.59726
X-1.92600 Y1.59726
X-1.92600 Y1.59626
X-1.92700 Y1.59626
X-1.92700 Y1.59526
X-1.92800 Y1.59526
X-1.92800 Y1.59426
X-1.92900 Y1.59426
X-1.92900 Y1.59326
X-1.93000 Y1.59326
X-1.93000 Y1.59226
X-1.93100 Y1.59226
X-1.93100 Y1.59126
X-1.93200 Y1.59126
X-1.93200 Y1.59026
X-1.93300 Y1.59026
X-1.93300 Y1.58926
X-1.93400 Y1.58926
X-1.93400 Y1.58826
X-1.93500 Y1.58826
X-1.93500 Y1.58726
X-1.93600 Y1.58726
X-1.93600 Y1.58626
X-1.93700 Y1.58626
X-1.93700 Y1.58526
X-1.93800 Y1.58526
X-1.93800 Y1.58426
X-1.93900 Y1.58426
X-1.93900 Y1.58326
X-1.94000 Y1.58326
X-1.94000 Y1.58226
X-1.94100 Y1.58226
X-1.94100 Y1.58126
X-1.94200 Y1.58126
X-1.94200 Y1.58026
X-1.94300 Y1.58026
X-1.94300 Y1.57926
X-1.94400 Y1.57926
X-1.94400 Y1.57826
X-1.94500 Y1.57826
X-1.94500 Y1.57726
X-1.94600 Y1.57726
X-1.94600 Y1.57626
X-1.94700 Y1.57626
X-1.94700 Y1.57526
X-1.94800 Y1.57526
X-1.94800 Y1.57426
X-1.94900 Y1.57426
X-1.94900 Y1.57326
X-1.95000 Y1.57326
X-1.95000 Y1.57226
X-1.95100 Y1.57226
X-1.95100 Y1.57126
X-1.95200 Y1.57126
X-1.95200 Y1.57026
X-1.95300 Y1.57026
X-1.95300 Y1.56926
X-1.95400 Y1.56926
X-1.95400 Y1.56826
X-1.95500 Y1.56826
X-1.95500 Y1.56726
X-1.95600 Y1.56726
X-1.95600 Y1.56626
X-1.95700 Y1.56626
X-1.95700 Y1.56526
X-1.95800 Y1.56526
X-1.95800 Y1.56426
X-1.95900 Y1.56426
X-1.95900 Y1.56326
X-1.96000 Y1.56326
X-1.96000 Y1.56226
X-1.96100 Y1.56226
X-1.96100 Y1.56126
X-1.96200 Y1.56126
X-1.96200 Y1.56026
X-1.96300 Y1.56026
X-1.96300 Y1.55926
X-1.96400 Y1.55926
X-1.96400 Y1.55826
X-1.96500 Y1.55826
X-1.96500 Y1.55726
X-1.96600 Y1.55726
X-1.96600 Y1.55626
X-1.96700 Y1.55626
X-1.96700 Y1.55526
X-1.96800 Y1.55526
X-1.96800 Y1.55426
X-1.96900 Y1.55426
X-1.96900 Y1.55326
X-1.97000 Y1.55326
X-1.97000 Y1.55226
X-1.97100 Y1.55226
X-1.97100 Y1.55126
X-1.97200 Y1.55126
X-1.97200 Y1.55026
X-1.97300 Y1.55026
X-1.97300 Y1.54926
X-1.97400 Y1.54926
X-1.97400 Y1.54826
X-1.97500 Y1.54826
X-1.97500 Y1.54726
X-1.97600 Y1.54726
X-1.97600 Y1.54626
X-1.97700 Y1.54626
X-1.97700 Y1.54526
X-1.97800 Y1.54526
X-1.97800 Y1.54426
X-1.97900 Y1.54426
X-1.97900 Y1.54326
X-1.98000 Y1.54326
X-1.98000 Y1.54226
X-1.98100 Y1.54226
X-1.98100 Y1.54126
X-1.98200 Y1.54126
X-1.98200 Y1.54026
X-1.98300 Y1.54026
X-1.98300 Y1.53926
X-1.98400 Y1.53926
X-1.98400 Y1.53826
X-1.98500 Y1.53826
X-1.98500 Y1.53726
X-1.98600 Y1.53726
X-1.98600 Y1.53626
X-1.98700 Y1.53626
X-1.98700 Y1.53526
X-1.98800 Y1.53526
X-1.98800 Y1.53426
X-1.98900 Y1.53426
X-1.98900 Y1.53326
X-1.99000 Y1.53326
X-1.99000 Y1.53226
X-1.99100 Y1.53226
X-1.99100 Y1.53126
X-1.99200 Y1.53126
X-1.99200 Y1.53026
X-1.99300 Y1.53026
X-1.99300 Y1.52926
X-1.99400 Y1.52926
X-1.99400 Y1.52826
X-1.99500 Y1.52826
X-1.99500 Y1.52726
X-1.99600 Y1.52726
X-1.99600 Y1.52626
X-1.99700 Y1.52626
X-1.99700 Y1.52526
X-1.99800 Y1.52526
X-1.99800 Y1.52426
X-1.99900 Y1.52426
X-1.99900 Y1.52326
X-2.00000 Y1.52326
X-2.00000 Y1.52226
X-2.00100 Y1.52226
X-2.00100 Y1.52126
X-2.00200 Y1.52126
X-2.00200 Y1.52026
X-2.00300 Y1.52026
X-2.00300 Y1.51926
X-2.00400 Y1.51926
X-2.00400 Y1.51826
X-2.00500 Y1.51826
X-2.00500 Y1.51726
X-2.00700 Y1.51726
X-2.00700 Y1.51626
X-2.00900 Y1.51626
X-2.00900 Y1.51526
X-2.01200 Y1.51526
X-2.01200 Y1.51426
X-2.01500 Y1.51426
X-2.01500 Y1.51326
X-2.13100 Y1.51326
X-2.13100 Y1.51426
X-2.13400 Y1.51426
X-2.13400 Y1.51526
X-2.13600 Y1.51526
X-2.13600 Y1.51626
X-2.14000 Y1.51626
X-2.14000 Y1.51726
X-2.14700 Y1.51726
X-2.14700 Y1.51826
X-2.15400 Y1.51826
X-2.15400 Y1.51726
X-2.15600 Y1.51726
X-2.15600 Y1.51626
X-2.15900 Y1.51626
X-2.15900 Y1.51526
X-2.16100 Y1.51526
X-2.16100 Y1.51426
X-2.16600 Y1.51426
X-2.16600 Y1.51326
X-2.17000 Y1.51326
X-2.17000 Y1.51226
X-2.17200 Y1.51226
X-2.17200 Y1.51126
X-2.17600 Y1.51126
X-2.17600 Y1.51026
X-2.17800 Y1.51026
X-2.17800 Y1.50926
X-2.18100 Y1.50926
X-2.18100 Y1.50826
X-2.18200 Y1.50826
X-2.18200 Y1.50726
X-2.18300 Y1.50726
X-2.18300 Y1.50026
X-2.18400 Y1.50026
X-2.18400 Y1.48726
X-2.18300 Y1.48726
X-2.18300 Y1.48426
X-2.18200 Y1.48426
X-2.18200 Y1.48126
X-2.18100 Y1.48126
X-2.18100 Y1.47926
X-2.18000 Y1.47926
X-2.18000 Y1.47826
X-2.17900 Y1.47826
X-2.17900 Y1.47726
X-2.17800 Y1.47726
X-2.17800 Y1.47626
X-2.17700 Y1.47626
X-2.17700 Y1.47526
X-2.17600 Y1.47526
X-2.17600 Y1.47426
X-2.17500 Y1.47426
X-2.17500 Y1.47326
X-2.17400 Y1.47326
X-2.17400 Y1.47226
X-2.17300 Y1.47226
X-2.17300 Y1.47126
X-2.17100 Y1.47126
X-2.17100 Y1.47026
X-2.16900 Y1.47026
X-2.16900 Y1.46926
X-2.16700 Y1.46926
X-2.16700 Y1.46826
X-2.16400 Y1.46826
X-2.16400 Y1.46726
X-2.15200 Y1.46726
X-2.15200 Y1.46826
X-2.14900 Y1.46826
X-2.14900 Y1.46926
X-2.14700 Y1.46926
X-2.14700 Y1.47026
X-2.14500 Y1.47026
X-2.14500 Y1.47126
X-2.14300 Y1.47126
X-2.14300 Y1.47226
X-2.14200 Y1.47226
X-2.14200 Y1.47326
X-2.14100 Y1.47326
X-2.14100 Y1.47426
X-2.14000 Y1.47426
X-2.14000 Y1.47526
X-2.13900 Y1.47526
X-2.13900 Y1.47626
X-2.13700 Y1.47626
X-2.13700 Y1.47726
X-1.99400 Y1.47726
X-1.99400 Y1.47826
X-1.99300 Y1.47826
X-1.99300 Y1.47926
X-1.99200 Y1.47926
X-1.99200 Y1.48026
X-1.99100 Y1.48026
X-1.99100 Y1.48126
X-1.99000 Y1.48126
X-1.99000 Y1.48226
X-1.98900 Y1.48226
X-1.98900 Y1.48326
X-1.98800 Y1.48326
X-1.98800 Y1.48426
X-1.98700 Y1.48426
X-1.98700 Y1.48526
X-1.98600 Y1.48526
X-1.98600 Y1.48626
X-1.98500 Y1.48626
X-1.98500 Y1.48726
X-1.98400 Y1.48726
X-1.98400 Y1.48826
X-1.98300 Y1.48826
X-1.98300 Y1.48926
X-1.98200 Y1.48926
X-1.98200 Y1.49026
X-1.98100 Y1.49026
X-1.98100 Y1.49126
X-1.98000 Y1.49126
X-1.98000 Y1.49226
X-1.97900 Y1.49226
X-1.97900 Y1.49326
X-1.97800 Y1.49326
X-1.97800 Y1.49426
X-1.97700 Y1.49426
X-1.97700 Y1.49526
X-1.97600 Y1.49526
X-1.97600 Y1.49626
X-1.97500 Y1.49626
X-1.97500 Y1.49726
X-1.97400 Y1.49726
X-1.97400 Y1.49826
X-1.97300 Y1.49826
X-1.97300 Y1.49926
X-1.97200 Y1.49926
X-1.97200 Y1.50026
X-1.97100 Y1.50026
X-1.97100 Y1.50126
X-1.97000 Y1.50126
X-1.97000 Y1.50226
X-1.96900 Y1.50226
X-1.96900 Y1.50326
X-1.96800 Y1.50326
X-1.96800 Y1.50426
X-1.96700 Y1.50426
X-1.96700 Y1.50526
X-1.96600 Y1.50526
X-1.96600 Y1.50626
X-1.96500 Y1.50626
X-1.96500 Y1.50726
X-1.96400 Y1.50726
X-1.96400 Y1.50826
X-1.96300 Y1.50826
X-1.96300 Y1.50926
X-1.96200 Y1.50926
X-1.96200 Y1.51026
X-1.96100 Y1.51026
X-1.96100 Y1.51126
X-1.96000 Y1.51126
X-1.96000 Y1.51226
X-1.95900 Y1.51226
X-1.95900 Y1.51326
X-1.95800 Y1.51326
X-1.95800 Y1.51426
X-1.95700 Y1.51426
X-1.95700 Y1.51526
X-1.95600 Y1.51526
X-1.95600 Y1.51626
X-1.95500 Y1.51626
X-1.95500 Y1.51726
X-1.95400 Y1.51726
X-1.95400 Y1.51826
X-1.95300 Y1.51826
X-1.95300 Y1.51926
X-1.95200 Y1.51926
X-1.95200 Y1.52026
X-1.95100 Y1.52026
X-1.95100 Y1.52126
X-1.95000 Y1.52126
X-1.95000 Y1.52226
X-1.94900 Y1.52226
X-1.94900 Y1.52326
X-1.94800 Y1.52326
X-1.94800 Y1.52426
X-1.94700 Y1.52426
X-1.94700 Y1.52526
X-1.94600 Y1.52526
X-1.94600 Y1.52626
X-1.94500 Y1.52626
X-1.94500 Y1.52726
X-1.94400 Y1.52726
X-1.94400 Y1.52826
X-1.94300 Y1.52826
X-1.94300 Y1.52926
X-1.94200 Y1.52926
X-1.94200 Y1.53026
X-1.94100 Y1.53026
X-1.94100 Y1.53126
X-1.94000 Y1.53126
X-1.94000 Y1.53226
X-1.93900 Y1.53226
X-1.93900 Y1.53326
X-1.93800 Y1.53326
X-1.93800 Y1.53426
X-1.93700 Y1.53426
X-1.93700 Y1.53526
X-1.93600 Y1.53526
X-1.93600 Y1.53626
X-1.93500 Y1.53626
X-1.93500 Y1.53726
X-1.93400 Y1.53726
X-1.93400 Y1.53826
X-1.93300 Y1.53826
X-1.93300 Y1.53926
X-1.93200 Y1.53926
X-1.93200 Y1.54026
X-1.93100 Y1.54026
X-1.93100 Y1.54126
X-1.93000 Y1.54126
X-1.93000 Y1.54226
X-1.92900 Y1.54226
X-1.92900 Y1.54326
X-1.92800 Y1.54326
X-1.92800 Y1.54426
X-1.92700 Y1.54426
X-1.92700 Y1.54526
X-1.92600 Y1.54526
X-1.92600 Y1.54626
X-1.92500 Y1.54626
X-1.92500 Y1.54726
X-1.92400 Y1.54726
X-1.92400 Y1.54826
X-1.92300 Y1.54826
X-1.92300 Y1.54926
X-1.92200 Y1.54926
X-1.92200 Y1.55026
X-1.92100 Y1.55026
X-1.92100 Y1.55126
X-1.92000 Y1.55126
X-1.92000 Y1.55226
X-1.91900 Y1.55226
X-1.91900 Y1.55326
X-1.91800 Y1.55326
X-1.91800 Y1.55426
X-1.91700 Y1.55426
X-1.91700 Y1.55526
X-1.91600 Y1.55526
X-1.91600 Y1.55626
X-1.91500 Y1.55626
X-1.91500 Y1.55726
X-1.91400 Y1.55726
X-1.91400 Y1.55826
X-1.91300 Y1.55826
X-1.91300 Y1.55926
X-1.91200 Y1.55926
X-1.91200 Y1.56026
X-1.91100 Y1.56026
X-1.91100 Y1.56126
X-1.91000 Y1.56126
X-1.91000 Y1.56226
X-1.90900 Y1.56226
X-1.90900 Y1.56326
X-1.90800 Y1.56326
X-1.90800 Y1.56426
X-1.90700 Y1.56426
X-1.90700 Y1.56526
X-1.90600 Y1.56526
X-1.90600 Y1.56626
X-1.90500 Y1.56626
X-1.90500 Y1.56726
X-1.90400 Y1.56726
X-1.90400 Y1.56826
X-1.90300 Y1.56826
X-1.90300 Y1.56926
X-1.90200 Y1.56926
X-1.90200 Y1.57026
X-1.90100 Y1.57026
X-1.90100 Y1.57126
X-1.90000 Y1.57126
X-1.90000 Y1.57226
X-1.89900 Y1.57226
X-1.89900 Y1.57326
X-1.89800 Y1.57326
X-1.89800 Y1.57426
X-1.89600 Y1.57426
X-1.89600 Y1.57526
X-1.66700 Y1.57526
X-1.66700 Y1.57426
X-1.66500 Y1.57426
X-1.66500 Y1.57326
X-1.66400 Y1.57326
X-1.66400 Y1.57226
X-1.66300 Y1.57226
X-1.66300 Y1.57126
X-1.66200 Y1.57126
X-1.66200 Y1.57026
X-1.66100 Y1.57026
X-1.66100 Y1.56926
X-1.65900 Y1.56926
X-1.65900 Y1.56826
X-1.65600 Y1.56826
X-1.65600 Y1.56726
X-1.65300 Y1.56726
X-1.65300 Y1.56626
X-1.63900 Y1.56626
X-1.63900 Y1.56726
X-1.63700 Y1.56726
X-1.63700 Y1.56826
X-1.63400 Y1.56826
X-1.63400 Y1.56926
X-1.63200 Y1.56926
X-1.63200 Y1.57026
X-1.63100 Y1.57026
X-1.63100 Y1.57126
X-1.63000 Y1.57126
X-1.63000 Y1.57226
X-1.62900 Y1.57226
X-1.62900 Y1.57326
X-1.62800 Y1.57326
X-1.62800 Y1.57426
X-1.62700 Y1.57426
X-1.62700 Y1.57526
X-1.62600 Y1.57526
X-1.62600 Y1.57626
X-1.62500 Y1.57626
X-1.62500 Y1.57726
X-1.62400 Y1.57726
X-1.62400 Y1.57926
X-1.62300 Y1.57926
X-1.62300 Y1.58126
X-1.62200 Y1.58126
X-1.62200 Y1.58326
X-1.62100 Y1.58326
X-1.62100 Y1.58626
X-1.62000 Y1.58626
X-1.62000 Y1.59826
X-1.62100 Y1.59826
X-1.62100 Y1.60126
X-1.62200 Y1.60126
X-1.62200 Y1.60326
X-1.62300 Y1.60326
X-1.62300 Y1.60526
X-1.62400 Y1.60526
X-1.62400 Y1.60726
X-1.62500 Y1.60726
X-1.62500 Y1.60826
X-1.62600 Y1.60826
X-1.62600 Y1.60926
X-1.62700 Y1.60926
X-1.62700 Y1.61026
X-1.62800 Y1.61026
X-1.62800 Y1.61126
X-1.62900 Y1.61126
X-1.62900 Y1.61226
X-1.63000 Y1.61226
X-1.63000 Y1.61326
X-1.63100 Y1.61326
X-1.63100 Y1.61426
X-1.63200 Y1.61426
X-1.63200 Y1.61526
X-1.63400 Y1.61526
X-1.63400 Y1.61626
X-1.63700 Y1.61626
X-1.63700 Y1.61726
X-1.64000 Y1.61726
X-1.64000 Y1.61826
X-1.65300 Y1.61826
X-1.65300 Y1.61726
X-1.65600 Y1.61726
X-1.65600 Y1.61626
X-1.65900 Y1.61626
X-1.65900 Y1.61526
X-1.66100 Y1.61526
X-1.66100 Y1.61426
X-1.66200 Y1.61426
X-1.66200 Y1.61326
X-1.66300 Y1.61326
X-1.66300 Y1.61226
X-1.66400 Y1.61226
X-1.66400 Y1.61126
X-1.66500 Y1.61126
X-1.66500 Y1.61026
X-1.66600 Y1.61026
X-1.66600 Y1.60926
X-1.66700 Y1.60926
X-1.66700 Y1.60826
X-1.91500 Y1.60826
X-1.91500 Y1.60726
X-1.91600 Y1.60726
X-1.91600 Y1.60626
G04 P0 ( dwell for no time -- G64 should not smooth over this point )
G00 Z0.10000 ( retract )

G00 X-1.37100 Y1.54826 ( rapid move to begin. )
G01 Z-0.00500 F10.00000 ( plunge. )
G04 P0 ( dwell for no time -- G64 should not smooth over this point )
X-1.37100 Y1.54826
X-1.37200 Y1.54826
X-1.37200 Y1.54726
X-1.37300 Y1.54726
X-1.37300 Y1.54626
X-1.37400 Y1.54626
X-1.37400 Y1.54526
X-1.37500 Y1.54526
X-1.37500 Y1.54426
X-1.37600 Y1.54426
X-1.37600 Y1.54326
X-1.37700 Y1.54326
X-1.37700 Y1.54226
X-1.37800 Y1.54226
X-1.37800 Y1.54026
X-1.37900 Y1.54026
X-1.37900 Y1.53826
X-1.38000 Y1.53826
X-1.38000 Y1.53526
X-1.38100 Y1.53526
X-1.38100 Y1.53326
X-1.38200 Y1.53326
X-1.38200 Y1.53126
X-1.38300 Y1.53126
X-1.38300 Y1.52826
X-1.38400 Y1.52826
X-1.38400 Y1.51126
X-1.38300 Y1.51126
X-1.38300 Y1.50826
X-1.38200 Y1.50826
X-1.38200 Y1.50626
X-1.38100 Y1.50626
X-1.38100 Y1.50326
X-1.38000 Y1.50326
X-1.38000 Y1.50126
X-1.37900 Y1.50126
X-1.37900 Y1.49926
X-1.37800 Y1.49926
X-1.37800 Y1.49726
X-1.37700 Y1.49726
X-1.37700 Y1.49626
X-1.37600 Y1.49626
X-1.37600 Y1.49526
X-1.37500 Y1.49526
X-1.37500 Y1.49426
X-1.37400 Y1.49426
X-1.37400 Y1.49326
X-1.37300 Y1.49326
X-1.37300 Y1.49226
X-1.37200 Y1.49226
X-1.37200 Y1.49126
X-1.37100 Y1.49126
X-1.37100 Y1.49026
X-1.37000 Y1.49026
X-1.37000 Y1.48926
X-1.36900 Y1.48926
X-1.36900 Y1.48826
X-1.36800 Y1.48826
X-1.36800 Y1.48726
X-1.36700 Y1.48726
X-1.36700 Y1.48626
X-1.36600 Y1.48626
X-1.36600 Y1.48526
X-1.36500 Y1.48526
X-1.36500 Y1.48426
X-1.36200 Y1.48426
X-1.36200 Y1.48326
X-1.36000 Y1.48326
X-1.36000 Y1.48226
X-1.35800 Y1.48226
X-1.35800 Y1.48126
X-1.35600 Y1.48126
X-1.35600 Y1.48026
X-1.35300 Y1.48026
X-1.35300 Y1.47926
X-1.35100 Y1.47926
X-1.35100 Y1.47826
X-1.27500 Y1.47826
X-1.27500 Y1.47926
X-1.27300 Y1.47926
X-1.27300 Y1.48026
X-1.27100 Y1.48026
X-1.27100 Y1.48126
X-1.26900 Y1.48126
X-1.26900 Y1.48226
X-1.26700 Y1.48226
X-1.26700 Y1.48326
X-1.26400 Y1.48326
X-1.26400 Y1.48426
X-1.26200 Y1.48426
X-1.26200 Y1.48526
X-1.26100 Y1.48526
X-1.26100 Y1.48626
X-1.26000 Y1.48626
X-1.26000 Y1.48726
X-1.25900 Y1.48726
X-1.25900 Y1.48826
X-1.25800 Y1.48826
X-1.25800 Y1.48926
X-1.25700 Y1.48926
X-1.25700 Y1.49026
X-1.25600 Y1.49026
X-1.25600 Y1.49126
X-1.25500 Y1.49126
X-1.25500 Y1.49226
X-1.25400 Y1.49226
X-1.25400 Y1.49326
X-1.25300 Y1.49326
X-1.25300 Y1.49426
X-1.25200 Y1.49426
X-1.25200 Y1.49526
X-1.25100 Y1.49526
X-1.25100 Y1.49626
X-1.25000 Y1.49626
X-1.25000 Y1.49726
X-1.24900 Y1.49726
X-1.24900 Y1.49926
X-1.24800 Y1.49926
X-1.24800 Y1.50126
X-1.24700 Y1.50126
X-1.24700 Y1.50326
X-1.24600 Y1.50326
X-1.24600 Y1.50626
X-1.24500 Y1.50626
X-1.24500 Y1.50826
X-1.24400 Y1.50826
X-1.24400 Y1.51126
X-1.24300 Y1.51126
X-1.24300 Y1.52826
X-1.24400 Y1.52826
X-1.24400 Y1.53126
X-1.24500 Y1.53126
X-1.24500 Y1.53326
X-1.24600 Y1.53326
X-1.24600 Y1.53626
X-1.24700 Y1.53626
X-1.24700 Y1.53826
X-1.24800 Y1.53826
X-1.24800 Y1.54026
X-1.24900 Y1.54026
X-1.24900 Y1.54226
X-1.25000 Y1.54226
X-1.25000 Y1.54326
X-1.25100 Y1.54326
X-1.25100 Y1.54426
X-1.25200 Y1.54426
X-1.25200 Y1.54526
X-1.25300 Y1.54526
X-1.25300 Y1.54626
X-1.25400 Y1.54626
X-1.25400 Y1.54726
X-1.25500 Y1.54726
X-1.25500 Y1.54826
X-1.25600 Y1.54826
X-1.25600 Y1.54926
X-1.25700 Y1.54926
X-1.25700 Y1.55026
X-1.25800 Y1.55026
X-1.25800 Y1.55126
X-1.25900 Y1.55126
X-1.25900 Y1.55226
X-1.26000 Y1.55226
X-1.26000 Y1.55326
X-1.26100 Y1.55326
X-1.26100 Y1.55426
X-1.26200 Y1.55426
X-1.26200 Y1.55526
X-1.26400 Y1.55526
X-1.26400 Y1.55626
X-1.26700 Y1.55626
X-1.26700 Y1.55726
X-1.26900 Y1.55726
X-1.26900 Y1.55826
X-1.27100 Y1.55826
X-1.27100 Y1.55926
X-1.27300 Y1.55926
X-1.27300 Y1.56026
X-1.27500 Y1.56026
X-1.27500 Y1.56126
X-1.35100 Y1.56126
X-1.35100 Y1.56026
X-1.35300 Y1.56026
X-1.35300 Y1.55926
X-1.35600 Y1.55926
X-1.35600 Y1.55826
X-1.35800 Y1.55826
X-1.35800 Y1.55726
X-1.36000 Y1.55726
X-1.36000 Y1.55626
X-1.36200 Y1.55626
X-1.36200 Y1.55526
X-1.36500 Y1.55526
X-1.36500 Y1.55426
X-1.36600 Y1.55426
X-1.36600 Y1.55326
X-1.36700 Y1.55326
X-1.36700 Y1.55226
X-1.36800 Y1.55226
X-1.36800 Y1.55126
X-1.36900 Y1.55126
X-1.36900 Y1.55026
X-1.37000 Y1.55026
X-1.37000 Y1.54926
X-1.37100 Y1.54926
X-1.37100 Y1.54826
G04 P0 ( dwell for no time -- G64 should not smooth over this point )
G00 Z0.10000 ( retract )

G00 X-1.92400 Y1.52826 ( rapid move to begin. )
G01 Z-0.00500 F10.00000 ( plunge. )
G04 P0 ( dwell for no time -- G64 should not smooth over this point )
X-1.92400 Y1.52826
X-1.92500 Y1.52826
X-1.92500 Y1.52626
X-1.92600 Y1.52626
X-1.92600 Y1.52426
X-1.92700 Y1.52426
X-1.92700 Y1.52226
X-1.92800 Y1.52226
X-1.92800 Y1.51926
X-1.92900 Y1.51926
X-1.92900 Y1.50726
X-1.92800 Y1.50726
X-1.92800 Y1.50526
X-1.92700 Y1.50526
X-1.92700 Y1.50326
X-1.92600 Y1.50326
X-1.92600 Y1.50126
X-1.92500 Y1.50126
X-1.92500 Y1.49926
X-1.92400 Y1.49926
X-1.92400 Y1.49826
X-1.92300 Y1.49826
X-1.92300 Y1.49626
X-1.92200 Y1.49626
X-1.92200 Y1.35426
X-1.92300 Y1.35426
X-1.92300 Y1.35226
X-1.92400 Y1.35226
X-1.92400 Y1.35126
X-1.92500 Y1.35126
X-1.92500 Y1.34926
X-1.92600 Y1.34926
X-1.92600 Y1.34726
X-1.92700 Y1.34726
X-1.92700 Y1.34526
X-1.92800 Y1.34526
X-1.92800 Y1.34226
X-1.92900 Y1.34226
X-1.92900 Y1.33226
X-1.92800 Y1.33226
X-1.92800 Y1.32726
X-1.92700 Y1.32726
X-1.92700 Y1.32526
X-1.92600 Y1.32526
X-1.92600 Y1.32326
X-1.92500 Y1.32326
X-1.92500 Y1.32226
X-1.92400 Y1.32226
X-1.92400 Y1.32026
X-1.92300 Y1.32026
X-1.92300 Y1.31926
X-1.92200 Y1.31926
X-1.92200 Y1.31826
X-1.92100 Y1.31826
X-1.92100 Y1.31726
X-1.92000 Y1.31726
X-1.92000 Y1.31626
X-1.91900 Y1.31626
X-1.91900 Y1.31526
X-1.91800 Y1.31526
X-1.91800 Y1.31426
X-1.91700 Y1.31426
X-1.91700 Y1.31326
X-1.91500 Y1.31326
X-1.91500 Y1.31226
X-1.91200 Y1.31226
X-1.91200 Y1.31126
X-1.90900 Y1.31126
X-1.90900 Y1.31026
X-1.89500 Y1.31026
X-1.89500 Y1.31126
X-1.89300 Y1.31126
X-1.89300 Y1.31226
X-1.89000 Y1.31226
X-1.89000 Y1.31326
X-1.88800 Y1.31326
X-1.88800 Y1.31426
X-1.88700 Y1.31426
X-1.88700 Y1.31526
X-1.88600 Y1.31526
X-1.88600 Y1.31626
X-1.88500 Y1.31626
X-1.88500 Y1.31726
X-1.88400 Y1.31726
X-1.88400 Y1.31826
X-1.88300 Y1.31826
X-1.88300 Y1.31926
X-1.88200 Y1.31926
X-1.88200 Y1.32026
X-1.88100 Y1.32026
X-1.88100 Y1.32126
X-1.88000 Y1.32126
X-1.88000 Y1.32326
X-1.87900 Y1.32326
X-1.87900 Y1.32526
X-1.87800 Y1.32526
X-1.87800 Y1.32726
X-1.87700 Y1.32726
X-1.87700 Y1.33026
X-1.87600 Y1.33026
X-1.87600 Y1.34226
X-1.87700 Y1.34226
X-1.87700 Y1.34526
X-1.87800 Y1.34526
X-1.87800 Y1.34726
X-1.87900 Y1.34726
X-1.87900 Y1.34926
X-1.88000 Y1.34926
X-1.88000 Y1.35126
X-1.88100 Y1.35126
X-1.88100 Y1.35226
X-1.88200 Y1.35226
X-1.88200 Y1.35426
X-1.88300 Y1.35426
X-1.88300 Y1.49626
X-1.88200 Y1.49626
X-1.88200 Y1.49826
X-1.88100 Y1.49826
X-1.88100 Y1.49926
X-1.88000 Y1.49926
X-1.88000 Y1.50026
X-1.87900 Y1.50026
X-1.87900 Y1.50326
X-1.87800 Y1.50326
X-1.87800 Y1.50526
X-1.87700 Y1.50526
X-1.87700 Y1.50726
X-1.87600 Y1.50726
X-1.87600 Y1.51926
X-1.87700 Y1.51926
X-1.87700 Y1.52226
X-1.87800 Y1.52226
X-1.87800 Y1.52426
X-1.87900 Y1.52426
X-1.87900 Y1.52626
X-1.88000 Y1.52626
X-1.88000 Y1.52826
X-1.88100 Y1.52826
X-1.88100 Y1.52926
X-1.88200 Y1.52926
X-1.88200 Y1.53026
X-1.88300 Y1.53026
X-1.88300 Y1.53126
X-1.88400 Y1.53126
X-1.88400 Y1.53226
X-1.88500 Y1.53226
X-1.88500 Y1.53326
X-1.88600 Y1.53326
X-1.88600 Y1.53426
X-1.88700 Y1.53426
X-1.88700 Y1.53526
X-1.88800 Y1.53526
X-1.88800 Y1.53626
X-1.88900 Y1.53626
X-1.88900 Y1.53726
X-1.89200 Y1.53726
X-1.89200 Y1.53826
X-1.89400 Y1.53826
X-1.89400 Y1.53926
X-1.89600 Y1.53926
X-1.89600 Y1.54026
X-1.90800 Y1.54026
X-1.90800 Y1.53926
X-1.91100 Y1.53926
X-1.91100 Y1.53826
X-1.91300 Y1.53826
X-1.91300 Y1.53726
X-1.91500 Y1.53726
X-1.91500 Y1.53626
X-1.91700 Y1.53626
X-1.91700 Y1.53526
X-1.91800 Y1.53526
X-1.91800 Y1.53426
X-1.91900 Y1.53426
X-1.91900 Y1.53326
X-1.92000 Y1.53326
X-1.92000 Y1.53226
X-1.92100 Y1.53226
X-1.92100 Y1.53126
X-1.92200 Y1.53126
X-1.92200 Y1.53026
X-1.92300 Y1.53026
X-1.92300 Y1.52926
X-1.92400 Y1.52926
X-1.92400 Y1.52826
G04 P0 ( dwell for no time -- G64 should not smooth over this point )
G00 Z0.10000 ( retract )

G00 X-1.49100 Y1.46926 ( rapid move to begin. )
G01 Z-0.00500 F10.00000 ( plunge. )
G04 P0 ( dwell for no time -- G64 should not smooth over this point )
X-1.49100 Y1.46926
X-1.49200 Y1.46926
X-1.49200 Y1.46626
X-1.49300 Y1.46626
X-1.49300 Y1.46426
X-1.49400 Y1.46426
X-1.49400 Y1.46326
X-1.49500 Y1.46326
X-1.49500 Y1.46226
X-1.49600 Y1.46226
X-1.49600 Y1.46126
X-1.50000 Y1.46126
X-1.50000 Y1.45826
X-1.50100 Y1.45826
X-1.50100 Y1.45426
X-1.50200 Y1.45426
X-1.50200 Y1.45126
X-1.50300 Y1.45126
X-1.50300 Y1.44826
X-1.50400 Y1.44826
X-1.50400 Y1.44526
X-1.50500 Y1.44526
X-1.50500 Y1.44426
X-1.50600 Y1.44426
X-1.50600 Y1.44126
X-1.50700 Y1.44126
X-1.50700 Y1.44026
X-1.50800 Y1.44026
X-1.50800 Y1.43926
X-1.50900 Y1.43926
X-1.50900 Y1.43826
X-1.51000 Y1.43826
X-1.51000 Y1.43626
X-1.51100 Y1.43626
X-1.51100 Y1.43526
X-1.51300 Y1.43526
X-1.51300 Y1.43426
X-1.51400 Y1.43426
X-1.51400 Y1.43326
X-1.51500 Y1.43326
X-1.51500 Y1.43226
X-1.51800 Y1.43226
X-1.51800 Y1.43126
X-1.51900 Y1.43126
X-1.51900 Y1.43026
X-1.52200 Y1.43026
X-1.52200 Y1.42926
X-1.52500 Y1.42926
X-1.52500 Y1.42826
X-1.52600 Y1.42826
X-1.52600 Y1.42726
X-1.52700 Y1.42726
X-1.52700 Y1.42626
X-1.52800 Y1.42626
X-1.52800 Y1.42526
X-1.52900 Y1.42526
X-1.52900 Y1.42426
X-1.53000 Y1.42426
X-1.53000 Y1.42326
X-1.53100 Y1.42326
X-1.53100 Y1.42226
X-1.53200 Y1.42226
X-1.53200 Y1.42126
X-1.53300 Y1.42126
X-1.53300 Y1.42026
X-1.53400 Y1.42026
X-1.53400 Y1.41926
X-1.53500 Y1.41926
X-1.53500 Y1.41826
X-1.53600 Y1.41826
X-1.53600 Y1.41726
X-1.53700 Y1.41726
X-1.53700 Y1.41626
X-1.53800 Y1.41626
X-1.53800 Y1.41526
X-1.53900 Y1.41526
X-1.53900 Y1.41426
X-1.54000 Y1.41426
X-1.54000 Y1.41326
X-1.54100 Y1.41326
X-1.54100 Y1.41226
X-1.54200 Y1.41226
X-1.54200 Y1.41126
X-1.54300 Y1.41126
X-1.54300 Y1.41026
X-1.54400 Y1.41026
X-1.54400 Y1.40926
X-1.54500 Y1.40926
X-1.54500 Y1.40826
X-1.54600 Y1.40826
X-1.54600 Y1.40726
X-1.54700 Y1.40726
X-1.54700 Y1.40626
X-1.54800 Y1.40626
X-1.54800 Y1.40526
X-1.54900 Y1.40526
X-1.54900 Y1.40426
X-1.55000 Y1.40426
X-1.55000 Y1.40326
X-1.55100 Y1.40326
X-1.55100 Y1.40226
X-1.55200 Y1.40226
X-1.55200 Y1.40126
X-1.55300 Y1.40126
X-1.55300 Y1.40026
X-1.55400 Y1.40026
X-1.55400 Y1.39926
X-1.55500 Y1.39926
X-1.55500 Y1.39826
X-1.55600 Y1.39826
X-1.55600 Y1.39726
X-1.55700 Y1.39726
X-1.55700 Y1.39626
X-1.55800 Y1.39626
X-1.55800 Y1.39526
X-1.55900 Y1.39526
X-1.55900 Y1.39426
X-1.56000 Y1.39426
X-1.56000 Y1.39326
X-1.56100 Y1.39326
X-1.56100 Y1.39226
X-1.56200 Y1.39226
X-1.56200 Y1.39126
X-1.56300 Y1.39126
X-1.56300 Y1.39026
X-1.56400 Y1.39026
X-1.56400 Y1.38926
X-1.56500 Y1.38926
X-1.56500 Y1.38826
X-1.56600 Y1.38826
X-1.56600 Y1.38726
X-1.56700 Y1.38726
X-1.56700 Y1.38626
X-1.56800 Y1.38626
X-1.56800 Y1.38526
X-1.56900 Y1.38526
X-1.56900 Y1.38426
X-1.57000 Y1.38426
X-1.57000 Y1.38326
X-1.57100 Y1.38326
X-1.57100 Y1.38226
X-1.57200 Y1.38226
X-1.57200 Y1.38126
X-1.57300 Y1.38126
X-1.57300 Y1.38026
X-1.57400 Y1.38026
X-1.57400 Y1.37926
X-1.57500 Y1.37926
X-1.57500 Y1.37826
X-1.57600 Y1.37826
X-1.57600 Y1.37726
X-1.57700 Y1.37726
X-1.57700 Y1.37626
X-1.57800 Y1.37626
X-1.57800 Y1.37526
X-1.57900 Y1.37526
X-1.57900 Y1.37426
X-1.58000 Y1.37426
X-1.58000 Y1.37326
X-1.58100 Y1.37326
X-1.58100 Y1.37226
X-1.58200 Y1.37226
X-1.58200 Y1.37126
X-1.58300 Y1.37126
X-1.58300 Y1.37026
X-1.58400 Y1.37026
X-1.58400 Y1.36926
X-1.58500 Y1.36926
X-1.58500 Y1.36826
X-1.58600 Y1.36826
X-1.58600 Y1.36726
X-1.58700 Y1.36726
X-1.58700 Y1.36626
X-1.58800 Y1.36626
X-1.58800 Y1.36526
X-1.58900 Y1.36526
X-1.58900 Y1.36426
X-1.59000 Y1.36426
X-1.59000 Y1.36326
X-1.59100 Y1.36326
X-1.59100 Y1.36226
X-1.59200 Y1.36226
X-1.59200 Y1.36126
X-1.59300 Y1.36126
X-1.59300 Y1.36026
X-1.59400 Y1.36026
X-1.59400 Y1.35926
X-1.59500 Y1.35926
X-1.59500 Y1.35826
X-1.59600 Y1.35826
X-1.59600 Y1.35726
X-1.59700 Y1.35726
X-1.59700 Y1.35626
X-1.59800 Y1.35626
X-1.59800 Y1.35526
X-1.59900 Y1.35526
X-1.59900 Y1.35426
X-1.60000 Y1.35426
X-1.60000 Y1.35326
X-1.60100 Y1.35326
X-1.60100 Y1.35226
X-1.60200 Y1.35226
X-1.60200 Y1.35126
X-1.60300 Y1.35126
X-1.60300 Y1.35026
X-1.60400 Y1.35026
X-1.60400 Y1.34926
X-1.60500 Y1.34926
X-1.60500 Y1.34826
X-1.60600 Y1.34826
X-1.60600 Y1.34726
X-1.60700 Y1.34726
X-1.60700 Y1.34626
X-1.60800 Y1.34626
X-1.60800 Y1.34526
X-1.60900 Y1.34526
X-1.60900 Y1.34426
X-1.61000 Y1.34426
X-1.61000 Y1.34326
X-1.61100 Y1.34326
X-1.61100 Y1.34226
X-1.61200 Y1.34226
X-1.61200 Y1.34126
X-1.61300 Y1.34126
X-1.61300 Y1.34026
X-1.61400 Y1.34026
X-1.61400 Y1.33926
X-1.61500 Y1.33926
X-1.61500 Y1.33826
X-1.61600 Y1.33826
X-1.61600 Y1.33726
X-1.61700 Y1.33726
X-1.61700 Y1.33626
X-1.61800 Y1.33626
X-1.61800 Y1.33526
X-1.61900 Y1.33526
X-1.61900 Y1.33426
X-1.62000 Y1.33426
X-1.62000 Y1.33326
X-1.62100 Y1.33326
X-1.62100 Y1.33226
X-1.62200 Y1.33226
X-1.62200 Y1.33126
X-1.62300 Y1.33126
X-1.62300 Y1.33026
X-1.62400 Y1.33026
X-1.62400 Y1.32926
X-1.62500 Y1.32926
X-1.62500 Y1.32826
X-1.62600 Y1.32826
X-1.62600 Y1.32726
X-1.62700 Y1.32726
X-1.62700 Y1.32626
X-1.62800 Y1.32626
X-1.62800 Y1.32526
X-1.62900 Y1.32526
X-1.62900 Y1.32426
X-1.63000 Y1.32426
X-1.63000 Y1.32326
X-1.63100 Y1.32326
X-1.63100 Y1.32226
X-1.63200 Y1.32226
X-1.63200 Y1.32126
X-1.63300 Y1.32126
X-1.63300 Y1.32026
X-1.63400 Y1.32026
X-1.63400 Y1.31926
X-1.63500 Y1.31926
X-1.63500 Y1.31826
X-1.63600 Y1.31826
X-1.63600 Y1.31726
X-1.63700 Y1.31726
X-1.63700 Y1.31626
X-1.63800 Y1.31626
X-1.63800 Y1.31526
X-1.63900 Y1.31526
X-1.63900 Y1.31426
X-1.64000 Y1.31426
X-1.64000 Y1.31326
X-1.64100 Y1.31326
X-1.64100 Y1.31226
X-1.64200 Y1.31226
X-1.64200 Y1.31126
X-1.64300 Y1.31126
X-1.64300 Y1.31026
X-1.64400 Y1.31026
X-1.64400 Y1.30926
X-1.64500 Y1.30926
X-1.64500 Y1.30826
X-1.64600 Y1.30826
X-1.64600 Y1.30726
X-1.64700 Y1.30726
X-1.64700 Y1.30626
X-1.64800 Y1.30626
X-1.64800 Y1.30526
X-1.64900 Y1.30526
X-1.64900 Y1.30426
X-1.65000 Y1.30426
X-1.65000 Y1.30326
X-1.65100 Y1.30326
X-1.65100 Y1.30226
X-1.65200 Y1.30226
X-1.65200 Y1.30126
X-1.65300 Y1.30126
X-1.65300 Y1.30026
X-1.65400 Y1.30026
X-1.65400 Y1.29926
X-1.65500 Y1.29926
X-1.65500 Y1.29826
X-1.65600 Y1.29826
X-1.65600 Y1.29726
X-1.65700 Y1.29726
X-1.65700 Y1.29626
X-1.65800 Y1.29626
X-1.65800 Y1.29526
X-1.65900 Y1.29526
X-1.65900 Y1.29426
X-1.66000 Y1.29426
X-1.66000 Y1.29326
X-1.66100 Y1.29326
X-1.66100 Y1.29226
X-1.66200 Y1.29226
X-1.66200 Y1.29126
X-1.66300 Y1.29126
X-1.66300 Y1.29026
X-1.66400 Y1.29026
X-1.66400 Y1.28926
X-1.66500 Y1.28926
X-1.66500 Y1.28826
X-1.66600 Y1.28826
X-1.66600 Y1.28726
X-1.66700 Y1.28726
X-1.66700 Y1.28626
X-1.66800 Y1.28626
X-1.66800 Y1.28526
X-1.66900 Y1.28526
X-1.66900 Y1.28426
X-1.67000 Y1.28426
X-1.67000 Y1.28326
X-1.67100 Y1.28326
X-1.67100 Y1.28226
X-1.67200 Y1.28226
X-1.67200 Y1.28126
X-1.67300 Y1.28126
X-1.67300 Y1.28026
X-1.67400 Y1.28026
X-1.67400 Y1.27926
X-1.67500 Y1.27926
X-1.67500 Y1.27826
X-1.67600 Y1.27826
X-1.67600 Y1.27726
X-1.67700 Y1.27726
X-1.67700 Y1.27626
X-1.67800 Y1.27626
X-1.67800 Y1.27526
X-1.67900 Y1.27526
X-1.67900 Y1.27426
X-1.68000 Y1.27426
X-1.68000 Y1.27326
X-1.68100 Y1.27326
X-1.68100 Y1.27226
X-1.68200 Y1.27226
X-1.68200 Y1.27126
X-1.68300 Y1.27126
X-1.68300 Y1.27026
X-1.68400 Y1.27026
X-1.68400 Y1.26926
X-1.68500 Y1.26926
X-1.68500 Y1.26826
X-1.68600 Y1.26826
X-1.68600 Y1.26726
X-1.68700 Y1.26726
X-1.68700 Y1.26626
X-1.68800 Y1.26626
X-1.68800 Y1.26526
X-1.68900 Y1.26526
X-1.68900 Y1.26426
X-1.69000 Y1.26426
X-1.69000 Y1.26326
X-1.69100 Y1.26326
X-1.69100 Y1.26226
X-1.69200 Y1.26226
X-1.69200 Y1.26126
X-1.69300 Y1.26126
X-1.69300 Y1.26026
X-1.69400 Y1.26026
X-1.69400 Y1.25926
X-1.69500 Y1.25926
X-1.69500 Y1.25826
X-1.69600 Y1.25826
X-1.69600 Y1.25726
X-1.69700 Y1.25726
X-1.69700 Y1.25626
X-1.69800 Y1.25626
X-1.69800 Y1.25526
X-1.69900 Y1.25526
X-1.69900 Y1.25426
X-1.70000 Y1.25426
X-1.70000 Y1.25326
X-1.70100 Y1.25326
X-1.70100 Y1.25226
X-1.70200 Y1.25226
X-1.70200 Y1.25126
X-1.70300 Y1.25126
X-1.70300 Y1.25026
X-1.70400 Y1.25026
X-1.70400 Y1.24926
X-1.70500 Y1.24926
X-1.70500 Y1.24826
X-1.70600 Y1.24826
X-1.70600 Y1.24726
X-1.70700 Y1.24726
X-1.70700 Y1.24626
X-1.70800 Y1.24626
X-1.70800 Y1.24526
X-1.70900 Y1.24526
X-1.70900 Y1.24426
X-1.71000 Y1.24426
X-1.71000 Y1.24326
X-1.71100 Y1.24326
X-1.71100 Y1.24226
X-1.71200 Y1.24226
X-1.71200 Y1.24126
X-1.71300 Y1.24126
X-1.71300 Y1.24026
X-1.71400 Y1.24026
X-1.71400 Y1.23926
X-1.71500 Y1.23926
X-1.71500 Y1.23826
X-1.71600 Y1.23826
X-1.71600 Y1.23726
X-1.71700 Y1.23726
X-1.71700 Y1.23626
X-1.71800 Y1.23626
X-1.71800 Y1.23526
X-1.71900 Y1.23526
X-1.71900 Y1.23426
X-1.72000 Y1.23426
X-1.72000 Y1.23326
X-1.72100 Y1.23326
X-1.72100 Y1.23226
X-1.72200 Y1.23226
X-1.72200 Y1.23126
X-1.72300 Y1.23126
X-1.72300 Y1.23026
X-1.72400 Y1.23026
X-1.72400 Y1.22926
X-1.72500 Y1.22926
X-1.72500 Y1.22826
X-1.72600 Y1.22826
X-1.72600 Y1.22726
X-1.72700 Y1.22726
X-1.72700 Y1.22626
X-1.72800 Y1.22626
X-1.72800 Y1.22526
X-1.72900 Y1.22526
X-1.72900 Y1.22426
X-1.73000 Y1.22426
X-1.73000 Y1.22326
X-1.73100 Y1.22326
X-1.73100 Y1.22226
X-1.73200 Y1.22226
X-1.73200 Y1.22126
X-1.73500 Y1.22126
X-1.73500 Y1.22026
X-1.73800 Y1.22026
X-1.73800 Y1.21926
X-1.74100 Y1.21926
X-1.74100 Y1.21826
X-2.14900 Y1.21826
X-2.14900 Y1.21926
X-2.15100 Y1.21926
X-2.15100 Y1.22026
X-2.15400 Y1.22026
X-2.15400 Y1.22126
X-2.15600 Y1.22126
X-2.15600 Y1.22226
X-2.16100 Y1.22226
X-2.16100 Y1.22326
X-2.17000 Y1.22326
X-2.17000 Y1.22426
X-2.17400 Y1.22426
X-2.17400 Y1.22526
X-2.17600 Y1.22526
X-2.17600 Y1.22626
X-2.17900 Y1.22626
X-2.17900 Y1.22726
X-2.18200 Y1.22726
X-2.18200 Y1.22826
X-2.18400 Y1.22826
X-2.18400 Y1.22526
X-2.18500 Y1.22526
X-2.18500 Y1.22426
X-2.18600 Y1.22426
X-2.18600 Y1.22326
X-2.18700 Y1.22326
X-2.18700 Y1.22226
X-2.19000 Y1.22226
X-2.19000 Y1.22126
X-2.19200 Y1.22126
X-2.19200 Y1.22026
X-2.19300 Y1.22026
X-2.19300 Y1.21926
X-2.19400 Y1.21926
X-2.19400 Y1.21826
X-2.19500 Y1.21826
X-2.19500 Y1.21726
X-2.19600 Y1.21726
X-2.19600 Y1.21626
X-2.19700 Y1.21626
X-2.19700 Y1.21526
X-2.19800 Y1.21526
X-2.19800 Y1.21426
X-2.19900 Y1.21426
X-2.19900 Y1.21326
X-2.20000 Y1.21326
X-2.20000 Y1.21126
X-2.20100 Y1.21126
X-2.20100 Y1.20926
X-2.20200 Y1.20926
X-2.20200 Y1.20726
X-2.20300 Y1.20726
X-2.20300 Y1.20426
X-2.20400 Y1.20426
X-2.20400 Y1.19226
X-2.20300 Y1.19226
X-2.20300 Y1.19026
X-2.20200 Y1.19026
X-2.20200 Y1.18826
X-2.20100 Y1.18826
X-2.20100 Y1.18526
X-2.20000 Y1.18526
X-2.20000 Y1.18426
X-2.19900 Y1.18426
X-2.19900 Y1.18326
X-2.19800 Y1.18326
X-2.19800 Y1.18226
X-2.19700 Y1.18226
X-2.19700 Y1.18126
X-2.19600 Y1.18126
X-2.19600 Y1.18026
X-2.19500 Y1.18026
X-2.19500 Y1.17926
X-2.19400 Y1.17926
X-2.19400 Y1.17826
X-2.19300 Y1.17826
X-2.19300 Y1.17726
X-2.19200 Y1.17726
X-2.19200 Y1.17626
X-2.19100 Y1.17626
X-2.19100 Y1.17526
X-2.18800 Y1.17526
X-2.18800 Y1.17426
X-2.18600 Y1.17426
X-2.18600 Y1.17326
X-2.18400 Y1.17326
X-2.18400 Y1.17226
X-2.17200 Y1.17226
X-2.17200 Y1.17326
X-2.16900 Y1.17326
X-2.16900 Y1.17426
X-2.16700 Y1.17426
X-2.16700 Y1.17526
X-2.16500 Y1.17526
X-2.16500 Y1.17626
X-2.16300 Y1.17626
X-2.16300 Y1.17726
X-2.16200 Y1.17726
X-2.16200 Y1.17826
X-2.16100 Y1.17826
X-2.16100 Y1.17926
X-2.16000 Y1.17926
X-2.16000 Y1.18026
X-2.15900 Y1.18026
X-2.15900 Y1.18126
X-2.15700 Y1.18126
X-2.15700 Y1.18226
X-1.71800 Y1.18226
X-1.71800 Y1.18326
X-1.71700 Y1.18326
X-1.71700 Y1.18426
X-1.71600 Y1.18426
X-1.71600 Y1.18526
X-1.71500 Y1.18526
X-1.71500 Y1.18626
X-1.71400 Y1.18626
X-1.71400 Y1.18726
X-1.71300 Y1.18726
X-1.71300 Y1.18826
X-1.71200 Y1.18826
X-1.71200 Y1.18926
X-1.71100 Y1.18926
X-1.71100 Y1.19026
X-1.71000 Y1.19026
X-1.71000 Y1.19126
X-1.70900 Y1.19126
X-1.70900 Y1.19226
X-1.70800 Y1.19226
X-1.70800 Y1.19326
X-1.70700 Y1.19326
X-1.70700 Y1.19426
X-1.70600 Y1.19426
X-1.70600 Y1.19526
X-1.70500 Y1.19526
X-1.70500 Y1.19626
X-1.70400 Y1.19626
X-1.70400 Y1.19726
X-1.70300 Y1.19726
X-1.70300 Y1.19826
X-1.70200 Y1.19826
X-1.70200 Y1.19926
X-1.70100 Y1.19926
X-1.70100 Y1.20026
X-1.70000 Y1.20026
X-1.70000 Y1.20126
X-1.69900 Y1.20126
X-1.69900 Y1.20226
X-1.69800 Y1.20226
X-1.69800 Y1.20326
X-1.69700 Y1.20326
X-1.69700 Y1.20426
X-1.69600 Y1.20426
X-1.69600 Y1.20526
X-1.69500 Y1.20526
X-1.69500 Y1.20626
X-1.69400 Y1.20626
X-1.69400 Y1.20726
X-1.69300 Y1.20726
X-1.69300 Y1.20826
X-1.69200 Y1.20826
X-1.69200 Y1.20926
X-1.69100 Y1.20926
X-1.69100 Y1.21026
X-1.69000 Y1.21026
X-1.69000 Y1.21126
X-1.68900 Y1.21126
X-1.68900 Y1.21226
X-1.68800 Y1.21226
X-1.68800 Y1.21326
X-1.68700 Y1.21326
X-1.68700 Y1.21426
X-1.68600 Y1.21426
X-1.68600 Y1.21526
X-1.68500 Y1.21526
X-1.68500 Y1.21626
X-1.68400 Y1.21626
X-1.68400 Y1.21726
X-1.68300 Y1.21726
X-1.68300 Y1.21826
X-1.68200 Y1.21826
X-1.68200 Y1.21926
X-1.68100 Y1.21926
X-1.68100 Y1.22026
X-1.68000 Y1.22026
X-1.68000 Y1.22126
X-1.67900 Y1.22126
X-1.67900 Y1.22226
X-1.67800 Y1.22226
X-1.67800 Y1.22326
X-1.67700 Y1.22326
X-1.67700 Y1.22426
X-1.67600 Y1.22426
X-1.67600 Y1.22526
X-1.67500 Y1.22526
X-1.67500 Y1.22626
X-1.67400 Y1.22626
X-1.67400 Y1.22726
X-1.67300 Y1.22726
X-1.67300 Y1.22826
X-1.67200 Y1.22826
X-1.67200 Y1.22926
X-1.67100 Y1.22926
X-1.67100 Y1.23026
X-1.67000 Y1.23026
X-1.67000 Y1.23126
X-1.66900 Y1.23126
X-1.66900 Y1.23226
X-1.66800 Y1.23226
X-1.66800 Y1.23326
X-1.66700 Y1.23326
X-1.66700 Y1.23426
X-1.66600 Y1.23426
X-1.66600 Y1.23526
X-1.66500 Y1.23526
X-1.66500 Y1.23626
X-1.66400 Y1.23626
X-1.66400 Y1.23726
X-1.66300 Y1.23726
X-1.66300 Y1.23826
X-1.66200 Y1.23826
X-1.66200 Y1.23926
X-1.66100 Y1.23926
X-1.66100 Y1.24026
X-1.66000 Y1.24026
X-1.66000 Y1.24126
X-1.65900 Y1.24126
X-1.65900 Y1.24226
X-1.65800 Y1.24226
X-1.65800 Y1.24326
X-1.65700 Y1.24326
X-1.65700 Y1.24426
X-1.65600 Y1.24426
X-1.65600 Y1.24526
X-1.65500 Y1.24526
X-1.65500 Y1.24626
X-1.65400 Y1.24626
X-1.65400 Y1.24726
X-1.65300 Y1.24726
X-1.65300 Y1.24826
X-1.65200 Y1.24826
X-1.65200 Y1.24926
X-1.65100 Y1.24926
X-1.65100 Y1.25026
X-1.65000 Y1.25026
X-1.65000 Y1.25126
X-1.64900 Y1.25126
X-1.64900 Y1.25226
X-1.64800 Y1.25226
X-1.64800 Y1.25326
X-1.64700 Y1.25326
X-1.64700 Y1.25426
X-1.64600 Y1.25426
X-1.64600 Y1.25526
X-1.64500 Y1.25526
X-1.64500 Y1.25626
X-1.64400 Y1.25626
X-1.64400 Y1.25726
X-1.64300 Y1.25726
X-1.64300 Y1.25826
X-1.64200 Y1.25826
X-1.64200 Y1.25926
X-1.64100 Y1.25926
X-1.64100 Y1.26026
X-1.64000 Y1.26026
X-1.64000 Y1.26126
X-1.63900 Y1.26126
X-1.63900 Y1.26226
X-1.63800 Y1.26226
X-1.63800 Y1.26326
X-1.63700 Y1.26326
X-1.63700 Y1.26426
X-1.63600 Y1.26426
X-1.63600 Y1.26526
X-1.63500 Y1.26526
X-1.63500 Y1.26626
X-1.63400 Y1.26626
X-1.63400 Y1.26726
X-1.63300 Y1.26726
X-1.63300 Y1.26826
X-1.63200 Y1.26826
X-1.63200 Y1.26926
X-1.63100 Y1.26926
X-1.63100 Y1.27026
X-1.63000 Y1.27026
X-1.63000 Y1.27126
X-1.62900 Y1.27126
X-1.62900 Y1.27226
X-1.62800 Y1.27226
X-1.62800 Y1.27326
X-1.62700 Y1.27326
X-1.62700 Y1.27426
X-1.62600 Y1.27426
X-1.62600 Y1.27526
X-1.62500 Y1.27526
X-1.62500 Y1.27626
X-1.62400 Y1.27626
X-1.62400 Y1.27726
X-1.62300 Y1.27726
X-1.62300 Y1.27826
X-1.62200 Y1.27826
X-1.62200 Y1.27926
X-1.62100 Y1.27926
X-1.62100 Y1.28026
X-1.62000 Y1.28026
X-1.62000 Y1.28126
X-1.61900 Y1.28126
X-1.61900 Y1.28226
X-1.61800 Y1.28226
X-1.61800 Y1.28326
X-1.61700 Y1.28326
X-1.61700 Y1.28426
X-1.61600 Y1.28426
X-1.61600 Y1.28526
X-1.61500 Y1.28526
X-1.61500 Y1.28626
X-1.61400 Y1.28626
X-1.61400 Y1.28726
X-1.61300 Y1.28726
X-1.61300 Y1.28826
X-1.61200 Y1.28826
X-1.61200 Y1.28926
X-1.61100 Y1.28926
X-1.61100 Y1.29026
X-1.61000 Y1.29026
X-1.61000 Y1.29126
X-1.60900 Y1.29126
X-1.60900 Y1.29226
X-1.60800 Y1.29226
X-1.60800 Y1.29326
X-1.60700 Y1.29326
X-1.60700 Y1.29426
X-1.60600 Y1.29426
X-1.60600 Y1.29526
X-1.60500 Y1.29526
X-1.60500 Y1.29626
X-1.60400 Y1.29626
X-1.60400 Y1.29726
X-1.60300 Y1.29726
X-1.60300 Y1.29826
X-1.60200 Y1.29826
X-1.60200 Y1.29926
X-1.60100 Y1.29926
X-1.60100 Y1.30026
X-1.60000 Y1.30026
X-1.60000 Y1.30126
X-1.59900 Y1.30126
X-1.59900 Y1.30226
X-1.59800 Y1.30226
X-1.59800 Y1.30326
X-1.59700 Y1.30326
X-1.59700 Y1.30426
X-1.59600 Y1.30426
X-1.59600 Y1.30526
X-1.59500 Y1.30526
X-1.59500 Y1.30626
X-1.59400 Y1.30626
X-1.59400 Y1.30726
X-1.59300 Y1.30726
X-1.59300 Y1.30826
X-1.59200 Y1.30826
X-1.59200 Y1.30926
X-1.59100 Y1.30926
X-1.59100 Y1.31026
X-1.59000 Y1.31026
X-1.59000 Y1.31126
X-1.58900 Y1.31126
X-1.58900 Y1.31226
X-1.58800 Y1.31226
X-1.58800 Y1.31326
X-1.58700 Y1.31326
X-1.58700 Y1.31426
X-1.58600 Y1.31426
X-1.58600 Y1.31526
X-1.58500 Y1.31526
X-1.58500 Y1.31626
X-1.58400 Y1.31626
X-1.58400 Y1.31726
X-1.58300 Y1.31726
X-1.58300 Y1.31826
X-1.58200 Y1.31826
X-1.58200 Y1.31926
X-1.58100 Y1.31926
X-1.58100 Y1.32026
X-1.58000 Y1.32026
X-1.58000 Y1.32126
X-1.57900 Y1.32126
X-1.57900 Y1.32226
X-1.57800 Y1.32226
X-1.57800 Y1.32326
X-1.57700 Y1.32326
X-1.57700 Y1.32426
X-1.57600 Y1.32426
X-1.57600 Y1.32526
X-1.57500 Y1.32526
X-1.57500 Y1.32626
X-1.57400 Y1.32626
X-1.57400 Y1.32726
X-1.57300 Y1.32726
X-1.57300 Y1.32826
X-1.57200 Y1.32826
X-1.57200 Y1.32926
X-1.57100 Y1.32926
X-1.57100 Y1.33026
X-1.57000 Y1.33026
X-1.57000 Y1.33126
X-1.56900 Y1.33126
X-1.56900 Y1.33226
X-1.56800 Y1.33226
X-1.56800 Y1.33326
X-1.56700 Y1.33326
X-1.56700 Y1.33426
X-1.56600 Y1.33426
X-1.56600 Y1.33526
X-1.56500 Y1.33526
X-1.56500 Y1.33626
X-1.56400 Y1.33626
X-1.56400 Y1.33726
X-1.56300 Y1.33726
X-1.56300 Y1.33826
X-1.56200 Y1.33826
X-1.56200 Y1.33926
X-1.56100 Y1.33926
X-1.56100 Y1.34026
X-1.56000 Y1.34026
X-1.56000 Y1.34126
X-1.55900 Y1.34126
X-1.55900 Y1.34226
X-1.55800 Y1.34226
X-1.55800 Y1.34326
X-1.55700 Y1.34326
X-1.55700 Y1.34426
X-1.55600 Y1.34426
X-1.55600 Y1.34526
X-1.55500 Y1.34526
X-1.55500 Y1.34626
X-1.55400 Y1.34626
X-1.55400 Y1.34726
X-1.55300 Y1.34726
X-1.55300 Y1.34826
X-1.55200 Y1.34826
X-1.55200 Y1.34926
X-1.55100 Y1.34926
X-1.55100 Y1.35026
X-1.55000 Y1.35026
X-1.55000 Y1.35126
X-1.54900 Y1.35126
X-1.54900 Y1.35226
X-1.54800 Y1.35226
X-1.54800 Y1.35326
X-1.54700 Y1.35326
X-1.54700 Y1.35426
X-1.54600 Y1.35426
X-1.54600 Y1.35526
X-1.54500 Y1.35526
X-1.54500 Y1.35626
X-1.54400 Y1.35626
X-1.54400 Y1.35726
X-1.54300 Y1.35726
X-1.54300 Y1.35826
X-1.54200 Y1.35826
X-1.54200 Y1.35926
X-1.54100 Y1.35926
X-1.54100 Y1.36026
X-1.54000 Y1.36026
X-1.54000 Y1.36126
X-1.53900 Y1.36126
X-1.53900 Y1.36226
X-1.53800 Y1.36226
X-1.53800 Y1.36326
X-1.53700 Y1.36326
X-1.53700 Y1.36426
X-1.53600 Y1.36426
X-1.53600 Y1.36526
X-1.53500 Y1.36526
X-1.53500 Y1.36626
X-1.53400 Y1.36626
X-1.53400 Y1.36726
X-1.53300 Y1.36726
X-1.53300 Y1.36826
X-1.53200 Y1.36826
X-1.53200 Y1.36926
X-1.53100 Y1.36926
X-1.53100 Y1.37026
X-1.53000 Y1.37026
X-1.53000 Y1.37126
X-1.52900 Y1.37126
X-1.52900 Y1.37226
X-1.52800 Y1.37226
X-1.52800 Y1.37326
X-1.52700 Y1.37326
X-1.52700 Y1.37426
X-1.52600 Y1.37426
X-1.52600 Y1.37526
X-1.52500 Y1.37526
X-1.52500 Y1.37626
X-1.52400 Y1.37626
X-1.52400 Y1.37726
X-1.52300 Y1.37726
X-1.52300 Y1.37826
X-1.52200 Y1.37826
X-1.52200 Y1.37926
X-1.52100 Y1.37926
X-1.52100 Y1.38026
X-1.52000 Y1.38026
X-1.52000 Y1.38126
X-1.51900 Y1.38126
X-1.51900 Y1.38226
X-1.51800 Y1.38226
X-1.51800 Y1.38326
X-1.51700 Y1.38326
X-1.51700 Y1.38426
X-1.51600 Y1.38426
X-1.51600 Y1.38526
X-1.51500 Y1.38526
X-1.51500 Y1.38626
X-1.51400 Y1.38626
X-1.51400 Y1.38726
X-1.51300 Y1.38726
X-1.51300 Y1.38826
X-1.51200 Y1.38826
X-1.51200 Y1.38926
X-1.51100 Y1.38926
X-1.51100 Y1.39026
X-1.51000 Y1.39026
X-1.51000 Y1.39126
X-1.50900 Y1.39126
X-1.50900 Y1.39226
X-1.50800 Y1.39226
X-1.50800 Y1.39326
X-1.50700 Y1.39326
X-1.50700 Y1.39426
X-1.50600 Y1.39426
X-1.50600 Y1.39526
X-1.50500 Y1.39526
X-1.50500 Y1.39626
X-1.50400 Y1.39626
X-1.50400 Y1.39726
X-1.50300 Y1.39726
X-1.50300 Y1.39826
X-1.50200 Y1.39826
X-1.50200 Y1.39926
X-1.50100 Y1.39926
X-1.50100 Y1.40026
X-1.50000 Y1.40026
X-1.50000 Y1.40126
X-1.49900 Y1.40126
X-1.49900 Y1.40226
X-1.49800 Y1.40226
X-1.49800 Y1.40326
X-1.49700 Y1.40326
X-1.49700 Y1.40426
X-1.49600 Y1.40426
X-1.49600 Y1.40526
X-1.49500 Y1.40526
X-1.49500 Y1.40626
X-1.49400 Y1.40626
X-1.49400 Y1.40726
X-1.49300 Y1.40726
X-1.49300 Y1.40826
X-1.49200 Y1.40826
X-1.49200 Y1.40926
X-1.49100 Y1.40926
X-1.49100 Y1.41026
X-1.49000 Y1.41026
X-1.49000 Y1.41126
X-1.48900 Y1.41126
X-1.48900 Y1.41226
X-1.48800 Y1.41226
X-1.48800 Y1.41326
X-1.48700 Y1.41326
X-1.48700 Y1.41426
X-1.48600 Y1.41426
X-1.48600 Y1.41526
X-1.48500 Y1.41526
X-1.48500 Y1.41626
X-1.48400 Y1.41626
X-1.48400 Y1.41726
X-1.48300 Y1.41726
X-1.48300 Y1.41826
X-1.48200 Y1.41826
X-1.48200 Y1.41926
X-1.48100 Y1.41926
X-1.48100 Y1.42026
X-1.48000 Y1.42026
X-1.48000 Y1.42126
X-1.47900 Y1.42126
X-1.47900 Y1.42226
X-1.47800 Y1.42226
X-1.47800 Y1.42326
X-1.47700 Y1.42326
X-1.47700 Y1.42426
X-1.47600 Y1.42426
X-1.47600 Y1.42526
X-1.47500 Y1.42526
X-1.47500 Y1.42626
X-1.47400 Y1.42626
X-1.47400 Y1.42726
X-1.47200 Y1.42726
X-1.47200 Y1.42826
X-1.46300 Y1.42826
X-1.46300 Y1.42926
X-1.46100 Y1.42926
X-1.46100 Y1.43026
X-1.45900 Y1.43026
X-1.45900 Y1.43126
X-1.45600 Y1.43126
X-1.45600 Y1.43226
X-1.45500 Y1.43226
X-1.45500 Y1.43326
X-1.45400 Y1.43326
X-1.45400 Y1.43426
X-1.45300 Y1.43426
X-1.45300 Y1.43526
X-1.45200 Y1.43526
X-1.45200 Y1.43626
X-1.45100 Y1.43626
X-1.45100 Y1.43726
X-1.45000 Y1.43726
X-1.45000 Y1.43826
X-1.44900 Y1.43826
X-1.44900 Y1.43926
X-1.44800 Y1.43926
X-1.44800 Y1.44026
X-1.44700 Y1.44026
X-1.44700 Y1.44126
X-1.44600 Y1.44126
X-1.44600 Y1.44426
X-1.44500 Y1.44426
X-1.44500 Y1.44626
X-1.44400 Y1.44626
X-1.44400 Y1.44826
X-1.44300 Y1.44826
X-1.44300 Y1.46026
X-1.44400 Y1.46026
X-1.44400 Y1.46326
X-1.44500 Y1.46326
X-1.44500 Y1.46526
X-1.44600 Y1.46526
X-1.44600 Y1.46726
X-1.44700 Y1.46726
X-1.44700 Y1.46926
X-1.44800 Y1.46926
X-1.44800 Y1.47026
X-1.44900 Y1.47026
X-1.44900 Y1.47126
X-1.45000 Y1.47126
X-1.45000 Y1.47226
X-1.45100 Y1.47226
X-1.45100 Y1.47326
X-1.45200 Y1.47326
X-1.45200 Y1.47426
X-1.45300 Y1.47426
X-1.45300 Y1.47526
X-1.45400 Y1.47526
X-1.45400 Y1.47626
X-1.45500 Y1.47626
X-1.45500 Y1.47726
X-1.45600 Y1.47726
X-1.45600 Y1.47826
X-1.45900 Y1.47826
X-1.45900 Y1.47926
X-1.46100 Y1.47926
X-1.46100 Y1.48026
X-1.46300 Y1.48026
X-1.46300 Y1.48126
X-1.47500 Y1.48126
X-1.47500 Y1.48026
X-1.47800 Y1.48026
X-1.47800 Y1.47926
X-1.48000 Y1.47926
X-1.48000 Y1.47826
X-1.48200 Y1.47826
X-1.48200 Y1.47726
X-1.48400 Y1.47726
X-1.48400 Y1.47626
X-1.48500 Y1.47626
X-1.48500 Y1.47526
X-1.48600 Y1.47526
X-1.48600 Y1.47426
X-1.48700 Y1.47426
X-1.48700 Y1.47326
X-1.48800 Y1.47326
X-1.48800 Y1.47226
X-1.48900 Y1.47226
X-1.48900 Y1.47126
X-1.49000 Y1.47126
X-1.49000 Y1.47026
X-1.49100 Y1.47026
X-1.49100 Y1.46926
G04 P0 ( dwell for no time -- G64 should not smooth over this point )
G00 Z0.10000 ( retract )

G00 X-1.55000 Y1.46926 ( rapid move to begin. )
G01 Z-0.00500 F10.00000 ( plunge. )
G04 P0 ( dwell for no time -- G64 should not smooth over this point )
X-1.55000 Y1.46926
X-1.55100 Y1.46926
X-1.55100 Y1.46626
X-1.55200 Y1.46626
X-1.55200 Y1.46526
X-1.55300 Y1.46526
X-1.55300 Y1.46326
X-1.55400 Y1.46326
X-1.55400 Y1.46026
X-1.55500 Y1.46026
X-1.55500 Y1.45126
X-1.55600 Y1.45126
X-1.55600 Y1.44926
X-1.55700 Y1.44926
X-1.55700 Y1.44826
X-1.55800 Y1.44826
X-1.55800 Y1.44726
X-1.55900 Y1.44726
X-1.55900 Y1.44626
X-1.56000 Y1.44626
X-1.56000 Y1.44526
X-1.56100 Y1.44526
X-1.56100 Y1.44426
X-1.56200 Y1.44426
X-1.56200 Y1.44326
X-1.56300 Y1.44326
X-1.56300 Y1.44226
X-1.56400 Y1.44226
X-1.56400 Y1.44126
X-1.56500 Y1.44126
X-1.56500 Y1.44026
X-1.56600 Y1.44026
X-1.56600 Y1.43926
X-1.56700 Y1.43926
X-1.56700 Y1.43826
X-1.56800 Y1.43826
X-1.56800 Y1.43726
X-1.56900 Y1.43726
X-1.56900 Y1.43626
X-1.57000 Y1.43626
X-1.57000 Y1.43526
X-1.57100 Y1.43526
X-1.57100 Y1.43426
X-1.57200 Y1.43426
X-1.57200 Y1.43326
X-1.57300 Y1.43326
X-1.57300 Y1.43226
X-1.57400 Y1.43226
X-1.57400 Y1.43126
X-1.57500 Y1.43126
X-1.57500 Y1.43026
X-1.57600 Y1.43026
X-1.57600 Y1.42926
X-1.57700 Y1.42926
X-1.57700 Y1.42826
X-1.57800 Y1.42826
X-1.57800 Y1.42726
X-1.57900 Y1.42726
X-1.57900 Y1.42626
X-1.58000 Y1.42626
X-1.58000 Y1.42526
X-1.58100 Y1.42526
X-1.58100 Y1.42426
X-1.58200 Y1.42426
X-1.58200 Y1.42326
X-1.58300 Y1.42326
X-1.58300 Y1.42226
X-1.58400 Y1.42226
X-1.58400 Y1.42126
X-1.58500 Y1.42126
X-1.58500 Y1.42026
X-1.58600 Y1.42026
X-1.58600 Y1.41926
X-1.58700 Y1.41926
X-1.58700 Y1.41826
X-1.58800 Y1.41826
X-1.58800 Y1.41726
X-1.58900 Y1.41726
X-1.58900 Y1.41626
X-1.59000 Y1.41626
X-1.59000 Y1.41526
X-1.59100 Y1.41526
X-1.59100 Y1.41426
X-1.59200 Y1.41426
X-1.59200 Y1.41326
X-1.59300 Y1.41326
X-1.59300 Y1.41226
X-1.59400 Y1.41226
X-1.59400 Y1.41126
X-1.59500 Y1.41126
X-1.59500 Y1.41026
X-1.59600 Y1.41026
X-1.59600 Y1.40926
X-1.59700 Y1.40926
X-1.59700 Y1.40826
X-1.59800 Y1.40826
X-1.59800 Y1.40726
X-1.59900 Y1.40726
X-1.59900 Y1.40626
X-1.60000 Y1.40626
X-1.60000 Y1.40526
X-1.60100 Y1.40526
X-1.60100 Y1.40426
X-1.60200 Y1.40426
X-1.60200 Y1.40326
X-1.60300 Y1.40326
X-1.60300 Y1.40226
X-1.60400 Y1.40226
X-1.60400 Y1.40126
X-1.60500 Y1.40126
X-1.60500 Y1.40026
X-1.60600 Y1.40026
X-1.60600 Y1.39926
X-1.60700 Y1.39926
X-1.60700 Y1.39826
X-1.60800 Y1.39826
X-1.60800 Y1.39726
X-1.60900 Y1.39726
X-1.60900 Y1.39626
X-1.61000 Y1.39626
X-1.61000 Y1.39526
X-1.61100 Y1.39526
X-1.61100 Y1.39426
X-1.61200 Y1.39426
X-1.61200 Y1.39326
X-1.61300 Y1.39326
X-1.61300 Y1.39226
X-1.61400 Y1.39226
X-1.61400 Y1.39126
X-1.61500 Y1.39126
X-1.61500 Y1.39026
X-1.61600 Y1.39026
X-1.61600 Y1.38926
X-1.61700 Y1.38926
X-1.61700 Y1.38826
X-1.61800 Y1.38826
X-1.61800 Y1.38726
X-1.61900 Y1.38726
X-1.61900 Y1.38626
X-1.62000 Y1.38626
X-1.62000 Y1.38526
X-1.62100 Y1.38526
X-1.62100 Y1.38426
X-1.62200 Y1.38426
X-1.62200 Y1.38326
X-1.62300 Y1.38326
X-1.62300 Y1.38226
X-1.62400 Y1.38226
X-1.62400 Y1.38126
X-1.62500 Y1.38126
X-1.62500 Y1.38026
X-1.62600 Y1.38026
X-1.62600 Y1.37926
X-1.62700 Y1.37926
X-1.62700 Y1.37826
X-1.62800 Y1.37826
X-1.62800 Y1.37726
X-1.62900 Y1.37726
X-1.62900 Y1.37626
X-1.63000 Y1.37626
X-1.63000 Y1.37526
X-1.63100 Y1.37526
X-1.63100 Y1.37426
X-1.63200 Y1.37426
X-1.63200 Y1.37326
X-1.63300 Y1.37326
X-1.63300 Y1.37226
X-1.63400 Y1.37226
X-1.63400 Y1.37126
X-1.63500 Y1.37126
X-1.63500 Y1.37026
X-1.63600 Y1.37026
X-1.63600 Y1.36926
X-1.63700 Y1.36926
X-1.63700 Y1.36826
X-1.63800 Y1.36826
X-1.63800 Y1.36726
X-1.63900 Y1.36726
X-1.63900 Y1.36626
X-1.64000 Y1.36626
X-1.64000 Y1.36526
X-1.64100 Y1.36526
X-1.64100 Y1.36426
X-1.64200 Y1.36426
X-1.64200 Y1.36326
X-1.64300 Y1.36326
X-1.64300 Y1.36226
X-1.64400 Y1.36226
X-1.64400 Y1.36126
X-1.64500 Y1.36126
X-1.64500 Y1.36026
X-1.64600 Y1.36026
X-1.64600 Y1.35926
X-1.64700 Y1.35926
X-1.64700 Y1.35826
X-1.64800 Y1.35826
X-1.64800 Y1.35726
X-1.64900 Y1.35726
X-1.64900 Y1.35626
X-1.65000 Y1.35626
X-1.65000 Y1.35526
X-1.65100 Y1.35526
X-1.65100 Y1.35426
X-1.65200 Y1.35426
X-1.65200 Y1.35326
X-1.65300 Y1.35326
X-1.65300 Y1.35226
X-1.65400 Y1.35226
X-1.65400 Y1.35126
X-1.65500 Y1.35126
X-1.65500 Y1.35026
X-1.65600 Y1.35026
X-1.65600 Y1.34926
X-1.65700 Y1.34926
X-1.65700 Y1.34826
X-1.65800 Y1.34826
X-1.65800 Y1.34726
X-1.65900 Y1.34726
X-1.65900 Y1.34626
X-1.66000 Y1.34626
X-1.66000 Y1.34526
X-1.66100 Y1.34526
X-1.66100 Y1.34426
X-1.66200 Y1.34426
X-1.66200 Y1.34326
X-1.66300 Y1.34326
X-1.66300 Y1.34226
X-1.66400 Y1.34226
X-1.66400 Y1.34126
X-1.66500 Y1.34126
X-1.66500 Y1.34026
X-1.66600 Y1.34026
X-1.66600 Y1.33926
X-1.66700 Y1.33926
X-1.66700 Y1.33826
X-1.66800 Y1.33826
X-1.66800 Y1.33726
X-1.66900 Y1.33726
X-1.66900 Y1.33626
X-1.67000 Y1.33626
X-1.67000 Y1.33526
X-1.67100 Y1.33526
X-1.67100 Y1.33426
X-1.67200 Y1.33426
X-1.67200 Y1.33326
X-1.67300 Y1.33326
X-1.67300 Y1.33226
X-1.67400 Y1.33226
X-1.67400 Y1.33126
X-1.67500 Y1.33126
X-1.67500 Y1.33026
X-1.67600 Y1.33026
X-1.67600 Y1.32926
X-1.67700 Y1.32926
X-1.67700 Y1.32826
X-1.67800 Y1.32826
X-1.67800 Y1.32726
X-1.67900 Y1.32726
X-1.67900 Y1.32626
X-1.68000 Y1.32626
X-1.68000 Y1.32526
X-1.68100 Y1.32526
X-1.68100 Y1.32426
X-1.68200 Y1.32426
X-1.68200 Y1.32326
X-1.68300 Y1.32326
X-1.68300 Y1.32226
X-1.68400 Y1.32226
X-1.68400 Y1.32126
X-1.68500 Y1.32126
X-1.68500 Y1.32026
X-1.68600 Y1.32026
X-1.68600 Y1.31926
X-1.68700 Y1.31926
X-1.68700 Y1.31826
X-1.68800 Y1.31826
X-1.68800 Y1.31726
X-1.68900 Y1.31726
X-1.68900 Y1.31626
X-1.69000 Y1.31626
X-1.69000 Y1.31526
X-1.69100 Y1.31526
X-1.69100 Y1.31426
X-1.69200 Y1.31426
X-1.69200 Y1.31326
X-1.69300 Y1.31326
X-1.69300 Y1.31226
X-1.69400 Y1.31226
X-1.69400 Y1.31126
X-1.69500 Y1.31126
X-1.69500 Y1.31026
X-1.69600 Y1.31026
X-1.69600 Y1.30926
X-1.69700 Y1.30926
X-1.69700 Y1.30826
X-1.69800 Y1.30826
X-1.69800 Y1.30726
X-1.69900 Y1.30726
X-1.69900 Y1.30626
X-1.70000 Y1.30626
X-1.70000 Y1.30526
X-1.70100 Y1.30526
X-1.70100 Y1.30426
X-1.70200 Y1.30426
X-1.70200 Y1.30326
X-1.70300 Y1.30326
X-1.70300 Y1.30226
X-1.70400 Y1.30226
X-1.70400 Y1.30126
X-1.70500 Y1.30126
X-1.70500 Y1.30026
X-1.70600 Y1.30026
X-1.70600 Y1.29926
X-1.70700 Y1.29926
X-1.70700 Y1.29826
X-1.70800 Y1.29826
X-1.70800 Y1.29726
X-1.70900 Y1.29726
X-1.70900 Y1.29626
X-1.71000 Y1.29626
X-1.71000 Y1.29526
X-1.71100 Y1.29526
X-1.71100 Y1.29426
X-1.71200 Y1.29426
X-1.71200 Y1.29326
X-1.71300 Y1.29326
X-1.71300 Y1.29226
X-1.71400 Y1.29226
X-1.71400 Y1.29126
X-1.71500 Y1.29126
X-1.71500 Y1.29026
X-1.71600 Y1.29026
X-1.71600 Y1.28926
X-1.71700 Y1.28926
X-1.71700 Y1.28826
X-1.71800 Y1.28826
X-1.71800 Y1.28726
X-1.71900 Y1.28726
X-1.71900 Y1.28626
X-1.72000 Y1.28626
X-1.72000 Y1.28526
X-1.72100 Y1.28526
X-1.72100 Y1.28426
X-1.72200 Y1.28426
X-1.72200 Y1.28326
X-1.72300 Y1.28326
X-1.72300 Y1.28226
X-1.72400 Y1.28226
X-1.72400 Y1.28126
X-1.72500 Y1.28126
X-1.72500 Y1.28026
X-1.72600 Y1.28026
X-1.72600 Y1.27926
X-1.72700 Y1.27926
X-1.72700 Y1.27826
X-1.72800 Y1.27826
X-1.72800 Y1.27726
X-1.72900 Y1.27726
X-1.72900 Y1.27626
X-1.73000 Y1.27626
X-1.73000 Y1.27526
X-1.73100 Y1.27526
X-1.73100 Y1.27426
X-1.73200 Y1.27426
X-1.73200 Y1.27326
X-1.73300 Y1.27326
X-1.73300 Y1.27226
X-1.73400 Y1.27226
X-1.73400 Y1.27026
X-1.73500 Y1.27026
X-1.73500 Y1.26926
X-1.73600 Y1.26926
X-1.73600 Y1.26826
X-1.73700 Y1.26826
X-1.73700 Y1.26726
X-1.73800 Y1.26726
X-1.73800 Y1.26626
X-1.73900 Y1.26626
X-1.73900 Y1.26526
X-1.74000 Y1.26526
X-1.74000 Y1.26426
X-1.74100 Y1.26426
X-1.74100 Y1.26326
X-1.74200 Y1.26326
X-1.74200 Y1.26226
X-1.74300 Y1.26226
X-1.74300 Y1.26126
X-1.74400 Y1.26126
X-1.74400 Y1.26026
X-1.74500 Y1.26026
X-1.74500 Y1.25926
X-1.74600 Y1.25926
X-1.74600 Y1.25826
X-1.74700 Y1.25826
X-1.74700 Y1.25726
X-1.74800 Y1.25726
X-1.74800 Y1.25626
X-1.74900 Y1.25626
X-1.74900 Y1.25526
X-1.75100 Y1.25526
X-1.75100 Y1.25426
X-2.09400 Y1.25426
X-2.09400 Y1.25526
X-2.09600 Y1.25526
X-2.09600 Y1.25426
X-2.10000 Y1.25426
X-2.10000 Y1.25326
X-2.10700 Y1.25326
X-2.10700 Y1.25226
X-2.13000 Y1.25226
X-2.13000 Y1.25326
X-2.13700 Y1.25326
X-2.13700 Y1.25426
X-2.14100 Y1.25426
X-2.14100 Y1.25526
X-2.14300 Y1.25526
X-2.14300 Y1.25626
X-2.14400 Y1.25626
X-2.14400 Y1.25726
X-2.14500 Y1.25726
X-2.14500 Y1.25926
X-2.14600 Y1.25926
X-2.14600 Y1.26126
X-2.14700 Y1.26126
X-2.14700 Y1.26326
X-2.14800 Y1.26326
X-2.14800 Y1.27026
X-2.15300 Y1.27026
X-2.15300 Y1.27126
X-2.15500 Y1.27126
X-2.15500 Y1.27226
X-2.15600 Y1.27226
X-2.15600 Y1.27326
X-2.15700 Y1.27326
X-2.15700 Y1.27426
X-2.15800 Y1.27426
X-2.15800 Y1.27526
X-2.15900 Y1.27526
X-2.15900 Y1.27626
X-2.16000 Y1.27626
X-2.16000 Y1.27726
X-2.16100 Y1.27726
X-2.16100 Y1.27826
X-2.16200 Y1.27826
X-2.16200 Y1.27926
X-2.16300 Y1.27926
X-2.16300 Y1.28026
X-2.16500 Y1.28026
X-2.16500 Y1.28126
X-2.16700 Y1.28126
X-2.16700 Y1.28226
X-2.16900 Y1.28226
X-2.16900 Y1.28326
X-2.17200 Y1.28326
X-2.17200 Y1.28426
X-2.18400 Y1.28426
X-2.18400 Y1.28326
X-2.18600 Y1.28326
X-2.18600 Y1.28226
X-2.18800 Y1.28226
X-2.18800 Y1.28126
X-2.19100 Y1.28126
X-2.19100 Y1.28026
X-2.19200 Y1.28026
X-2.19200 Y1.27926
X-2.19300 Y1.27926
X-2.19300 Y1.27826
X-2.19400 Y1.27826
X-2.19400 Y1.27726
X-2.19500 Y1.27726
X-2.19500 Y1.27626
X-2.19600 Y1.27626
X-2.19600 Y1.27526
X-2.19700 Y1.27526
X-2.19700 Y1.27426
X-2.19800 Y1.27426
X-2.19800 Y1.27326
X-2.19900 Y1.27326
X-2.19900 Y1.27226
X-2.20000 Y1.27226
X-2.20000 Y1.27026
X-2.20100 Y1.27026
X-2.20100 Y1.26826
X-2.20200 Y1.26826
X-2.20200 Y1.26626
X-2.20300 Y1.26626
X-2.20300 Y1.26326
X-2.20400 Y1.26326
X-2.20400 Y1.25226
X-2.20300 Y1.25226
X-2.20300 Y1.24926
X-2.20200 Y1.24926
X-2.20200 Y1.24726
X-2.20100 Y1.24726
X-2.20100 Y1.24426
X-2.20000 Y1.24426
X-2.20000 Y1.24326
X-2.19900 Y1.24326
X-2.19900 Y1.24226
X-2.19800 Y1.24226
X-2.19800 Y1.24126
X-2.19700 Y1.24126
X-2.19700 Y1.24026
X-2.19600 Y1.24026
X-2.19600 Y1.23926
X-2.19500 Y1.23926
X-2.19500 Y1.23826
X-2.19400 Y1.23826
X-2.19400 Y1.23726
X-2.19300 Y1.23726
X-2.19300 Y1.23626
X-2.19200 Y1.23626
X-2.19200 Y1.23526
X-2.19100 Y1.23526
X-2.19100 Y1.23426
X-2.18900 Y1.23426
X-2.18900 Y1.23326
X-2.18700 Y1.23326
X-2.18700 Y1.23226
X-2.18600 Y1.23226
X-2.18600 Y1.23126
X-2.18500 Y1.23126
X-2.18500 Y1.23026
X-2.18400 Y1.23026
X-2.18400 Y1.22826
X-2.18200 Y1.22826
X-2.18200 Y1.22726
X-2.17900 Y1.22726
X-2.17900 Y1.22626
X-2.17600 Y1.22626
X-2.17600 Y1.22526
X-2.17400 Y1.22526
X-2.17400 Y1.22426
X-2.17000 Y1.22426
X-2.17000 Y1.22326
X-2.16100 Y1.22326
X-2.16100 Y1.22226
X-2.15600 Y1.22226
X-2.15600 Y1.22126
X-2.15400 Y1.22126
X-2.15400 Y1.22026
X-2.15100 Y1.22026
X-2.15100 Y1.21926
X-2.14900 Y1.21926
X-2.14900 Y1.21826
X-1.74100 Y1.21826
X-1.74100 Y1.21926
X-1.73800 Y1.21926
X-1.73800 Y1.22026
X-1.73500 Y1.22026
X-1.73500 Y1.22126
X-1.73200 Y1.22126
X-1.73200 Y1.22226
X-1.73100 Y1.22226
X-1.73100 Y1.22326
X-1.73000 Y1.22326
X-1.73000 Y1.22426
X-1.72900 Y1.22426
X-1.72900 Y1.22526
X-1.72800 Y1.22526
X-1.72800 Y1.22626
X-1.72700 Y1.22626
X-1.72700 Y1.22726
X-1.72600 Y1.22726
X-1.72600 Y1.22826
X-1.72500 Y1.22826
X-1.72500 Y1.22926
X-1.72400 Y1.22926
X-1.72400 Y1.23026
X-1.72300 Y1.23026
X-1.72300 Y1.23126
X-1.72200 Y1.23126
X-1.72200 Y1.23226
X-1.72100 Y1.23226
X-1.72100 Y1.23326
X-1.72000 Y1.23326
X-1.72000 Y1.23426
X-1.71900 Y1.23426
X-1.71900 Y1.23526
X-1.71800 Y1.23526
X-1.71800 Y1.23626
X-1.71700 Y1.23626
X-1.71700 Y1.23726
X-1.71600 Y1.23726
X-1.71600 Y1.23826
X-1.71500 Y1.23826
X-1.71500 Y1.23926
X-1.71400 Y1.23926
X-1.71400 Y1.24026
X-1.71300 Y1.24026
X-1.71300 Y1.24126
X-1.71200 Y1.24126
X-1.71200 Y1.24226
X-1.71100 Y1.24226
X-1.71100 Y1.24326
X-1.71000 Y1.24326
X-1.71000 Y1.24426
X-1.70900 Y1.24426
X-1.70900 Y1.24526
X-1.70800 Y1.24526
X-1.70800 Y1.24626
X-1.70700 Y1.24626
X-1.70700 Y1.24726
X-1.70600 Y1.24726
X-1.70600 Y1.24826
X-1.70500 Y1.24826
X-1.70500 Y1.24926
X-1.70400 Y1.24926
X-1.70400 Y1.25026
X-1.70300 Y1.25026
X-1.70300 Y1.25126
X-1.70200 Y1.25126
X-1.70200 Y1.25226
X-1.70100 Y1.25226
X-1.70100 Y1.25326
X-1.70000 Y1.25326
X-1.70000 Y1.25426
X-1.69900 Y1.25426
X-1.69900 Y1.25526
X-1.69800 Y1.25526
X-1.69800 Y1.25626
X-1.69700 Y1.25626
X-1.69700 Y1.25726
X-1.69600 Y1.25726
X-1.69600 Y1.25826
X-1.69500 Y1.25826
X-1.69500 Y1.25926
X-1.69400 Y1.25926
X-1.69400 Y1.26026
X-1.69300 Y1.26026
X-1.69300 Y1.26126
X-1.69200 Y1.26126
X-1.69200 Y1.26226
X-1.69100 Y1.26226
X-1.69100 Y1.26326
X-1.69000 Y1.26326
X-1.69000 Y1.26426
X-1.68900 Y1.26426
X-1.68900 Y1.26526
X-1.68800 Y1.26526
X-1.68800 Y1.26626
X-1.68700 Y1.26626
X-1.68700 Y1.26726
X-1.68600 Y1.26726
X-1.68600 Y1.26826
X-1.68500 Y1.26826
X-1.68500 Y1.26926
X-1.68400 Y1.26926
X-1.68400 Y1.27026
X-1.68300 Y1.27026
X-1.68300 Y1.27126
X-1.68200 Y1.27126
X-1.68200 Y1.27226
X-1.68100 Y1.27226
X-1.68100 Y1.27326
X-1.68000 Y1.27326
X-1.68000 Y1.27426
X-1.67900 Y1.27426
X-1.67900 Y1.27526
X-1.67800 Y1.27526
X-1.67800 Y1.27626
X-1.67700 Y1.27626
X-1.67700 Y1.27726
X-1.67600 Y1.27726
X-1.67600 Y1.27826
X-1.67500 Y1.27826
X-1.67500 Y1.27926
X-1.67400 Y1.27926
X-1.67400 Y1.28026
X-1.67300 Y1.28026
X-1.67300 Y1.28126
X-1.67200 Y1.28126
X-1.67200 Y1.28226
X-1.67100 Y1.28226
X-1.67100 Y1.28326
X-1.67000 Y1.28326
X-1.67000 Y1.28426
X-1.66900 Y1.28426
X-1.66900 Y1.28526
X-1.66800 Y1.28526
X-1.66800 Y1.28626
X-1.66700 Y1.28626
X-1.66700 Y1.28726
X-1.66600 Y1.28726
X-1.66600 Y1.28826
X-1.66500 Y1.28826
X-1.66500 Y1.28926
X-1.66400 Y1.28926
X-1.66400 Y1.29026
X-1.66300 Y1.29026
X-1.66300 Y1.29126
X-1.66200 Y1.29126
X-1.66200 Y1.29226
X-1.66100 Y1.29226
X-1.66100 Y1.29326
X-1.66000 Y1.29326
X-1.66000 Y1.29426
X-1.65900 Y1.29426
X-1.65900 Y1.29526
X-1.65800 Y1.29526
X-1.65800 Y1.29626
X-1.65700 Y1.29626
X-1.65700 Y1.29726
X-1.65600 Y1.29726
X-1.65600 Y1.29826
X-1.65500 Y1.29826
X-1.65500 Y1.29926
X-1.65400 Y1.29926
X-1.65400 Y1.30026
X-1.65300 Y1.30026
X-1.65300 Y1.30126
X-1.65200 Y1.30126
X-1.65200 Y1.30226
X-1.65100 Y1.30226
X-1.65100 Y1.30326
X-1.65000 Y1.30326
X-1.65000 Y1.30426
X-1.64900 Y1.30426
X-1.64900 Y1.30526
X-1.64800 Y1.30526
X-1.64800 Y1.30626
X-1.64700 Y1.30626
X-1.64700 Y1.30726
X-1.64600 Y1.30726
X-1.64600 Y1.30826
X-1.64500 Y1.30826
X-1.64500 Y1.30926
X-1.64400 Y1.30926
X-1.64400 Y1.31026
X-1.64300 Y1.31026
X-1.64300 Y1.31126
X-1.64200 Y1.31126
X-1.64200 Y1.31226
X-1.64100 Y1.31226
X-1.64100 Y1.31326
X-1.64000 Y1.31326
X-1.64000 Y1.31426
X-1.63900 Y1.31426
X-1.63900 Y1.31526
X-1.63800 Y1.31526
X-1.63800 Y1.31626
X-1.63700 Y1.31626
X-1.63700 Y1.31726
X-1.63600 Y1.31726
X-1.63600 Y1.31826
X-1.63500 Y1.31826
X-1.63500 Y1.31926
X-1.63400 Y1.31926
X-1.63400 Y1.32026
X-1.63300 Y1.32026
X-1.63300 Y1.32126
X-1.63200 Y1.32126
X-1.63200 Y1.32226
X-1.63100 Y1.32226
X-1.63100 Y1.32326
X-1.63000 Y1.32326
X-1.63000 Y1.32426
X-1.62900 Y1.32426
X-1.62900 Y1.32526
X-1.62800 Y1.32526
X-1.62800 Y1.32626
X-1.62700 Y1.32626
X-1.62700 Y1.32726
X-1.62600 Y1.32726
X-1.62600 Y1.32826
X-1.62500 Y1.32826
X-1.62500 Y1.32926
X-1.62400 Y1.32926
X-1.62400 Y1.33026
X-1.62300 Y1.33026
X-1.62300 Y1.33126
X-1.62200 Y1.33126
X-1.62200 Y1.33226
X-1.62100 Y1.33226
X-1.62100 Y1.33326
X-1.62000 Y1.33326
X-1.62000 Y1.33426
X-1.61900 Y1.33426
X-1.61900 Y1.33526
X-1.61800 Y1.33526
X-1.61800 Y1.33626
X-1.61700 Y1.33626
X-1.61700 Y1.33726
X-1.61600 Y1.33726
X-1.61600 Y1.33826
X-1.61500 Y1.33826
X-1.61500 Y1.33926
X-1.61400 Y1.33926
X-1.61400 Y1.34026
X-1.61300 Y1.34026
X-1.61300 Y1.34126
X-1.61200 Y1.34126
X-1.61200 Y1.34226
X-1.61100 Y1.34226
X-1.61100 Y1.34326
X-1.61000 Y1.34326
X-1.61000 Y1.34426
X-1.60900 Y1.34426
X-1.60900 Y1.34526
X-1.60800 Y1.34526
X-1.60800 Y1.34626
X-1.60700 Y1.34626
X-1.60700 Y1.34726
X-1.60600 Y1.34726
X-1.60600 Y1.34826
X-1.60500 Y1.34826
X-1.60500 Y1.34926
X-1.60400 Y1.34926
X-1.60400 Y1.35026
X-1.60300 Y1.35026
X-1.60300 Y1.35126
X-1.60200 Y1.35126
X-1.60200 Y1.35226
X-1.60100 Y1.35226
X-1.60100 Y1.35326
X-1.60000 Y1.35326
X-1.60000 Y1.35426
X-1.59900 Y1.35426
X-1.59900 Y1.35526
X-1.59800 Y1.35526
X-1.59800 Y1.35626
X-1.59700 Y1.35626
X-1.59700 Y1.35726
X-1.59600 Y1.35726
X-1.59600 Y1.35826
X-1.59500 Y1.35826
X-1.59500 Y1.35926
X-1.59400 Y1.35926
X-1.59400 Y1.36026
X-1.59300 Y1.36026
X-1.59300 Y1.36126
X-1.59200 Y1.36126
X-1.59200 Y1.36226
X-1.59100 Y1.36226
X-1.59100 Y1.36326
X-1.59000 Y1.36326
X-1.59000 Y1.36426
X-1.58900 Y1.36426
X-1.58900 Y1.36526
X-1.58800 Y1.36526
X-1.58800 Y1.36626
X-1.58700 Y1.36626
X-1.58700 Y1.36726
X-1.58600 Y1.36726
X-1.58600 Y1.36826
X-1.58500 Y1.36826
X-1.58500 Y1.36926
X-1.58400 Y1.36926
X-1.58400 Y1.37026
X-1.58300 Y1.37026
X-1.58300 Y1.37126
X-1.58200 Y1.37126
X-1.58200 Y1.37226
X-1.58100 Y1.37226
X-1.58100 Y1.37326
X-1.58000 Y1.37326
X-1.58000 Y1.37426
X-1.57900 Y1.37426
X-1.57900 Y1.37526
X-1.57800 Y1.37526
X-1.57800 Y1.37626
X-1.57700 Y1.37626
X-1.57700 Y1.37726
X-1.57600 Y1.37726
X-1.57600 Y1.37826
X-1.57500 Y1.37826
X-1.57500 Y1.37926
X-1.57400 Y1.37926
X-1.57400 Y1.38026
X-1.57300 Y1.38026
X-1.57300 Y1.38126
X-1.57200 Y1.38126
X-1.57200 Y1.38226
X-1.57100 Y1.38226
X-1.57100 Y1.38326
X-1.57000 Y1.38326
X-1.57000 Y1.38426
X-1.56900 Y1.38426
X-1.56900 Y1.38526
X-1.56800 Y1.38526
X-1.56800 Y1.38626
X-1.56700 Y1.38626
X-1.56700 Y1.38726
X-1.56600 Y1.38726
X-1.56600 Y1.38826
X-1.56500 Y1.38826
X-1.56500 Y1.38926
X-1.56400 Y1.38926
X-1.56400 Y1.39026
X-1.56300 Y1.39026
X-1.56300 Y1.39126
X-1.56200 Y1.39126
X-1.56200 Y1.39226
X-1.56100 Y1.39226
X-1.56100 Y1.39326
X-1.56000 Y1.39326
X-1.56000 Y1.39426
X-1.55900 Y1.39426
X-1.55900 Y1.39526
X-1.55800 Y1.39526
X-1.55800 Y1.39626
X-1.55700 Y1.39626
X-1.55700 Y1.39726
X-1.55600 Y1.39726
X-1.55600 Y1.39826
X-1.55500 Y1.39826
X-1.55500 Y1.39926
X-1.55400 Y1.39926
X-1.55400 Y1.40026
X-1.55300 Y1.40026
X-1.55300 Y1.40126
X-1.55200 Y1.40126
X-1.55200 Y1.40226
X-1.55100 Y1.40226
X-1.55100 Y1.40326
X-1.55000 Y1.40326
X-1.55000 Y1.40426
X-1.54900 Y1.40426
X-1.54900 Y1.40526
X-1.54800 Y1.40526
X-1.54800 Y1.40626
X-1.54700 Y1.40626
X-1.54700 Y1.40726
X-1.54600 Y1.40726
X-1.54600 Y1.40826
X-1.54500 Y1.40826
X-1.54500 Y1.40926
X-1.54400 Y1.40926
X-1.54400 Y1.41026
X-1.54300 Y1.41026
X-1.54300 Y1.41126
X-1.54200 Y1.41126
X-1.54200 Y1.41226
X-1.54100 Y1.41226
X-1.54100 Y1.41326
X-1.54000 Y1.41326
X-1.54000 Y1.41426
X-1.53900 Y1.41426
X-1.53900 Y1.41526
X-1.53800 Y1.41526
X-1.53800 Y1.41626
X-1.53700 Y1.41626
X-1.53700 Y1.41726
X-1.53600 Y1.41726
X-1.53600 Y1.41826
X-1.53500 Y1.41826
X-1.53500 Y1.41926
X-1.53400 Y1.41926
X-1.53400 Y1.42026
X-1.53300 Y1.42026
X-1.53300 Y1.42126
X-1.53200 Y1.42126
X-1.53200 Y1.42226
X-1.53100 Y1.42226
X-1.53100 Y1.42326
X-1.53000 Y1.42326
X-1.53000 Y1.42426
X-1.52900 Y1.42426
X-1.52900 Y1.42526
X-1.52800 Y1.42526
X-1.52800 Y1.42626
X-1.52700 Y1.42626
X-1.52700 Y1.42726
X-1.52600 Y1.42726
X-1.52600 Y1.42826
X-1.52500 Y1.42826
X-1.52500 Y1.42926
X-1.52200 Y1.42926
X-1.52200 Y1.43026
X-1.51900 Y1.43026
X-1.51900 Y1.43126
X-1.51800 Y1.43126
X-1.51800 Y1.43226
X-1.51500 Y1.43226
X-1.51500 Y1.43326
X-1.51400 Y1.43326
X-1.51400 Y1.43426
X-1.51300 Y1.43426
X-1.51300 Y1.43526
X-1.51100 Y1.43526
X-1.51100 Y1.43626
X-1.51000 Y1.43626
X-1.51000 Y1.43826
X-1.50900 Y1.43826
X-1.50900 Y1.43926
X-1.50800 Y1.43926
X-1.50800 Y1.44026
X-1.50700 Y1.44026
X-1.50700 Y1.44126
X-1.50600 Y1.44126
X-1.50600 Y1.44426
X-1.50500 Y1.44426
X-1.50500 Y1.44526
X-1.50400 Y1.44526
X-1.50400 Y1.44826
X-1.50300 Y1.44826
X-1.50300 Y1.45126
X-1.50200 Y1.45126
X-1.50200 Y1.45426
X-1.50100 Y1.45426
X-1.50100 Y1.45826
X-1.50000 Y1.45826
X-1.50000 Y1.46126
X-1.50100 Y1.46126
X-1.50100 Y1.46226
X-1.50200 Y1.46226
X-1.50200 Y1.46326
X-1.50300 Y1.46326
X-1.50300 Y1.46426
X-1.50400 Y1.46426
X-1.50400 Y1.46626
X-1.50500 Y1.46626
X-1.50500 Y1.46826
X-1.50600 Y1.46826
X-1.50600 Y1.46926
X-1.50700 Y1.46926
X-1.50700 Y1.47026
X-1.50800 Y1.47026
X-1.50800 Y1.47126
X-1.50900 Y1.47126
X-1.50900 Y1.47226
X-1.51000 Y1.47226
X-1.51000 Y1.47326
X-1.51100 Y1.47326
X-1.51100 Y1.47426
X-1.51200 Y1.47426
X-1.51200 Y1.47526
X-1.51300 Y1.47526
X-1.51300 Y1.47626
X-1.51400 Y1.47626
X-1.51400 Y1.47726
X-1.51500 Y1.47726
X-1.51500 Y1.47826
X-1.51800 Y1.47826
X-1.51800 Y1.47926
X-1.52000 Y1.47926
X-1.52000 Y1.48026
X-1.52200 Y1.48026
X-1.52200 Y1.48126
X-1.53400 Y1.48126
X-1.53400 Y1.48026
X-1.53700 Y1.48026
X-1.53700 Y1.47926
X-1.53900 Y1.47926
X-1.53900 Y1.47826
X-1.54100 Y1.47826
X-1.54100 Y1.47726
X-1.54300 Y1.47726
X-1.54300 Y1.47626
X-1.54400 Y1.47626
X-1.54400 Y1.47526
X-1.54500 Y1.47526
X-1.54500 Y1.47426
X-1.54600 Y1.47426
X-1.54600 Y1.47326
X-1.54700 Y1.47326
X-1.54700 Y1.47226
X-1.54800 Y1.47226
X-1.54800 Y1.47126
X-1.54900 Y1.47126
X-1.54900 Y1.47026
X-1.55000 Y1.47026
X-1.55000 Y1.46926
G04 P0 ( dwell for no time -- G64 should not smooth over this point )
G00 Z0.10000 ( retract )

G00 X-2.19900 Y1.39026 ( rapid move to begin. )
G01 Z-0.00500 F10.00000 ( plunge. )
G04 P0 ( dwell for no time -- G64 should not smooth over this point )
X-2.19900 Y1.39026
X-2.20000 Y1.39026
X-2.20000 Y1.38826
X-2.20100 Y1.38826
X-2.20100 Y1.38626
X-2.20200 Y1.38626
X-2.20200 Y1.38426
X-2.20300 Y1.38426
X-2.20300 Y1.38126
X-2.20400 Y1.38126
X-2.20400 Y1.37026
X-2.20300 Y1.37026
X-2.20300 Y1.36726
X-2.20200 Y1.36726
X-2.20200 Y1.36526
X-2.20100 Y1.36526
X-2.20100 Y1.36326
X-2.20000 Y1.36326
X-2.20000 Y1.36126
X-2.19900 Y1.36126
X-2.19900 Y1.36026
X-2.19800 Y1.36026
X-2.19800 Y1.35926
X-2.19700 Y1.35926
X-2.19700 Y1.35826
X-2.19600 Y1.35826
X-2.19600 Y1.35726
X-2.19500 Y1.35726
X-2.19500 Y1.35626
X-2.19400 Y1.35626
X-2.19400 Y1.35526
X-2.19300 Y1.35526
X-2.19300 Y1.35426
X-2.19200 Y1.35426
X-2.19200 Y1.35326
X-2.19100 Y1.35326
X-2.19100 Y1.35226
X-2.18800 Y1.35226
X-2.18800 Y1.35126
X-2.18600 Y1.35126
X-2.18600 Y1.35026
X-2.18400 Y1.35026
X-2.18400 Y1.34926
X-2.17900 Y1.34926
X-2.17900 Y1.34826
X-2.17700 Y1.34826
X-2.17700 Y1.34726
X-2.17600 Y1.34726
X-2.17600 Y1.34626
X-2.17500 Y1.34626
X-2.17500 Y1.34526
X-2.17400 Y1.34526
X-2.17400 Y1.34426
X-2.17300 Y1.34426
X-2.17300 Y1.34326
X-2.17200 Y1.34326
X-2.17200 Y1.34226
X-2.17100 Y1.34226
X-2.17100 Y1.34126
X-2.17000 Y1.34126
X-2.17000 Y1.34026
X-2.16900 Y1.34026
X-2.16900 Y1.33926
X-2.16800 Y1.33926
X-2.16800 Y1.33826
X-2.16700 Y1.33826
X-2.16700 Y1.33726
X-2.16600 Y1.33726
X-2.16600 Y1.33626
X-2.16500 Y1.33626
X-2.16500 Y1.33526
X-2.16400 Y1.33526
X-2.16400 Y1.33426
X-2.16300 Y1.33426
X-2.16300 Y1.33326
X-2.16200 Y1.33326
X-2.16200 Y1.33226
X-2.16100 Y1.33226
X-2.16100 Y1.33126
X-2.16000 Y1.33126
X-2.16000 Y1.33026
X-2.15900 Y1.33026
X-2.15900 Y1.32926
X-2.15800 Y1.32926
X-2.15800 Y1.32826
X-2.15700 Y1.32826
X-2.15700 Y1.32726
X-2.15600 Y1.32726
X-2.15600 Y1.32626
X-2.15500 Y1.32626
X-2.15500 Y1.32526
X-2.15400 Y1.32526
X-2.15400 Y1.32426
X-2.15300 Y1.32426
X-2.15300 Y1.32326
X-2.15200 Y1.32326
X-2.15200 Y1.32226
X-2.15100 Y1.32226
X-2.15100 Y1.32126
X-2.15000 Y1.32126
X-2.15000 Y1.32026
X-2.14900 Y1.32026
X-2.14900 Y1.31926
X-2.14800 Y1.31926
X-2.14800 Y1.31826
X-2.14700 Y1.31826
X-2.14700 Y1.31726
X-2.14600 Y1.31726
X-2.14600 Y1.31626
X-2.14500 Y1.31626
X-2.14500 Y1.31526
X-2.14400 Y1.31526
X-2.14400 Y1.31426
X-2.14300 Y1.31426
X-2.14300 Y1.31326
X-2.14100 Y1.31326
X-2.14100 Y1.31226
X-2.14000 Y1.31226
X-2.14000 Y1.31126
X-2.13900 Y1.31126
X-2.13900 Y1.30926
X-2.13800 Y1.30926
X-2.13800 Y1.29526
X-2.13900 Y1.29526
X-2.13900 Y1.29326
X-2.14000 Y1.29326
X-2.14000 Y1.29226
X-2.14100 Y1.29226
X-2.14100 Y1.29026
X-2.14200 Y1.29026
X-2.14200 Y1.28826
X-2.14300 Y1.28826
X-2.14300 Y1.28626
X-2.14400 Y1.28626
X-2.14400 Y1.28326
X-2.14500 Y1.28326
X-2.14500 Y1.27326
X-2.14600 Y1.27326
X-2.14600 Y1.27226
X-2.14700 Y1.27226
X-2.14700 Y1.27126
X-2.14800 Y1.27126
X-2.14800 Y1.26326
X-2.14700 Y1.26326
X-2.14700 Y1.26126
X-2.14600 Y1.26126
X-2.14600 Y1.25926
X-2.14500 Y1.25926
X-2.14500 Y1.25726
X-2.14400 Y1.25726
X-2.14400 Y1.25626
X-2.14300 Y1.25626
X-2.14300 Y1.25526
X-2.14100 Y1.25526
X-2.14100 Y1.25426
X-2.13700 Y1.25426
X-2.13700 Y1.25326
X-2.13000 Y1.25326
X-2.13000 Y1.25226
X-2.10700 Y1.25226
X-2.10700 Y1.25326
X-2.10000 Y1.25326
X-2.10000 Y1.25426
X-2.09600 Y1.25426
X-2.09600 Y1.25726
X-2.09700 Y1.25726
X-2.09700 Y1.26226
X-2.09600 Y1.26226
X-2.09600 Y1.26426
X-2.09500 Y1.26426
X-2.09500 Y1.26726
X-2.09400 Y1.26726
X-2.09400 Y1.26926
X-2.09300 Y1.26926
X-2.09300 Y1.27226
X-2.09200 Y1.27226
X-2.09200 Y1.28326
X-2.09300 Y1.28326
X-2.09300 Y1.28626
X-2.09400 Y1.28626
X-2.09400 Y1.28726
X-2.09500 Y1.28726
X-2.09500 Y1.29026
X-2.09600 Y1.29026
X-2.09600 Y1.29226
X-2.09700 Y1.29226
X-2.09700 Y1.29326
X-2.09800 Y1.29326
X-2.09800 Y1.29526
X-2.09900 Y1.29526
X-2.09900 Y1.32126
X-2.10000 Y1.32126
X-2.10000 Y1.32326
X-2.10100 Y1.32326
X-2.10100 Y1.32626
X-2.10200 Y1.32626
X-2.10200 Y1.32726
X-2.10300 Y1.32726
X-2.10300 Y1.32826
X-2.10400 Y1.32826
X-2.10400 Y1.32926
X-2.10500 Y1.32926
X-2.10500 Y1.33026
X-2.10600 Y1.33026
X-2.10600 Y1.33126
X-2.10700 Y1.33126
X-2.10700 Y1.33226
X-2.10800 Y1.33226
X-2.10800 Y1.33326
X-2.10900 Y1.33326
X-2.10900 Y1.33426
X-2.11000 Y1.33426
X-2.11000 Y1.33526
X-2.11100 Y1.33526
X-2.11100 Y1.33626
X-2.11200 Y1.33626
X-2.11200 Y1.33726
X-2.11300 Y1.33726
X-2.11300 Y1.33826
X-2.11400 Y1.33826
X-2.11400 Y1.33926
X-2.11500 Y1.33926
X-2.11500 Y1.34026
X-2.11600 Y1.34026
X-2.11600 Y1.34126
X-2.11700 Y1.34126
X-2.11700 Y1.34226
X-2.11800 Y1.34226
X-2.11800 Y1.34326
X-2.11900 Y1.34326
X-2.11900 Y1.34426
X-2.12000 Y1.34426
X-2.12000 Y1.34526
X-2.12100 Y1.34526
X-2.12100 Y1.34626
X-2.12200 Y1.34626
X-2.12200 Y1.34726
X-2.12300 Y1.34726
X-2.12300 Y1.34826
X-2.12400 Y1.34826
X-2.12400 Y1.34926
X-2.12500 Y1.34926
X-2.12500 Y1.35026
X-2.12600 Y1.35026
X-2.12600 Y1.35126
X-2.12700 Y1.35126
X-2.12700 Y1.35226
X-2.12800 Y1.35226
X-2.12800 Y1.35326
X-2.12900 Y1.35326
X-2.12900 Y1.35426
X-2.13000 Y1.35426
X-2.13000 Y1.35526
X-2.13100 Y1.35526
X-2.13100 Y1.35626
X-2.13200 Y1.35626
X-2.13200 Y1.35726
X-2.13300 Y1.35726
X-2.13300 Y1.35826
X-2.13400 Y1.35826
X-2.13400 Y1.35926
X-2.13500 Y1.35926
X-2.13500 Y1.36026
X-2.13600 Y1.36026
X-2.13600 Y1.36126
X-2.13700 Y1.36126
X-2.13700 Y1.36226
X-2.13800 Y1.36226
X-2.13800 Y1.36326
X-2.13900 Y1.36326
X-2.13900 Y1.36426
X-2.14000 Y1.36426
X-2.14000 Y1.36526
X-2.14100 Y1.36526
X-2.14100 Y1.36626
X-2.14200 Y1.36626
X-2.14200 Y1.36726
X-2.14300 Y1.36726
X-2.14300 Y1.36826
X-2.14400 Y1.36826
X-2.14400 Y1.36926
X-2.14500 Y1.36926
X-2.14500 Y1.37026
X-2.14600 Y1.37026
X-2.14600 Y1.37126
X-2.14700 Y1.37126
X-2.14700 Y1.37226
X-2.14800 Y1.37226
X-2.14800 Y1.37326
X-2.14900 Y1.37326
X-2.14900 Y1.37426
X-2.15000 Y1.37426
X-2.15000 Y1.37626
X-2.15100 Y1.37626
X-2.15100 Y1.38126
X-2.15200 Y1.38126
X-2.15200 Y1.38426
X-2.15300 Y1.38426
X-2.15300 Y1.38626
X-2.15400 Y1.38626
X-2.15400 Y1.38826
X-2.15500 Y1.38826
X-2.15500 Y1.39026
X-2.15600 Y1.39026
X-2.15600 Y1.39126
X-2.15700 Y1.39126
X-2.15700 Y1.39226
X-2.15800 Y1.39226
X-2.15800 Y1.39326
X-2.15900 Y1.39326
X-2.15900 Y1.39426
X-2.16000 Y1.39426
X-2.16000 Y1.39526
X-2.16100 Y1.39526
X-2.16100 Y1.39626
X-2.16200 Y1.39626
X-2.16200 Y1.39726
X-2.16300 Y1.39726
X-2.16300 Y1.39826
X-2.16500 Y1.39826
X-2.16500 Y1.39926
X-2.16700 Y1.39926
X-2.16700 Y1.40026
X-2.16900 Y1.40026
X-2.16900 Y1.40126
X-2.17200 Y1.40126
X-2.17200 Y1.40226
X-2.18400 Y1.40226
X-2.18400 Y1.40126
X-2.18600 Y1.40126
X-2.18600 Y1.40026
X-2.18800 Y1.40026
X-2.18800 Y1.39926
X-2.19100 Y1.39926
X-2.19100 Y1.39826
X-2.19200 Y1.39826
X-2.19200 Y1.39726
X-2.19300 Y1.39726
X-2.19300 Y1.39626
X-2.19400 Y1.39626
X-2.19400 Y1.39526
X-2.19500 Y1.39526
X-2.19500 Y1.39426
X-2.19600 Y1.39426
X-2.19600 Y1.39326
X-2.19700 Y1.39326
X-2.19700 Y1.39226
X-2.19800 Y1.39226
X-2.19800 Y1.39126
X-2.19900 Y1.39126
X-2.19900 Y1.39026
G04 P0 ( dwell for no time -- G64 should not smooth over this point )
G00 Z0.10000 ( retract )

G00 X-1.37100 Y1.24826 ( rapid move to begin. )
G01 Z-0.00500 F10.00000 ( plunge. )
G04 P0 ( dwell for no time -- G64 should not smooth over this point )
X-1.37100 Y1.24826
X-1.37200 Y1.24826
X-1.37200 Y1.24726
X-1.37300 Y1.24726
X-1.37300 Y1.24626
X-1.37400 Y1.24626
X-1.37400 Y1.24526
X-1.37500 Y1.24526
X-1.37500 Y1.24426
X-1.37600 Y1.24426
X-1.37600 Y1.24326
X-1.37700 Y1.24326
X-1.37700 Y1.24226
X-1.37800 Y1.24226
X-1.37800 Y1.24026
X-1.37900 Y1.24026
X-1.37900 Y1.23726
X-1.38000 Y1.23726
X-1.38000 Y1.23526
X-1.38100 Y1.23526
X-1.38100 Y1.23326
X-1.38200 Y1.23326
X-1.38200 Y1.23126
X-1.38300 Y1.23126
X-1.38300 Y1.22726
X-1.38400 Y1.22726
X-1.38400 Y1.21226
X-1.38300 Y1.21226
X-1.38300 Y1.20826
X-1.38200 Y1.20826
X-1.38200 Y1.20626
X-1.38100 Y1.20626
X-1.38100 Y1.20326
X-1.38000 Y1.20326
X-1.38000 Y1.20226
X-1.37900 Y1.20226
X-1.37900 Y1.19926
X-1.37800 Y1.19926
X-1.37800 Y1.19726
X-1.37700 Y1.19726
X-1.37700 Y1.19626
X-1.37600 Y1.19626
X-1.37600 Y1.19526
X-1.37500 Y1.19526
X-1.37500 Y1.19426
X-1.37400 Y1.19426
X-1.37400 Y1.19326
X-1.37300 Y1.19326
X-1.37300 Y1.19226
X-1.37200 Y1.19226
X-1.37200 Y1.19126
X-1.37100 Y1.19126
X-1.37100 Y1.19026
X-1.37000 Y1.19026
X-1.37000 Y1.18926
X-1.36900 Y1.18926
X-1.36900 Y1.18826
X-1.36800 Y1.18826
X-1.36800 Y1.18726
X-1.36700 Y1.18726
X-1.36700 Y1.18626
X-1.36600 Y1.18626
X-1.36600 Y1.18526
X-1.36500 Y1.18526
X-1.36500 Y1.18426
X-1.36200 Y1.18426
X-1.36200 Y1.18326
X-1.36000 Y1.18326
X-1.36000 Y1.18226
X-1.35800 Y1.18226
X-1.35800 Y1.18126
X-1.35600 Y1.18126
X-1.35600 Y1.18026
X-1.35300 Y1.18026
X-1.35300 Y1.17926
X-1.35100 Y1.17926
X-1.35100 Y1.17826
X-1.27500 Y1.17826
X-1.27500 Y1.17926
X-1.27300 Y1.17926
X-1.27300 Y1.18026
X-1.27100 Y1.18026
X-1.27100 Y1.18126
X-1.26900 Y1.18126
X-1.26900 Y1.18226
X-1.26700 Y1.18226
X-1.26700 Y1.18326
X-1.26400 Y1.18326
X-1.26400 Y1.18426
X-1.26200 Y1.18426
X-1.26200 Y1.18526
X-1.26100 Y1.18526
X-1.26100 Y1.18626
X-1.26000 Y1.18626
X-1.26000 Y1.18726
X-1.25900 Y1.18726
X-1.25900 Y1.18826
X-1.25800 Y1.18826
X-1.25800 Y1.18926
X-1.25700 Y1.18926
X-1.25700 Y1.19026
X-1.25600 Y1.19026
X-1.25600 Y1.19126
X-1.25500 Y1.19126
X-1.25500 Y1.19226
X-1.25400 Y1.19226
X-1.25400 Y1.19326
X-1.25300 Y1.19326
X-1.25300 Y1.19426
X-1.25200 Y1.19426
X-1.25200 Y1.19526
X-1.25100 Y1.19526
X-1.25100 Y1.19626
X-1.25000 Y1.19626
X-1.25000 Y1.19726
X-1.24900 Y1.19726
X-1.24900 Y1.19926
X-1.24800 Y1.19926
X-1.24800 Y1.20126
X-1.24700 Y1.20126
X-1.24700 Y1.20326
X-1.24600 Y1.20326
X-1.24600 Y1.20626
X-1.24500 Y1.20626
X-1.24500 Y1.20826
X-1.24400 Y1.20826
X-1.24400 Y1.21126
X-1.24300 Y1.21126
X-1.24300 Y1.22826
X-1.24400 Y1.22826
X-1.24400 Y1.23126
X-1.24500 Y1.23126
X-1.24500 Y1.23326
X-1.24600 Y1.23326
X-1.24600 Y1.23626
X-1.24700 Y1.23626
X-1.24700 Y1.23826
X-1.24800 Y1.23826
X-1.24800 Y1.24026
X-1.24900 Y1.24026
X-1.24900 Y1.24226
X-1.25000 Y1.24226
X-1.25000 Y1.24326
X-1.25100 Y1.24326
X-1.25100 Y1.24426
X-1.25200 Y1.24426
X-1.25200 Y1.24526
X-1.25300 Y1.24526
X-1.25300 Y1.24626
X-1.25400 Y1.24626
X-1.25400 Y1.24726
X-1.25500 Y1.24726
X-1.25500 Y1.24826
X-1.25600 Y1.24826
X-1.25600 Y1.24926
X-1.25700 Y1.24926
X-1.25700 Y1.25026
X-1.25800 Y1.25026
X-1.25800 Y1.25126
X-1.25900 Y1.25126
X-1.25900 Y1.25226
X-1.26000 Y1.25226
X-1.26000 Y1.25326
X-1.26100 Y1.25326
X-1.26100 Y1.25426
X-1.26200 Y1.25426
X-1.26200 Y1.25526
X-1.26400 Y1.25526
X-1.26400 Y1.25626
X-1.26700 Y1.25626
X-1.26700 Y1.25726
X-1.26900 Y1.25726
X-1.26900 Y1.25826
X-1.27100 Y1.25826
X-1.27100 Y1.25926
X-1.27300 Y1.25926
X-1.27300 Y1.26026
X-1.27500 Y1.26026
X-1.27500 Y1.26126
X-1.35100 Y1.26126
X-1.35100 Y1.26026
X-1.35300 Y1.26026
X-1.35300 Y1.25926
X-1.35600 Y1.25926
X-1.35600 Y1.25826
X-1.35800 Y1.25826
X-1.35800 Y1.25726
X-1.36000 Y1.25726
X-1.36000 Y1.25626
X-1.36200 Y1.25626
X-1.36200 Y1.25526
X-1.36500 Y1.25526
X-1.36500 Y1.25426
X-1.36600 Y1.25426
X-1.36600 Y1.25326
X-1.36700 Y1.25326
X-1.36700 Y1.25226
X-1.36800 Y1.25226
X-1.36800 Y1.25126
X-1.36900 Y1.25126
X-1.36900 Y1.25026
X-1.37000 Y1.25026
X-1.37000 Y1.24926
X-1.37100 Y1.24926
X-1.37100 Y1.24826

G04 P0 ( dwell for no time -- G64 should not smooth over this point )
G00 Z0.50000 ( retract )

M9 ( Coolant off. )
M2 ( Program end. )

