(.../pcb-gcode-3.6.0.4/pcb-gcode.ulp)
(Copyright 2005 - 2012 by John Johnson)
(See readme.txt for licensing terms.)
(This file generated from the board:)
(.../eagle/iTrope/itrope-serial-v01.brd)
(Current profile is .../pcb-gcode-3.6.0.4/profiles/mach.pp  )
(This file generated 12/27/14 2:18 PM)
(Settings from pcb-machine.h)
(  Tool Size)
(0.0070  )
(Z Axis Settings)
(  High     Up        Down     Drill)
(0.5000  	0.1000  	-0.0070 	-0.0650 )
(spindle on time = 3.0000)
(milling depth = -0.0100)
(text depth = -0.0050)
(tool change at 0.5000  0.6000  2.0000  )
(feed rate xy = F6     )
(feed rate z  = F10    )
(Settings from pcb-defaults.h)
(isolate min = 0.0010)
(isolate max = 0.0200)
(isolate step = 0.0050)
(Generated top outlines, top drill, bottom outlines, )
(Unit of measure: inch)
(Inch Mode)
G20
(Absolute Coordinates)
G90
G00 X0.0000  Y0.0000  
M03
G04 P3.000000
G00 Z0.1000  
G00 X-0.9933 Y0.3929  
G01 Z-0.0070 F10    
G01 X-0.9933 Y0.3929  F6     
G01 X-0.9932 Y0.3928  
G01 X-0.9899 Y0.3914  
G01 X-0.9872 Y0.3888  
G01 X-0.9866 Y0.3874  
G01 X-0.9857 Y0.3853  
G01 X-0.9857 Y0.3834  
G01 X-0.9857 Y0.3815  
G01 X-0.9860 Y0.3809  
G01 X-0.9870 Y0.3785  
G01 X-0.9870 Y0.3696  
G01 X-0.9836 Y0.3613  
G01 X-0.9773 Y0.3550  
G01 X-0.9690 Y0.3516  
G01 X-0.9601 Y0.3516  
G01 X-0.9519 Y0.3550  
G01 X-0.9468 Y0.3601  
G01 X-0.9433 Y0.3615  
G01 X-0.8019 Y0.3615  
G01 X-0.7049 Y0.4585  
G01 X-0.7014 Y0.4599  
G01 X-0.4740 Y0.4599  
G01 X-0.4705 Y0.4585  
G01 X-0.4678 Y0.4558  
G01 X-0.4655 Y0.4534  
G01 X-0.4572 Y0.4500  
G01 X-0.4483 Y0.4500  
G01 X-0.4401 Y0.4534  
G01 X-0.4337 Y0.4597  
G01 X-0.4303 Y0.4680  
G01 X-0.4303 Y0.4769  
G01 X-0.4337 Y0.4851  
G01 X-0.4401 Y0.4914  
G01 X-0.4483 Y0.4949  
G01 X-0.4572 Y0.4949  
G01 X-0.4655 Y0.4914  
G01 X-0.4705 Y0.4864  
G01 X-0.4740 Y0.4849  
G01 X-0.7165 Y0.4849  
G01 X-0.7200 Y0.4864  
G01 X-0.7227 Y0.4891  
G01 X-0.7241 Y0.4926  
G01 X-0.7241 Y0.4963  
G01 X-0.7227 Y0.4998  
G01 X-0.7200 Y0.5025  
G01 X-0.6952 Y0.5273  
G01 X-0.6917 Y0.5288  
G01 X-0.6845 Y0.5288  
G01 X-0.6763 Y0.5322  
G01 X-0.6700 Y0.5385  
G01 X-0.6666 Y0.5467  
G01 X-0.6666 Y0.5539  
G01 X-0.6651 Y0.5574  
G01 X-0.6624 Y0.5600  
G01 X-0.6364 Y0.5861  
G01 X-0.6329 Y0.5875  
G01 X-0.1886 Y0.5875  
G01 X-0.1866 Y0.5867  
G01 X-0.1851 Y0.5861  
G01 X-0.1824 Y0.5834  
G01 X-0.1820 Y0.5824  
G01 X-0.1810 Y0.5799  
G01 X-0.1806 Y0.5790  
G01 X-0.1702 Y0.5686  
G01 X-0.1566 Y0.5630  
G01 X-0.0828 Y0.5630  
G01 X-0.0692 Y0.5686  
G01 X-0.0588 Y0.5790  
G01 X-0.0531 Y0.5926  
G01 X-0.0531 Y0.6074  
G01 X-0.0588 Y0.6210  
G01 X-0.0692 Y0.6314  
G01 X-0.0828 Y0.6370  
G01 X-0.1566 Y0.6370  
G01 X-0.1702 Y0.6314  
G01 X-0.1806 Y0.6210  
G01 X-0.1810 Y0.6201  
G01 X-0.1820 Y0.6177  
G01 X-0.1824 Y0.6166  
G01 X-0.1850 Y0.6140  
G01 X-0.1865 Y0.6134  
G01 X-0.1886 Y0.6125  
G01 X-0.6453 Y0.6125  
G01 X-0.6828 Y0.5750  
G01 X-0.6863 Y0.5736  
G01 X-0.6934 Y0.5736  
G01 X-0.7017 Y0.5702  
G01 X-0.7080 Y0.5639  
G01 X-0.7114 Y0.5556  
G01 X-0.7114 Y0.5485  
G01 X-0.7128 Y0.5450  
G01 X-0.7155 Y0.5423  
G01 X-0.8305 Y0.4273  
G01 X-0.8340 Y0.4259  
G01 X-0.9630 Y0.4259  
G01 X-0.9665 Y0.4273  
G01 X-0.9692 Y0.4300  
G01 X-0.9716 Y0.4324  
G01 X-0.9798 Y0.4358  
G01 X-0.9887 Y0.4358  
G01 X-0.9970 Y0.4324  
G01 X-1.0033 Y0.4261  
G01 X-1.0067 Y0.4178  
G01 X-1.0067 Y0.4089  
G01 X-1.0033 Y0.4007  
G01 X-0.9970 Y0.3944  
G01 X-0.9933 Y0.3929  
G00 Z0.1000  
G00 X-1.0037 Y0.4108  
G01 Z-0.0070 F10    
G01 X-1.0037 Y0.4159  F6     
G01 X-1.0023 Y0.4209  
G01 X-0.9998 Y0.4253  
G01 X-0.9962 Y0.4289  
G01 X-0.9917 Y0.4315  
G01 X-0.9868 Y0.4328  
G01 X-0.9817 Y0.4328  
G01 X-0.9768 Y0.4315  
G01 X-0.9723 Y0.4289  
G01 X-0.9687 Y0.4253  
G01 X-0.9673 Y0.4229  
G01 X-0.8307 Y0.4229  
G01 X-0.7077 Y0.5459  
G01 X-0.7084 Y0.5486  
G01 X-0.7084 Y0.5537  
G01 X-0.7071 Y0.5587  
G01 X-0.7045 Y0.5631  
G01 X-0.7009 Y0.5667  
G01 X-0.6965 Y0.5693  
G01 X-0.6915 Y0.5706  
G01 X-0.6864 Y0.5706  
G01 X-0.6837 Y0.5699  
G01 X-0.6455 Y0.6081  
G01 X-0.6420 Y0.6095  
G01 X-0.1820 Y0.6095  
G01 X-0.1819 Y0.6099  
G01 X-0.1794 Y0.6161  
G01 X-0.1756 Y0.6217  
G01 X-0.1709 Y0.6264  
G01 X-0.1653 Y0.6302  
G01 X-0.1591 Y0.6327  
G01 X-0.1526 Y0.6340  
G01 X-0.0868 Y0.6340  
G01 X-0.0802 Y0.6327  
G01 X-0.0740 Y0.6302  
G01 X-0.0685 Y0.6264  
G01 X-0.0637 Y0.6217  
G01 X-0.0600 Y0.6161  
G01 X-0.0574 Y0.6099  
G01 X-0.0561 Y0.6034  
G01 X-0.0561 Y0.5966  
G01 X-0.0574 Y0.5901  
G01 X-0.0600 Y0.5839  
G01 X-0.0637 Y0.5783  
G01 X-0.0685 Y0.5736  
G01 X-0.0740 Y0.5698  
G01 X-0.0802 Y0.5673  
G01 X-0.0868 Y0.5660  
G01 X-0.1526 Y0.5660  
G01 X-0.1591 Y0.5673  
G01 X-0.1653 Y0.5698  
G01 X-0.1709 Y0.5736  
G01 X-0.1756 Y0.5783  
G01 X-0.1794 Y0.5839  
G01 X-0.1819 Y0.5901  
G01 X-0.1820 Y0.5905  
G01 X-0.6362 Y0.5905  
G01 X-0.6703 Y0.5564  
G01 X-0.6696 Y0.5537  
G01 X-0.6696 Y0.5486  
G01 X-0.6709 Y0.5437  
G01 X-0.6734 Y0.5393  
G01 X-0.6771 Y0.5356  
G01 X-0.6815 Y0.5331  
G01 X-0.6864 Y0.5318  
G01 X-0.6915 Y0.5318  
G01 X-0.6942 Y0.5325  
G01 X-0.8187 Y0.4080  
G01 X-0.8214 Y0.4053  
G01 X-0.8249 Y0.4039  
G01 X-0.9673 Y0.4039  
G01 X-0.9687 Y0.4015  
G01 X-0.9723 Y0.3978  
G01 X-0.9768 Y0.3953  
G01 X-0.9817 Y0.3940  
G01 X-0.9868 Y0.3940  
G01 X-0.9917 Y0.3953  
G01 X-0.9962 Y0.3978  
G01 X-0.9998 Y0.4015  
G01 X-1.0023 Y0.4059  
G01 X-1.0037 Y0.4108  
G00 Z0.1000  
G00 X-0.9840 Y0.3715  
G01 Z-0.0070 F10    
G01 X-0.9840 Y0.3766  F6     
G01 X-0.9827 Y0.3815  
G01 X-0.9801 Y0.3859  
G01 X-0.9765 Y0.3896  
G01 X-0.9721 Y0.3921  
G01 X-0.9671 Y0.3934  
G01 X-0.9620 Y0.3934  
G01 X-0.9571 Y0.3921  
G01 X-0.9526 Y0.3896  
G01 X-0.9490 Y0.3859  
G01 X-0.9476 Y0.3835  
G01 X-0.8110 Y0.3835  
G01 X-0.7167 Y0.4778  
G01 X-0.7140 Y0.4805  
G01 X-0.7106 Y0.4819  
G01 X-0.4697 Y0.4819  
G01 X-0.4683 Y0.4844  
G01 X-0.4647 Y0.4880  
G01 X-0.4603 Y0.4905  
G01 X-0.4553 Y0.4919  
G01 X-0.4502 Y0.4919  
G01 X-0.4453 Y0.4905  
G01 X-0.4408 Y0.4880  
G01 X-0.4372 Y0.4844  
G01 X-0.4347 Y0.4799  
G01 X-0.4333 Y0.4750  
G01 X-0.4333 Y0.4699  
G01 X-0.4347 Y0.4649  
G01 X-0.4372 Y0.4605  
G01 X-0.4408 Y0.4569  
G01 X-0.4453 Y0.4543  
G01 X-0.4502 Y0.4530  
G01 X-0.4553 Y0.4530  
G01 X-0.4603 Y0.4543  
G01 X-0.4647 Y0.4569  
G01 X-0.4683 Y0.4605  
G01 X-0.4697 Y0.4629  
G01 X-0.7047 Y0.4629  
G01 X-0.8017 Y0.3660  
G01 X-0.8052 Y0.3645  
G01 X-0.9476 Y0.3645  
G01 X-0.9490 Y0.3621  
G01 X-0.9526 Y0.3585  
G01 X-0.9571 Y0.3559  
G01 X-0.9620 Y0.3546  
G01 X-0.9671 Y0.3546  
G01 X-0.9721 Y0.3559  
G01 X-0.9765 Y0.3585  
G01 X-0.9801 Y0.3621  
G01 X-0.9827 Y0.3665  
G01 X-0.9840 Y0.3715  
G00 Z0.1000  
G00 X-0.0673 Y0.2267  
G01 Z-0.0070 F10    
G01 X-0.0718 Y0.2300  F6     
G01 X-0.0767 Y0.2325  
G01 X-0.0820 Y0.2342  
G01 X-0.0874 Y0.2350  
G01 X-0.1053 Y0.2350  
G01 X-0.1053 Y0.2340  
G01 X-0.0868 Y0.2340  
G01 X-0.0802 Y0.2327  
G01 X-0.0740 Y0.2302  
G01 X-0.0685 Y0.2264  
G01 X-0.0637 Y0.2217  
G01 X-0.0600 Y0.2161  
G01 X-0.0593 Y0.2143  
G01 X-0.0582 Y0.2143  
G01 X-0.0602 Y0.2184  
G01 X-0.0634 Y0.2228  
G01 X-0.0673 Y0.2267  
G00 Z0.1000  
G00 X-0.1520 Y0.2350  
G01 Z-0.0070 F10    
G01 X-0.1574 Y0.2342  F6     
G01 X-0.1627 Y0.2325  
G01 X-0.1676 Y0.2300  
G01 X-0.1720 Y0.2267  
G01 X-0.1759 Y0.2228  
G01 X-0.1792 Y0.2184  
G01 X-0.1812 Y0.2143  
G01 X-0.1801 Y0.2143  
G01 X-0.1794 Y0.2161  
G01 X-0.1756 Y0.2217  
G01 X-0.1709 Y0.2264  
G01 X-0.1653 Y0.2302  
G01 X-0.1591 Y0.2327  
G01 X-0.1526 Y0.2340  
G01 X-0.1340 Y0.2340  
G01 X-0.1340 Y0.2350  
G01 X-0.1520 Y0.2350  
G00 Z0.1000  
G00 X-0.1792 Y0.1816  
G01 Z-0.0070 F10    
G01 X-0.1759 Y0.1772  F6     
G01 X-0.1720 Y0.1733  
G01 X-0.1676 Y0.1700  
G01 X-0.1627 Y0.1675  
G01 X-0.1574 Y0.1658  
G01 X-0.1520 Y0.1650  
G01 X-0.1340 Y0.1650  
G01 X-0.1340 Y0.1660  
G01 X-0.1526 Y0.1660  
G01 X-0.1591 Y0.1673  
G01 X-0.1653 Y0.1698  
G01 X-0.1709 Y0.1736  
G01 X-0.1756 Y0.1783  
G01 X-0.1794 Y0.1839  
G01 X-0.1801 Y0.1857  
G01 X-0.1812 Y0.1857  
G01 X-0.1792 Y0.1816  
G00 Z0.1000  
G00 X-0.0874 Y0.1650  
G01 Z-0.0070 F10    
G01 X-0.0820 Y0.1658  F6     
G01 X-0.0767 Y0.1675  
G01 X-0.0718 Y0.1700  
G01 X-0.0673 Y0.1733  
G01 X-0.0634 Y0.1772  
G01 X-0.0602 Y0.1816  
G01 X-0.0582 Y0.1857  
G01 X-0.0593 Y0.1857  
G01 X-0.0600 Y0.1839  
G01 X-0.0637 Y0.1783  
G01 X-0.0685 Y0.1736  
G01 X-0.0740 Y0.1698  
G01 X-0.0802 Y0.1673  
G01 X-0.0868 Y0.1660  
G01 X-0.1053 Y0.1660  
G01 X-0.1053 Y0.1650  
G01 X-0.0874 Y0.1650  
G00 Z0.1000  
G00 X-0.0588 Y0.0790  
G01 Z-0.0070 F10    
G01 X-0.0531 Y0.0926  F6     
G01 X-0.0531 Y0.1074  
G01 X-0.0588 Y0.1210  
G01 X-0.0692 Y0.1314  
G01 X-0.0828 Y0.1370  
G01 X-0.1566 Y0.1370  
G01 X-0.1702 Y0.1314  
G01 X-0.1806 Y0.1210  
G01 X-0.1862 Y0.1074  
G01 X-0.1862 Y0.0926  
G01 X-0.1806 Y0.0790  
G01 X-0.1702 Y0.0686  
G01 X-0.1566 Y0.0630  
G01 X-0.0828 Y0.0630  
G01 X-0.0692 Y0.0686  
G01 X-0.0588 Y0.0790  
G00 Z0.1000  
G00 X-0.0868 Y0.0660  
G01 Z-0.0070 F10    
G01 X-0.1526 Y0.0660  F6     
G01 X-0.1591 Y0.0673  
G01 X-0.1653 Y0.0698  
G01 X-0.1709 Y0.0736  
G01 X-0.1756 Y0.0783  
G01 X-0.1794 Y0.0839  
G01 X-0.1819 Y0.0901  
G01 X-0.1832 Y0.0966  
G01 X-0.1832 Y0.1034  
G01 X-0.1819 Y0.1099  
G01 X-0.1794 Y0.1161  
G01 X-0.1756 Y0.1217  
G01 X-0.1709 Y0.1264  
G01 X-0.1653 Y0.1302  
G01 X-0.1591 Y0.1327  
G01 X-0.1526 Y0.1340  
G01 X-0.0868 Y0.1340  
G01 X-0.0802 Y0.1327  
G01 X-0.0740 Y0.1302  
G01 X-0.0685 Y0.1264  
G01 X-0.0637 Y0.1217  
G01 X-0.0600 Y0.1161  
G01 X-0.0574 Y0.1099  
G01 X-0.0561 Y0.1034  
G01 X-0.0561 Y0.0966  
G01 X-0.0574 Y0.0901  
G01 X-0.0600 Y0.0839  
G01 X-0.0637 Y0.0783  
G01 X-0.0685 Y0.0736  
G01 X-0.0740 Y0.0698  
G01 X-0.0802 Y0.0673  
G01 X-0.0868 Y0.0660  
G00 Z0.1000  
G00 X-0.1806 Y0.4210  
G01 Z-0.0070 F10    
G01 X-0.1862 Y0.4074  F6     
G01 X-0.1862 Y0.3926  
G01 X-0.1806 Y0.3790  
G01 X-0.1702 Y0.3686  
G01 X-0.1566 Y0.3630  
G01 X-0.0828 Y0.3630  
G01 X-0.0692 Y0.3686  
G01 X-0.0588 Y0.3790  
G01 X-0.0531 Y0.3926  
G01 X-0.0531 Y0.4074  
G01 X-0.0588 Y0.4210  
G01 X-0.0692 Y0.4314  
G01 X-0.0828 Y0.4370  
G01 X-0.1566 Y0.4370  
G01 X-0.1702 Y0.4314  
G01 X-0.1806 Y0.4210  
G00 Z0.1000  
G00 X-0.1526 Y0.4340  
G01 Z-0.0070 F10    
G01 X-0.0868 Y0.4340  F6     
G01 X-0.0802 Y0.4327  
G01 X-0.0740 Y0.4302  
G01 X-0.0685 Y0.4264  
G01 X-0.0637 Y0.4217  
G01 X-0.0600 Y0.4161  
G01 X-0.0574 Y0.4099  
G01 X-0.0561 Y0.4034  
G01 X-0.0561 Y0.3966  
G01 X-0.0574 Y0.3901  
G01 X-0.0600 Y0.3839  
G01 X-0.0637 Y0.3783  
G01 X-0.0685 Y0.3736  
G01 X-0.0740 Y0.3698  
G01 X-0.0802 Y0.3673  
G01 X-0.0868 Y0.3660  
G01 X-0.1526 Y0.3660  
G01 X-0.1591 Y0.3673  
G01 X-0.1653 Y0.3698  
G01 X-0.1709 Y0.3736  
G01 X-0.1756 Y0.3783  
G01 X-0.1794 Y0.3839  
G01 X-0.1819 Y0.3901  
G01 X-0.1832 Y0.3966  
G01 X-0.1832 Y0.4034  
G01 X-0.1819 Y0.4099  
G01 X-0.1794 Y0.4161  
G01 X-0.1756 Y0.4217  
G01 X-0.1709 Y0.4264  
G01 X-0.1653 Y0.4302  
G01 X-0.1591 Y0.4327  
G01 X-0.1526 Y0.4340  
G00 Z0.1000  
G00 X-0.7256 Y0.3789  
G01 Z-0.0070 F10    
G01 X-0.7242 Y0.3754  F6     
G01 X-0.7242 Y0.2348  
G01 X-0.7256 Y0.2313  
G01 X-0.7277 Y0.2292  
G01 X-0.7311 Y0.2210  
G01 X-0.7311 Y0.2121  
G01 X-0.7277 Y0.2038  
G01 X-0.7214 Y0.1975  
G01 X-0.7131 Y0.1941  
G01 X-0.7042 Y0.1941  
G01 X-0.6960 Y0.1975  
G01 X-0.6897 Y0.2038  
G01 X-0.6862 Y0.2121  
G01 X-0.6862 Y0.2210  
G01 X-0.6897 Y0.2292  
G01 X-0.6917 Y0.2313  
G01 X-0.6932 Y0.2348  
G01 X-0.6932 Y0.3754  
G01 X-0.6917 Y0.3789  
G01 X-0.6897 Y0.3810  
G01 X-0.6862 Y0.3892  
G01 X-0.6862 Y0.3982  
G01 X-0.6897 Y0.4064  
G01 X-0.6960 Y0.4127  
G01 X-0.7042 Y0.4161  
G01 X-0.7131 Y0.4161  
G01 X-0.7214 Y0.4127  
G01 X-0.7277 Y0.4064  
G01 X-0.7311 Y0.3982  
G01 X-0.7311 Y0.3892  
G01 X-0.7277 Y0.3810  
G01 X-0.7256 Y0.3789  
G00 Z0.1000  
G00 X-0.7212 Y0.3787  
G01 Z-0.0070 F10    
G01 X-0.7242 Y0.3818  F6     
G01 X-0.7268 Y0.3862  
G01 X-0.7281 Y0.3911  
G01 X-0.7281 Y0.3963  
G01 X-0.7268 Y0.4012  
G01 X-0.7242 Y0.4056  
G01 X-0.7206 Y0.4092  
G01 X-0.7162 Y0.4118  
G01 X-0.7112 Y0.4131  
G01 X-0.7061 Y0.4131  
G01 X-0.7012 Y0.4118  
G01 X-0.6967 Y0.4092  
G01 X-0.6931 Y0.4056  
G01 X-0.6906 Y0.4012  
G01 X-0.6892 Y0.3963  
G01 X-0.6892 Y0.3911  
G01 X-0.6906 Y0.3862  
G01 X-0.6931 Y0.3818  
G01 X-0.6962 Y0.3787  
G01 X-0.6962 Y0.2315  
G01 X-0.6931 Y0.2285  
G01 X-0.6906 Y0.2240  
G01 X-0.6892 Y0.2191  
G01 X-0.6892 Y0.2140  
G01 X-0.6906 Y0.2090  
G01 X-0.6931 Y0.2046  
G01 X-0.6967 Y0.2010  
G01 X-0.7012 Y0.1984  
G01 X-0.7061 Y0.1971  
G01 X-0.7112 Y0.1971  
G01 X-0.7162 Y0.1984  
G01 X-0.7206 Y0.2010  
G01 X-0.7242 Y0.2046  
G01 X-0.7268 Y0.2090  
G01 X-0.7281 Y0.2140  
G01 X-0.7281 Y0.2191  
G01 X-0.7268 Y0.2240  
G01 X-0.7242 Y0.2285  
G01 X-0.7212 Y0.2315  
G01 X-0.7212 Y0.3787  
G00 Z0.1000  
G00 X-0.1520 Y0.3350  
G01 Z-0.0070 F10    
G01 X-0.1574 Y0.3342  F6     
G01 X-0.1627 Y0.3325  
G01 X-0.1676 Y0.3300  
G01 X-0.1720 Y0.3267  
G01 X-0.1759 Y0.3228  
G01 X-0.1792 Y0.3184  
G01 X-0.1812 Y0.3143  
G01 X-0.1801 Y0.3143  
G01 X-0.1794 Y0.3161  
G01 X-0.1756 Y0.3217  
G01 X-0.1709 Y0.3264  
G01 X-0.1653 Y0.3302  
G01 X-0.1591 Y0.3327  
G01 X-0.1526 Y0.3340  
G01 X-0.1340 Y0.3340  
G01 X-0.1340 Y0.3350  
G01 X-0.1520 Y0.3350  
G00 Z0.1000  
G00 X-0.0602 Y0.3184  
G01 Z-0.0070 F10    
G01 X-0.0634 Y0.3228  F6     
G01 X-0.0673 Y0.3267  
G01 X-0.0718 Y0.3300  
G01 X-0.0767 Y0.3325  
G01 X-0.0820 Y0.3342  
G01 X-0.0874 Y0.3350  
G01 X-0.1053 Y0.3350  
G01 X-0.1053 Y0.3340  
G01 X-0.0868 Y0.3340  
G01 X-0.0802 Y0.3327  
G01 X-0.0740 Y0.3302  
G01 X-0.0685 Y0.3264  
G01 X-0.0637 Y0.3217  
G01 X-0.0600 Y0.3161  
G01 X-0.0593 Y0.3143  
G01 X-0.0582 Y0.3143  
G01 X-0.0602 Y0.3184  
G00 Z0.1000  
G00 X-0.0874 Y0.2650  
G01 Z-0.0070 F10    
G01 X-0.0820 Y0.2658  F6     
G01 X-0.0767 Y0.2675  
G01 X-0.0718 Y0.2700  
G01 X-0.0673 Y0.2733  
G01 X-0.0634 Y0.2772  
G01 X-0.0602 Y0.2816  
G01 X-0.0582 Y0.2857  
G01 X-0.0593 Y0.2857  
G01 X-0.0600 Y0.2839  
G01 X-0.0637 Y0.2783  
G01 X-0.0685 Y0.2736  
G01 X-0.0740 Y0.2698  
G01 X-0.0802 Y0.2673  
G01 X-0.0868 Y0.2660  
G01 X-0.1053 Y0.2660  
G01 X-0.1053 Y0.2650  
G01 X-0.0874 Y0.2650  
G00 Z0.1000  
G00 X-0.1720 Y0.2733  
G01 Z-0.0070 F10    
G01 X-0.1676 Y0.2700  F6     
G01 X-0.1627 Y0.2675  
G01 X-0.1574 Y0.2658  
G01 X-0.1520 Y0.2650  
G01 X-0.1340 Y0.2650  
G01 X-0.1340 Y0.2660  
G01 X-0.1526 Y0.2660  
G01 X-0.1591 Y0.2673  
G01 X-0.1653 Y0.2698  
G01 X-0.1709 Y0.2736  
G01 X-0.1756 Y0.2783  
G01 X-0.1794 Y0.2839  
G01 X-0.1801 Y0.2857  
G01 X-0.1812 Y0.2857  
G01 X-0.1792 Y0.2816  
G01 X-0.1759 Y0.2772  
G01 X-0.1720 Y0.2733  
G00 Z0.1000  
G00 X-0.1806 Y0.5210  
G01 Z-0.0070 F10    
G01 X-0.1862 Y0.5074  F6     
G01 X-0.1862 Y0.4926  
G01 X-0.1806 Y0.4790  
G01 X-0.1702 Y0.4686  
G01 X-0.1566 Y0.4630  
G01 X-0.0828 Y0.4630  
G01 X-0.0692 Y0.4686  
G01 X-0.0588 Y0.4790  
G01 X-0.0531 Y0.4926  
G01 X-0.0531 Y0.5074  
G01 X-0.0588 Y0.5210  
G01 X-0.0692 Y0.5314  
G01 X-0.0828 Y0.5370  
G01 X-0.1566 Y0.5370  
G01 X-0.1702 Y0.5314  
G01 X-0.1806 Y0.5210  
G00 Z0.1000  
G00 X-0.1526 Y0.5340  
G01 Z-0.0070 F10    
G01 X-0.0868 Y0.5340  F6     
G01 X-0.0802 Y0.5327  
G01 X-0.0740 Y0.5302  
G01 X-0.0685 Y0.5264  
G01 X-0.0637 Y0.5217  
G01 X-0.0600 Y0.5161  
G01 X-0.0574 Y0.5099  
G01 X-0.0561 Y0.5034  
G01 X-0.0561 Y0.4966  
G01 X-0.0574 Y0.4901  
G01 X-0.0600 Y0.4839  
G01 X-0.0637 Y0.4783  
G01 X-0.0685 Y0.4736  
G01 X-0.0740 Y0.4698  
G01 X-0.0802 Y0.4673  
G01 X-0.0868 Y0.4660  
G01 X-0.1526 Y0.4660  
G01 X-0.1591 Y0.4673  
G01 X-0.1653 Y0.4698  
G01 X-0.1709 Y0.4736  
G01 X-0.1756 Y0.4783  
G01 X-0.1794 Y0.4839  
G01 X-0.1819 Y0.4901  
G01 X-0.1832 Y0.4966  
G01 X-0.1832 Y0.5034  
G01 X-0.1819 Y0.5099  
G01 X-0.1794 Y0.5161  
G01 X-0.1756 Y0.5217  
G01 X-0.1709 Y0.5264  
G01 X-0.1653 Y0.5302  
G01 X-0.1591 Y0.5327  
G01 X-0.1526 Y0.5340  
G00 Z0.1000  
G00 X-0.9665 Y0.0648  
G01 Z-0.0070 F10    
G01 X-0.9630 Y0.0662  F6     
G01 X-0.5263 Y0.0662  
G01 X-0.2818 Y0.3108  
G01 X-0.2783 Y0.3122  
G01 X-0.2711 Y0.3122  
G01 X-0.2629 Y0.3156  
G01 X-0.2566 Y0.3219  
G01 X-0.2532 Y0.3302  
G01 X-0.2532 Y0.3391  
G01 X-0.2566 Y0.3473  
G01 X-0.2629 Y0.3537  
G01 X-0.2711 Y0.3571  
G01 X-0.2801 Y0.3571  
G01 X-0.2883 Y0.3537  
G01 X-0.2946 Y0.3473  
G01 X-0.2956 Y0.3449  
G01 X-0.2959 Y0.3441  
G01 X-0.2971 Y0.3414  
G01 X-0.2997 Y0.3387  
G01 X-0.3017 Y0.3379  
G01 X-0.3032 Y0.3373  
G01 X-0.3070 Y0.3373  
G01 X-0.3084 Y0.3379  
G01 X-0.3105 Y0.3387  
G01 X-0.3132 Y0.3414  
G01 X-0.3156 Y0.3473  
G01 X-0.3219 Y0.3537  
G01 X-0.3302 Y0.3571  
G01 X-0.3391 Y0.3571  
G01 X-0.3473 Y0.3537  
G01 X-0.3537 Y0.3473  
G01 X-0.3571 Y0.3391  
G01 X-0.3571 Y0.3319  
G01 X-0.3585 Y0.3285  
G01 X-0.3612 Y0.3258  
G01 X-0.5549 Y0.1321  
G01 X-0.5584 Y0.1306  
G01 X-0.8997 Y0.1306  
G01 X-0.9007 Y0.1310  
G01 X-0.9032 Y0.1321  
G01 X-0.9059 Y0.1347  
G01 X-0.9073 Y0.1382  
G01 X-0.9073 Y0.1420  
G01 X-0.9066 Y0.1437  
G01 X-0.9059 Y0.1455  
G01 X-0.9028 Y0.1530  
G01 X-0.9028 Y0.1619  
G01 X-0.9062 Y0.1702  
G01 X-0.9083 Y0.1722  
G01 X-0.9097 Y0.1757  
G01 X-0.9097 Y0.1999  
G01 X-0.9121 Y0.2056  
G01 X-0.9604 Y0.2540  
G01 X-0.9618 Y0.2574  
G01 X-0.9618 Y0.2604  
G01 X-0.9652 Y0.2686  
G01 X-0.9716 Y0.2749  
G01 X-0.9798 Y0.2783  
G01 X-0.9887 Y0.2783  
G01 X-0.9970 Y0.2749  
G01 X-1.0033 Y0.2686  
G01 X-1.0067 Y0.2604  
G01 X-1.0067 Y0.2514  
G01 X-1.0033 Y0.2432  
G01 X-0.9970 Y0.2369  
G01 X-0.9887 Y0.2335  
G01 X-0.9858 Y0.2335  
G01 X-0.9823 Y0.2320  
G01 X-0.9421 Y0.1919  
G01 X-0.9407 Y0.1884  
G01 X-0.9407 Y0.1757  
G01 X-0.9421 Y0.1722  
G01 X-0.9442 Y0.1702  
G01 X-0.9476 Y0.1619  
G01 X-0.9476 Y0.1576  
G01 X-0.9476 Y0.1557  
G01 X-0.9476 Y0.1538  
G01 X-0.9483 Y0.1521  
G01 X-0.9491 Y0.1503  
G01 X-0.9504 Y0.1490  
G01 X-0.9517 Y0.1476  
G01 X-0.9535 Y0.1469  
G01 X-0.9552 Y0.1462  
G01 X-0.9571 Y0.1462  
G01 X-0.9590 Y0.1462  
G01 X-0.9607 Y0.1469  
G01 X-0.9625 Y0.1476  
G01 X-0.9638 Y0.1490  
G01 X-0.9652 Y0.1503  
G01 X-0.9652 Y0.1505  
G01 X-0.9716 Y0.1568  
G01 X-0.9798 Y0.1602  
G01 X-0.9887 Y0.1602  
G01 X-0.9970 Y0.1568  
G01 X-1.0033 Y0.1505  
G01 X-1.0067 Y0.1423  
G01 X-1.0067 Y0.1333  
G01 X-1.0033 Y0.1251  
G01 X-0.9970 Y0.1188  
G01 X-0.9945 Y0.1178  
G01 X-0.9910 Y0.1163  
G01 X-0.9884 Y0.1137  
G01 X-0.9869 Y0.1102  
G01 X-0.9869 Y0.1064  
G01 X-0.9883 Y0.1029  
G01 X-0.9910 Y0.1003  
G01 X-0.9945 Y0.0988  
G01 X-0.9970 Y0.0977  
G01 X-1.0033 Y0.0914  
G01 X-1.0067 Y0.0832  
G01 X-1.0067 Y0.0743  
G01 X-1.0033 Y0.0660  
G01 X-0.9970 Y0.0597  
G01 X-0.9887 Y0.0563  
G01 X-0.9798 Y0.0563  
G01 X-0.9716 Y0.0597  
G01 X-0.9665 Y0.0648  
G00 Z0.1000  
G00 X-0.9446 Y0.1549  
G01 Z-0.0070 F10    
G01 X-0.9446 Y0.1600  F6     
G01 X-0.9433 Y0.1650  
G01 X-0.9407 Y0.1694  
G01 X-0.9377 Y0.1724  
G01 X-0.9377 Y0.1917  
G01 X-0.9825 Y0.2365  
G01 X-0.9868 Y0.2365  
G01 X-0.9917 Y0.2378  
G01 X-0.9962 Y0.2404  
G01 X-0.9998 Y0.2440  
G01 X-1.0023 Y0.2484  
G01 X-1.0037 Y0.2533  
G01 X-1.0037 Y0.2585  
G01 X-1.0023 Y0.2634  
G01 X-0.9998 Y0.2678  
G01 X-0.9962 Y0.2714  
G01 X-0.9917 Y0.2740  
G01 X-0.9868 Y0.2753  
G01 X-0.9817 Y0.2753  
G01 X-0.9768 Y0.2740  
G01 X-0.9723 Y0.2714  
G01 X-0.9687 Y0.2678  
G01 X-0.9662 Y0.2634  
G01 X-0.9648 Y0.2585  
G01 X-0.9648 Y0.2542  
G01 X-0.9152 Y0.2045  
G01 X-0.9135 Y0.2017  
G01 X-0.9127 Y0.1985  
G01 X-0.9127 Y0.1724  
G01 X-0.9097 Y0.1694  
G01 X-0.9071 Y0.1650  
G01 X-0.9058 Y0.1600  
G01 X-0.9058 Y0.1549  
G01 X-0.9071 Y0.1500  
G01 X-0.9097 Y0.1456  
G01 X-0.9133 Y0.1419  
G01 X-0.9177 Y0.1394  
G01 X-0.9226 Y0.1381  
G01 X-0.9278 Y0.1381  
G01 X-0.9327 Y0.1394  
G01 X-0.9371 Y0.1419  
G01 X-0.9407 Y0.1456  
G01 X-0.9433 Y0.1500  
G01 X-0.9446 Y0.1549  
G00 Z0.1000  
G00 X-0.9673 Y0.0692  
G01 Z-0.0070 F10    
G01 X-0.9687 Y0.0668  F6     
G01 X-0.9723 Y0.0632  
G01 X-0.9768 Y0.0606  
G01 X-0.9817 Y0.0593  
G01 X-0.9868 Y0.0593  
G01 X-0.9917 Y0.0606  
G01 X-0.9962 Y0.0632  
G01 X-0.9998 Y0.0668  
G01 X-1.0023 Y0.0712  
G01 X-1.0037 Y0.0762  
G01 X-1.0037 Y0.0813  
G01 X-1.0023 Y0.0862  
G01 X-0.9998 Y0.0907  
G01 X-0.9962 Y0.0943  
G01 X-0.9917 Y0.0968  
G01 X-0.9868 Y0.0982  
G01 X-0.9817 Y0.0982  
G01 X-0.9768 Y0.0968  
G01 X-0.9723 Y0.0943  
G01 X-0.9687 Y0.0907  
G01 X-0.9673 Y0.0882  
G01 X-0.5354 Y0.0882  
G01 X-0.2943 Y0.3294  
G01 X-0.2950 Y0.3321  
G01 X-0.2950 Y0.3372  
G01 X-0.2937 Y0.3421  
G01 X-0.2911 Y0.3466  
G01 X-0.2875 Y0.3502  
G01 X-0.2831 Y0.3527  
G01 X-0.2781 Y0.3541  
G01 X-0.2730 Y0.3541  
G01 X-0.2681 Y0.3527  
G01 X-0.2637 Y0.3502  
G01 X-0.2600 Y0.3466  
G01 X-0.2575 Y0.3421  
G01 X-0.2562 Y0.3372  
G01 X-0.2562 Y0.3321  
G01 X-0.2575 Y0.3271  
G01 X-0.2600 Y0.3227  
G01 X-0.2637 Y0.3191  
G01 X-0.2681 Y0.3165  
G01 X-0.2730 Y0.3152  
G01 X-0.2781 Y0.3152  
G01 X-0.2809 Y0.3159  
G01 X-0.5261 Y0.0707  
G01 X-0.5296 Y0.0692  
G01 X-0.5334 Y0.0692  
G01 X-0.9673 Y0.0692  
G00 Z0.1000  
G00 X-0.9627 Y0.1086  
G01 Z-0.0070 F10    
G01 X-0.9665 Y0.1086  F6     
G01 X-0.9699 Y0.1101  
G01 X-0.9790 Y0.1191  
G01 X-0.9817 Y0.1184  
G01 X-0.9868 Y0.1184  
G01 X-0.9917 Y0.1197  
G01 X-0.9962 Y0.1223  
G01 X-0.9998 Y0.1259  
G01 X-1.0023 Y0.1303  
G01 X-1.0037 Y0.1352  
G01 X-1.0037 Y0.1404  
G01 X-1.0023 Y0.1453  
G01 X-0.9998 Y0.1497  
G01 X-0.9962 Y0.1533  
G01 X-0.9917 Y0.1559  
G01 X-0.9868 Y0.1572  
G01 X-0.9817 Y0.1572  
G01 X-0.9768 Y0.1559  
G01 X-0.9723 Y0.1533  
G01 X-0.9687 Y0.1497  
G01 X-0.9662 Y0.1453  
G01 X-0.9648 Y0.1404  
G01 X-0.9648 Y0.1352  
G01 X-0.9656 Y0.1325  
G01 X-0.9606 Y0.1276  
G01 X-0.5551 Y0.1276  
G01 X-0.3533 Y0.3294  
G01 X-0.3541 Y0.3321  
G01 X-0.3541 Y0.3372  
G01 X-0.3527 Y0.3421  
G01 X-0.3502 Y0.3466  
G01 X-0.3466 Y0.3502  
G01 X-0.3421 Y0.3527  
G01 X-0.3372 Y0.3541  
G01 X-0.3321 Y0.3541  
G01 X-0.3271 Y0.3527  
G01 X-0.3227 Y0.3502  
G01 X-0.3191 Y0.3466  
G01 X-0.3165 Y0.3421  
G01 X-0.3152 Y0.3372  
G01 X-0.3152 Y0.3321  
G01 X-0.3165 Y0.3271  
G01 X-0.3191 Y0.3227  
G01 X-0.3227 Y0.3191  
G01 X-0.3271 Y0.3165  
G01 X-0.3321 Y0.3152  
G01 X-0.3372 Y0.3152  
G01 X-0.3399 Y0.3159  
G01 X-0.5458 Y0.1101  
G01 X-0.5493 Y0.1086  
G01 X-0.5531 Y0.1086  
G01 X-0.9627 Y0.1086  
G00 Z0.1000  
G00 X-0.0105 Y0.0181  
G01 Z-0.0070 F10    
G01 X-0.0119 Y0.0146  F6     
G01 X-0.0146 Y0.0119  
G01 X-0.0181 Y0.0105  
G01 X-1.1819 Y0.0105  
G01 X-1.1854 Y0.0119  
G01 X-1.1881 Y0.0146  
G01 X-1.1895 Y0.0181  
G01 X-1.1895 Y0.6118  
G01 X-1.1881 Y0.6153  
G01 X-1.1854 Y0.6180  
G01 X-1.1819 Y0.6194  
G01 X-1.0390 Y0.6194  
G01 X-1.0328 Y0.6256  
G01 X-1.0328 Y0.9661  
G01 X-1.0314 Y0.9696  
G01 X-1.0287 Y0.9723  
G01 X-1.0252 Y0.9738  
G01 X-0.0181 Y0.9738  
G01 X-0.0146 Y0.9723  
G01 X-0.0119 Y0.9696  
G01 X-0.0105 Y0.9661  
G01 X-0.0105 Y0.9624  
G01 X-0.0105 Y0.0181  
G00 Z0.1000  
G00 Z0.5000  
M05
M02
